SumeetShanbhag/Controller-Design-for-SCARA/rrbot_work/Results/info_3.csv
__time,/forward_effort_controller/commands/data.0,/forward_effort_controller/commands/data.1,/forward_effort_controller/commands/data.2,/forward_effort_controller/commands/layout/data_offset,/joint_states/header/stamp,/joint_states/joint1/effort,/joint_states/joint1/position,/joint_states/joint1/velocity,/joint_states/joint2/effort,/joint_states/joint2/position,/joint_states/joint2/velocity,/joint_states/joint3/effort,/joint_states/joint3/position,/joint_states/joint3/velocity,/reference_joint/commands/data.0,/reference_joint/commands/data.1,/reference_joint/commands/data.2,/reference_joint/commands/layout/data_offset
1670041467.190055,,,,,384.647000,0.004303,1.199975,-0.000123,-0.000682,2.499955,0.000128,9.679034,1.388642,0.007193,,,,
1670041467.190171,,,,,,,,,,,,,,,1.200000,2.500000,1.500000,0.000000
1670041467.190689,0.035731,-0.046126,12.114965,0.000000,,,,,,,,,,,,,,
1670041467.192840,0.000000,0.000000,0.000000,0.000000,,,,,,,,,,,,,,
1670041467.199663,,,,,384.657000,0.005802,1.199974,-0.000073,-0.002779,2.499956,0.000081,9.733554,1.388711,0.006480,,,,
1670041467.199716,,,,,384.657000,0.005802,1.199974,-0.000073,-0.002779,2.499956,0.000081,9.733554,1.388711,0.006480,,,,
1670041467.199893,,,,,,,,,,,,,,,1.200000,2.500000,1.500000,0.000000
1670041467.199911,,,,,,,,,,,,,,,1.200000,2.500000,1.500000,0.000000
1670041467.209999,,,,,384.667000,0.005166,1.199974,-0.000028,-0.002224,2.499957,0.000036,9.770462,1.388774,0.006138,,,,
1670041467.210093,,,,,384.667000,0.005166,1.199974,-0.000028,-0.002224,2.499957,0.000036,9.770462,1.388774,0.006138,,,,
1670041467.210473,,,,,,,,,,,,,,,1.200000,2.500000,1.500000,0.000000
1670041467.210518,,,,,,,,,,,,,,,1.200000,2.500000,1.500000,0.000000
1670041467.219695,,,,,384.677000,0.003739,1.199974,0.000001,-0.000638,2.499957,0.000007,9.789237,1.388834,0.005984,,,,
1670041467.219775,,,,,384.677000,0.003739,1.199974,0.000001,-0.000638,2.499957,0.000007,9.789237,1.388834,0.005984,,,,
1670041467.220090,-0.014124,0.024437,10.156820,0.000000,,,,,,,,,,,,,,
1670041467.220130,,,,,,,,,,,,,,,1.200000,2.500000,1.500000,0.000000
1670041467.220156,,,,,,,,,,,,,,,1.200000,2.500000,1.500000,0.000000
1670041467.221003,-0.015402,0.025055,9.752012,0.000000,,,,,,,,,,,,,,
1670041467.229741,,,,,384.687000,0.002413,1.199974,0.000013,0.000896,2.499957,-0.000007,9.795553,1.388894,0.005895,,,,
1670041467.229791,,,,,384.687000,0.002413,1.199974,0.000013,0.000896,2.499957,-0.000007,9.795553,1.388894,0.005895,,,,
1670041467.229947,,,,,,,,,,,,,,,1.200000,2.500000,1.500000,0.000000
1670041467.229964,,,,,,,,,,,,,,,1.200000,2.500000,1.500000,0.000000
1670041467.239659,,,,,384.697000,0.001555,1.199974,0.000015,0.001919,2.499957,-0.000010,9.795469,1.388952,0.005808,,,,
1670041467.239729,,,,,384.697000,0.001555,1.199974,0.000015,0.001919,2.499957,-0.000010,9.795469,1.388952,0.005808,,,,
1670041467.239948,,,,,,,,,,,,,,,1.200000,2.500000,1.500000,0.000000
1670041467.239977,,,,,,,,,,,,,,,1.200000,2.500000,1.500000,0.000000
1670041467.249838,,,,,384.707000,0.001173,1.199974,0.000012,0.002401,2.499957,-0.000007,9.793222,1.389010,0.005699,,,,
1670041467.249939,,,,,384.707000,0.001173,1.199974,0.000012,0.002401,2.499957,-0.000007,9.793222,1.389010,0.005699,,,,
1670041467.250130,,,,,,,,,,,,,,,1.200000,2.500000,1.500000,0.000000
1670041467.250176,,,,,,,,,,,,,,,1.200000,2.500000,1.500000,0.000000
1670041467.259732,,,,,384.717000,0.001114,1.199974,0.000007,0.002504,2.499957,-0.000003,9.791026,1.389066,0.005570,,,,
1670041467.259810,,,,,384.717000,0.001114,1.199974,0.000007,0.002504,2.499957,-0.000003,9.791026,1.389066,0.005570,,,,
1670041467.260071,,,,,,,,,,,,,,,1.200000,2.500000,1.500000,0.000000
1670041467.260106,,,,,,,,,,,,,,,1.200000,2.500000,1.500000,0.000000
1670041467.270542,,,,,384.727000,0.001211,1.199974,0.000003,0.002418,2.499957,-0.000000,9.789653,1.389121,0.005428,,,,
1670041467.270673,,,,,384.727000,0.001211,1.199974,0.000003,0.002418,2.499957,-0.000000,9.789653,1.389121,0.005428,,,,
1670041467.271538,,,,,,,,,,,,,,,1.200000,2.500000,1.500000,0.000000
1670041467.271601,,,,,,,,,,,,,,,1.200000,2.500000,1.500000,0.000000
1670041467.280736,,,,,384.737000,0.001342,1.199974,0.000001,0.002282,2.499957,0.000002,9.789113,1.389174,0.005282,,,,
1670041467.280820,,,,,384.737000,0.001342,1.199974,0.000001,0.002282,2.499957,0.000002,9.789113,1.389174,0.005282,,,,
1670041467.281124,,,,,,,,,,,,,,,1.200000,2.500000,1.500000,0.000000
1670041467.281165,,,,,,,,,,,,,,,1.200000,2.500000,1.500000,0.000000
1670041467.290932,,,,,384.747000,0.001447,1.199974,0.000000,0.002168,2.499957,0.000003,9.789136,1.389226,0.005137,,,,
1670041467.290974,,,,,384.747000,0.001447,1.199974,0.000000,0.002168,2.499957,0.000003,9.789136,1.389226,0.005137,,,,
1670041467.291152,0.003739,-0.000638,9.789237,0.000000,,,,,,,,,,,,,,
1670041467.291167,,,,,,,,,,,,,,,1.200000,2.500000,1.500000,0.000000
1670041467.291177,,,,,,,,,,,,,,,1.200000,2.500000,1.500000,0.000000
1670041467.301329,,,,,384.757000,0.001509,1.199974,0.000000,0.002099,2.499957,0.000003,9.789442,1.389277,0.004996,,,,
1670041467.301369,,,,,384.757000,0.001509,1.199974,0.000000,0.002099,2.499957,0.000003,9.789442,1.389277,0.004996,,,,
1670041467.301532,0.002413,0.000896,9.795553,0.000000,,,,,,,,,,,,,,
1670041467.301548,,,,,,,,,,,,,,,1.200000,2.500000,1.500000,0.000000
1670041467.301554,,,,,,,,,,,,,,,1.200000,2.500000,1.500000,0.000000
1670041467.301733,0.001555,0.001919,9.795469,0.000000,,,,,,,,,,,,,,
1670041467.311639,,,,,384.767000,0.001534,1.199974,0.000000,0.002070,2.499957,0.000002,9.789837,1.389326,0.004860,,,,
1670041467.311752,,,,,384.767000,0.001534,1.199974,0.000000,0.002070,2.499957,0.000002,9.789837,1.389326,0.004860,,,,
1670041467.312386,0.001555,0.001919,9.795469,0.000000,,,,,,,,,,,,,,
1670041467.312441,,,,,,,,,,,,,,,1.200000,2.500000,1.500000,0.000000
1670041467.312475,,,,,,,,,,,,,,,1.200000,2.500000,1.500000,0.000000
1670041467.322202,,,,,384.777000,0.001537,1.199974,0.000001,0.002066,2.499957,0.000002,9.790219,1.389374,0.004728,,,,
1670041467.322293,,,,,384.777000,0.001537,1.199974,0.000001,0.002066,2.499957,0.000002,9.790219,1.389374,0.004728,,,,
1670041467.322444,0.001173,0.002401,9.793222,0.000000,,,,,,,,,,,,,,
1670041467.322922,,,,,,,,,,,,,,,1.200000,2.500000,1.500000,0.000000
1670041467.322962,,,,,,,,,,,,,,,1.200000,2.500000,1.500000,0.000000
1670041467.332399,,,,,384.787000,0.001531,1.199974,0.000001,0.002073,2.499957,0.000002,9.790556,1.389421,0.004601,,,,
1670041467.332458,,,,,384.787000,0.001531,1.199974,0.000001,0.002073,2.499957,0.000002,9.790556,1.389421,0.004601,,,,
1670041467.332629,,,,,,,,,,,,,,,1.200000,2.500000,1.500000,0.000000
1670041467.332651,,,,,,,,,,,,,,,1.200000,2.500000,1.500000,0.000000
1670041467.342306,,,,,384.797000,0.001522,1.199974,0.000001,0.002083,2.499957,0.000002,9.790846,1.389466,0.004478,,,,
1670041467.342357,,,,,384.797000,0.001522,1.199974,0.000001,0.002083,2.499957,0.000002,9.790846,1.389466,0.004478,,,,
1670041467.342542,,,,,,,,,,,,,,,1.200000,2.500000,1.500000,0.000000
1670041467.342552,,,,,,,,,,,,,,,1.200000,2.500000,1.500000,0.000000
1670041467.352502,,,,,384.807000,0.001516,1.199974,0.000001,0.002090,2.499957,0.000002,9.791104,1.389510,0.004358,,,,
1670041467.352549,,,,,384.807000,0.001516,1.199974,0.000001,0.002090,2.499957,0.000002,9.791104,1.389510,0.004358,,,,
1670041467.352909,0.001342,0.002282,9.789113,0.000000,,,,,,,,,,,,,,
1670041467.352939,,,,,,,,,,,,,,,1.200000,2.500000,1.500000,0.000000
1670041467.352950,,,,,,,,,,,,,,,1.200000,2.500000,1.500000,0.000000
1670041467.353138,0.001447,0.002168,9.789136,0.000000,,,,,,,,,,,,,,
1670041467.363135,0.001447,0.002168,9.789136,0.000000,,,,,,,,,,,,,,
1670041467.363190,,,,,384.817000,0.001512,1.199974,0.000001,0.002094,2.499957,0.000002,9.791341,1.389553,0.004241,,,,
1670041467.363254,,,,,384.817000,0.001512,1.199974,0.000001,0.002094,2.499957,0.000002,9.791341,1.389553,0.004241,,,,
1670041467.363276,,,,,,,,,,,,,,,1.200000,2.500000,1.500000,0.000000
1670041467.363294,,,,,,,,,,,,,,,1.200000,2.500000,1.500000,0.000000
1670041467.363860,0.001509,0.002099,9.789442,0.000000,,,,,,,,,,,,,,
1670041467.372878,,,,,384.827000,0.001511,1.199974,0.000001,0.002096,2.499957,0.000002,9.791568,1.389595,0.004127,,,,
1670041467.372969,,,,,384.827000,0.001511,1.199974,0.000001,0.002096,2.499957,0.000002,9.791568,1.389595,0.004127,,,,
1670041467.373591,,,,,,,,,,,,,,,1.200000,2.500000,1.500000,0.000000
1670041467.373632,,,,,,,,,,,,,,,1.200000,2.500000,1.500000,0.000000
1670041467.382757,,,,,384.837000,0.001511,1.199974,0.000001,0.002097,2.499957,0.000002,9.791789,1.389635,0.004017,,,,
1670041467.382852,,,,,384.837000,0.001511,1.199974,0.000001,0.002097,2.499957,0.000002,9.791789,1.389635,0.004017,,,,
1670041467.383233,,,,,,,,,,,,,,,1.200000,2.500000,1.500000,0.000000
1670041467.383278,,,,,,,,,,,,,,,1.200000,2.500000,1.500000,0.000000
1670041467.392324,,,,,384.847000,0.001512,1.199974,0.000001,0.002096,2.499957,0.000002,9.792006,1.389675,0.003909,,,,
1670041467.392363,,,,,384.847000,0.001512,1.199974,0.000001,0.002096,2.499957,0.000002,9.792006,1.389675,0.003909,,,,
1670041467.392438,0.001537,0.002066,9.790219,0.000000,,,,,,,,,,,,,,
1670041467.392446,,,,,,,,,,,,,,,1.200000,2.500000,1.500000,0.000000
1670041467.392451,,,,,,,,,,,,,,,1.200000,2.500000,1.500000,0.000000
1670041467.393579,0.001531,0.002073,9.790556,0.000000,,,,,,,,,,,,,,
1670041467.402894,,,,,384.857000,0.001512,1.199974,0.000001,0.002096,2.499957,0.000002,9.792219,1.389714,0.003804,,,,
1670041467.402941,,,,,384.857000,0.001512,1.199974,0.000001,0.002096,2.499957,0.000002,9.792219,1.389714,0.003804,,,,
1670041467.402950,,,,,,,,,,,,,,,1.200000,2.500000,1.500000,0.000000
1670041467.402960,,,,,,,,,,,,,,,1.200000,2.500000,1.500000,0.000000
1670041467.412500,,,,,384.867000,0.001513,1.199974,0.000001,0.002096,2.499957,0.000002,9.792427,1.389751,0.003702,,,,
1670041467.412578,,,,,384.867000,0.001513,1.199974,0.000001,0.002096,2.499957,0.000002,9.792427,1.389751,0.003702,,,,
1670041467.412895,,,,,,,,,,,,,,,1.200000,2.500000,1.500000,0.000000
1670041467.412931,,,,,,,,,,,,,,,1.200000,2.500000,1.500000,0.000000
1670041467.423002,,,,,384.877000,0.001513,1.199974,0.000001,0.002096,2.499957,0.000001,9.792630,1.389788,0.003603,,,,
1670041467.423084,,,,,384.877000,0.001513,1.199974,0.000001,0.002096,2.499957,0.000001,9.792630,1.389788,0.003603,,,,
1670041467.423465,,,,,,,,,,,,,,,1.200000,2.500000,1.500000,0.000000
1670041467.423510,,,,,,,,,,,,,,,1.200000,2.500000,1.500000,0.000000
1670041467.432499,,,,,384.887000,0.001513,1.199974,0.000001,0.002096,2.499957,0.000001,9.792828,1.389823,0.003506,,,,
1670041467.432597,,,,,384.887000,0.001513,1.199974,0.000001,0.002096,2.499957,0.000001,9.792828,1.389823,0.003506,,,,
1670041467.432882,0.001512,0.002094,9.791341,0.000000,,,,,,,,,,,,,,
1670041467.432919,,,,,,,,,,,,,,,1.200000,2.500000,1.500000,0.000000
1670041467.432943,,,,,,,,,,,,,,,1.200000,2.500000,1.500000,0.000000
1670041467.434381,0.001511,0.002096,9.791568,0.000000,,,,,,,,,,,,,,
1670041467.442767,,,,,384.897000,0.001513,1.199974,0.000001,0.002096,2.499957,0.000001,9.793021,1.389858,0.003412,,,,
1670041467.442852,,,,,384.897000,0.001513,1.199974,0.000001,0.002096,2.499957,0.000001,9.793021,1.389858,0.003412,,,,
1670041467.442966,,,,,,,,,,,,,,,1.200000,2.500000,1.500000,0.000000
1670041467.442994,,,,,,,,,,,,,,,1.200000,2.500000,1.500000,0.000000
1670041467.452315,,,,,384.907000,0.001513,1.199974,0.000001,0.002096,2.499957,0.000001,9.793208,1.389891,0.003321,,,,
1670041467.452357,,,,,384.907000,0.001513,1.199974,0.000001,0.002096,2.499957,0.000001,9.793208,1.389891,0.003321,,,,
1670041467.452566,,,,,,,,,,,,,,,1.200000,2.500000,1.500000,0.000000
1670041467.452591,,,,,,,,,,,,,,,1.200000,2.500000,1.500000,0.000000
1670041467.462361,,,,,384.917000,0.001513,1.199974,0.000001,0.002096,2.499957,0.000001,9.793390,1.389924,0.003232,,,,
1670041467.462403,,,,,384.917000,0.001513,1.199974,0.000001,0.002096,2.499957,0.000001,9.793390,1.389924,0.003232,,,,
1670041467.462667,0.001512,0.002096,9.792006,0.000000,,,,,,,,,,,,,,
1670041467.462686,,,,,,,,,,,,,,,1.200000,2.500000,1.500000,0.000000
1670041467.462707,,,,,,,,,,,,,,,1.200000,2.500000,1.500000,0.000000
1670041467.462994,0.001512,0.002096,9.792219,0.000000,,,,,,,,,,,,,,
1670041467.472405,,,,,384.927000,0.001513,1.199974,0.000001,0.002096,2.499957,0.000001,9.793568,1.389956,0.003145,,,,
1670041467.472465,,,,,384.927000,0.001513,1.199974,0.000001,0.002096,2.499957,0.000001,9.793568,1.389956,0.003145,,,,
1670041467.472702,,,,,,,,,,,,,,,1.200000,2.500000,1.500000,0.000000
1670041467.472717,,,,,,,,,,,,,,,1.200000,2.500000,1.500000,0.000000
1670041467.482816,,,,,384.937000,0.001513,1.199974,0.000001,0.002096,2.499957,0.000001,9.793740,1.389987,0.003061,,,,
1670041467.482872,,,,,384.937000,0.001513,1.199974,0.000001,0.002096,2.499957,0.000001,9.793740,1.389987,0.003061,,,,
1670041467.483036,,,,,,,,,,,,,,,1.200000,2.500000,1.500000,0.000000
1670041467.483053,,,,,,,,,,,,,,,1.200000,2.500000,1.500000,0.000000
1670041467.492844,,,,,384.947000,0.001513,1.199974,0.000001,0.002096,2.499957,0.000001,9.793908,1.390017,0.002979,,,,
1670041467.492925,,,,,384.947000,0.001513,1.199974,0.000001,0.002096,2.499957,0.000001,9.793908,1.390017,0.002979,,,,
1670041467.493254,,,,,,,,,,,,,,,1.200000,2.500000,1.500000,0.000000
1670041467.493299,,,,,,,,,,,,,,,1.200000,2.500000,1.500000,0.000000
1670041467.503080,,,,,384.957000,0.001514,1.199974,0.000001,0.002096,2.499957,0.000001,9.794071,1.390046,0.002899,,,,
1670041467.503207,,,,,384.957000,0.001514,1.199974,0.000001,0.002096,2.499957,0.000001,9.794071,1.390046,0.002899,,,,
1670041467.503788,0.001513,0.002096,9.792828,0.000000,,,,,,,,,,,,,,
1670041467.503838,,,,,,,,,,,,,,,1.200000,2.500000,1.500000,0.000000
1670041467.503853,,,,,,,,,,,,,,,1.200000,2.500000,1.500000,0.000000
1670041467.504003,0.001513,0.002096,9.793021,0.000000,,,,,,,,,,,,,,
1670041467.512596,,,,,384.967000,0.001514,1.199974,0.000001,0.002096,2.499957,0.000001,9.794230,1.390075,0.002821,,,,
1670041467.512633,,,,,384.967000,0.001514,1.199974,0.000001,0.002096,2.499957,0.000001,9.794230,1.390075,0.002821,,,,
1670041467.512866,,,,,,,,,,,,,,,1.200000,2.500000,1.500000,0.000000
1670041467.512884,,,,,,,,,,,,,,,1.200000,2.500000,1.500000,0.000000
1670041467.522364,,,,,384.977000,0.001514,1.199974,0.000001,0.002096,2.499957,0.000001,9.794385,1.390103,0.002745,,,,
1670041467.522421,,,,,384.977000,0.001514,1.199974,0.000001,0.002096,2.499957,0.000001,9.794385,1.390103,0.002745,,,,
1670041467.522650,,,,,,,,,,,,,,,1.200000,2.500000,1.500000,0.000000
1670041467.522664,,,,,,,,,,,,,,,1.200000,2.500000,1.500000,0.000000
1670041467.532962,,,,,384.987000,0.001514,1.199974,0.000001,0.002096,2.499957,0.000001,9.794536,1.390130,0.002672,,,,
1670041467.533033,,,,,384.987000,0.001514,1.199974,0.000001,0.002096,2.499957,0.000001,9.794536,1.390130,0.002672,,,,
1670041467.533298,0.001513,0.002096,9.793390,0.000000,,,,,,,,,,,,,,
1670041467.533345,,,,,,,,,,,,,,,1.200000,2.500000,1.500000,0.000000
1670041467.533359,,,,,,,,,,,,,,,1.200000,2.500000,1.500000,0.000000
1670041467.543217,,,,,384.997000,0.001514,1.199974,0.000001,0.002097,2.499957,0.000001,9.794682,1.390156,0.002600,,,,
1670041467.543338,,,,,384.997000,0.001514,1.199974,0.000001,0.002097,2.499957,0.000001,9.794682,1.390156,0.002600,,,,
1670041467.543789,,,,,,,,,,,,,,,1.200000,2.500000,1.500000,0.000000
1670041467.543846,,,,,,,,,,,,,,,1.200000,2.500000,1.500000,0.000000
1670041467.552867,,,,,385.007000,0.001514,1.199974,0.000001,0.002097,2.499957,0.000001,9.794825,1.390182,0.002530,,,,
1670041467.552948,,,,,385.007000,0.001514,1.199974,0.000001,0.002097,2.499957,0.000001,9.794825,1.390182,0.002530,,,,
1670041467.553464,,,,,,,,,,,,,,,1.200000,2.500000,1.500000,0.000000
1670041467.553532,,,,,,,,,,,,,,,1.200000,2.500000,1.500000,0.000000
1670041467.562545,,,,,385.017000,0.001514,1.199974,0.000001,0.002097,2.499957,0.000001,9.794964,1.390207,0.002462,,,,
1670041467.562611,,,,,385.017000,0.001514,1.199974,0.000001,0.002097,2.499957,0.000001,9.794964,1.390207,0.002462,,,,
1670041467.562901,,,,,,,,,,,,,,,1.200000,2.500000,1.500000,0.000000
1670041467.562942,,,,,,,,,,,,,,,1.200000,2.500000,1.500000,0.000000
1670041467.572669,,,,,385.027000,0.001514,1.199974,0.000001,0.002097,2.499957,0.000001,9.795099,1.390231,0.002396,,,,
1670041467.572739,,,,,385.027000,0.001514,1.199974,0.000001,0.002097,2.499957,0.000001,9.795099,1.390231,0.002396,,,,
1670041467.572892,0.001514,0.002096,9.794071,0.000000,,,,,,,,,,,,,,
1670041467.572916,,,,,,,,,,,,,,,1.200000,2.500000,1.500000,0.000000
1670041467.572933,,,,,,,,,,,,,,,1.200000,2.500000,1.500000,0.000000
1670041467.573426,0.001514,0.002096,9.794230,0.000000,,,,,,,,,,,,,,
1670041467.582865,,,,,385.037000,0.001514,1.199974,0.000001,0.002097,2.499957,0.000001,9.795230,1.390254,0.002332,,,,
1670041467.582904,,,,,385.037000,0.001514,1.199974,0.000001,0.002097,2.499957,0.000001,9.795230,1.390254,0.002332,,,,
1670041467.583089,,,,,,,,,,,,,,,1.200000,2.500000,1.500000,0.000000
1670041467.583107,,,,,,,,,,,,,,,1.200000,2.500000,1.500000,0.000000
1670041467.592759,,,,,385.047000,0.001514,1.199974,0.000001,0.002097,2.499957,0.000001,9.795358,1.390277,0.002270,,,,
1670041467.592813,,,,,385.047000,0.001514,1.199974,0.000001,0.002097,2.499957,0.000001,9.795358,1.390277,0.002270,,,,
1670041467.592951,0.001514,0.002096,9.794385,0.000000,,,,,,,,,,,,,,
1670041467.592973,,,,,,,,,,,,,,,1.200000,2.500000,1.500000,0.000000
1670041467.592981,,,,,,,,,,,,,,,1.200000,2.500000,1.500000,0.000000
1670041467.593667,0.001514,0.002096,9.794536,0.000000,,,,,,,,,,,,,,
1670041467.602555,,,,,385.057000,0.001514,1.199974,0.000001,0.002097,2.499957,0.000001,9.795483,1.390300,0.002209,,,,
1670041467.602621,,,,,385.057000,0.001514,1.199974,0.000001,0.002097,2.499957,0.000001,9.795483,1.390300,0.002209,,,,
1670041467.602667,,,,,,,,,,,,,,,1.200000,2.500000,1.500000,0.000000
1670041467.602696,,,,,,,,,,,,,,,1.200000,2.500000,1.500000,0.000000
1670041467.612743,,,,,385.067000,0.001514,1.199974,0.000001,0.002097,2.499957,0.000001,9.795604,1.390321,0.002149,,,,
1670041467.612820,,,,,385.067000,0.001514,1.199974,0.000001,0.002097,2.499957,0.000001,9.795604,1.390321,0.002149,,,,
1670041467.613237,,,,,,,,,,,,,,,1.200000,2.500000,1.500000,0.000000
1670041467.613279,,,,,,,,,,,,,,,1.200000,2.500000,1.500000,0.000000
1670041467.622854,,,,,385.077000,0.001514,1.199974,0.000001,0.002097,2.499957,0.000001,9.795722,1.390343,0.002092,,,,
1670041467.622925,,,,,385.077000,0.001514,1.199974,0.000001,0.002097,2.499957,0.000001,9.795722,1.390343,0.002092,,,,
1670041467.623371,,,,,,,,,,,,,,,1.200000,2.500000,1.500000,0.000000
1670041467.623414,,,,,,,,,,,,,,,1.200000,2.500000,1.500000,0.000000
1670041467.632481,,,,,385.087000,0.001514,1.199974,0.000001,0.002097,2.499957,0.000001,9.795836,1.390363,0.002036,,,,
1670041467.632531,,,,,385.087000,0.001514,1.199974,0.000001,0.002097,2.499957,0.000001,9.795836,1.390363,0.002036,,,,
1670041467.632740,,,,,,,,,,,,,,,1.200000,2.500000,1.500000,0.000000
1670041467.632752,,,,,,,,,,,,,,,1.200000,2.500000,1.500000,0.000000
1670041467.642628,,,,,385.097000,0.001514,1.199974,0.000001,0.002097,2.499957,0.000001,9.795948,1.390383,0.001981,,,,
1670041467.642668,,,,,385.097000,0.001514,1.199974,0.000001,0.002097,2.499957,0.000001,9.795948,1.390383,0.001981,,,,
1670041467.642819,,,,,,,,,,,,,,,1.200000,2.500000,1.500000,0.000000
1670041467.642828,,,,,,,,,,,,,,,1.200000,2.500000,1.500000,0.000000
1670041467.652427,,,,,385.107000,0.001514,1.199974,0.000001,0.002097,2.499957,0.000001,9.796057,1.390403,0.001928,,,,
1670041467.652461,,,,,385.107000,0.001514,1.199974,0.000001,0.002097,2.499957,0.000001,9.796057,1.390403,0.001928,,,,
1670041467.652613,,,,,,,,,,,,,,,1.200000,2.500000,1.500000,0.000000
1670041467.652632,,,,,,,,,,,,,,,1.200000,2.500000,1.500000,0.000000
1670041467.662897,,,,,385.117000,0.001514,1.199975,0.000001,0.002097,2.499957,0.000001,9.796162,1.390422,0.001876,,,,
1670041467.662944,,,,,385.117000,0.001514,1.199975,0.000001,0.002097,2.499957,0.000001,9.796162,1.390422,0.001876,,,,
1670041467.663275,,,,,,,,,,,,,,,1.200000,2.500000,1.500000,0.000000
1670041467.663308,,,,,,,,,,,,,,,1.200000,2.500000,1.500000,0.000000
1670041467.672901,,,,,385.127000,0.001514,1.199975,0.000001,0.002097,2.499957,0.000001,9.796265,1.390440,0.001826,,,,
1670041467.672971,,,,,385.127000,0.001514,1.199975,0.000001,0.002097,2.499957,0.000001,9.796265,1.390440,0.001826,,,,
1670041467.673307,0.001514,0.002097,9.795483,0.000000,,,,,,,,,,,,,,
1670041467.673337,,,,,,,,,,,,,,,1.200000,2.500000,1.500000,0.000000
1670041467.673352,,,,,,,,,,,,,,,1.200000,2.500000,1.500000,0.000000
1670041467.674202,0.001514,0.002097,9.795604,0.000000,,,,,,,,,,,,,,
1670041467.682837,,,,,385.137000,0.001514,1.199975,0.000000,0.002097,2.499957,0.000001,9.796366,1.390458,0.001777,,,,
1670041467.682901,,,,,385.137000,0.001514,1.199975,0.000000,0.002097,2.499957,0.000001,9.796366,1.390458,0.001777,,,,
1670041467.683206,,,,,,,,,,,,,,,1.200000,2.500000,1.500000,0.000000
1670041467.683240,,,,,,,,,,,,,,,1.200000,2.500000,1.500000,0.000000
1670041467.692440,,,,,385.147000,0.001514,1.199975,0.000000,0.002098,2.499957,0.000001,9.796463,1.390476,0.001729,,,,
1670041467.692484,,,,,385.147000,0.001514,1.199975,0.000000,0.002098,2.499957,0.000001,9.796463,1.390476,0.001729,,,,
1670041467.692719,0.001514,0.002097,9.795722,0.000000,,,,,,,,,,,,,,
1670041467.692733,,,,,,,,,,,,,,,1.200000,2.500000,1.500000,0.000000
1670041467.692739,,,,,,,,,,,,,,,1.200000,2.500000,1.500000,0.000000
1670041467.693737,0.001514,0.002097,9.795836,0.000000,,,,,,,,,,,,,,
1670041467.702535,,,,,385.157000,0.001514,1.199975,0.000000,0.002098,2.499957,0.000001,9.796558,1.390493,0.001683,,,,
1670041467.702585,,,,,385.157000,0.001514,1.199975,0.000000,0.002098,2.499957,0.000001,9.796558,1.390493,0.001683,,,,
1670041467.702656,,,,,,,,,,,,,,,1.200000,2.500000,1.500000,0.000000
1670041467.702670,,,,,,,,,,,,,,,1.200000,2.500000,1.500000,0.000000
1670041467.712514,,,,,385.167000,0.001514,1.199975,0.000000,0.002098,2.499957,0.000001,9.796650,1.390509,0.001638,,,,
1670041467.712569,,,,,385.167000,0.001514,1.199975,0.000000,0.002098,2.499957,0.000001,9.796650,1.390509,0.001638,,,,
1670041467.712785,,,,,,,,,,,,,,,1.200000,2.500000,1.500000,0.000000
1670041467.712816,,,,,,,,,,,,,,,1.200000,2.500000,1.500000,0.000000
1670041467.722548,,,,,385.177000,0.001515,1.199975,0.000000,0.002098,2.499957,0.000001,9.796740,1.390526,0.001594,,,,
1670041467.722603,,,,,385.177000,0.001515,1.199975,0.000000,0.002098,2.499957,0.000001,9.796740,1.390526,0.001594,,,,
1670041467.722874,0.001514,0.002097,9.796057,0.000000,,,,,,,,,,,,,,
1670041467.722898,,,,,,,,,,,,,,,1.200000,2.500000,1.500000,0.000000
1670041467.722923,,,,,,,,,,,,,,,1.200000,2.500000,1.500000,0.000000
1670041467.723230,0.001514,0.002097,9.796162,0.000000,,,,,,,,,,,,,,
1670041467.732623,,,,,385.187000,0.001515,1.199975,0.000000,0.002098,2.499957,0.000001,9.796827,1.390541,0.001551,,,,
1670041467.732695,,,,,385.187000,0.001515,1.199975,0.000000,0.002098,2.499957,0.000001,9.796827,1.390541,0.001551,,,,
1670041467.732976,,,,,,,,,,,,,,,1.200000,2.500000,1.500000,0.000000
1670041467.733006,,,,,,,,,,,,,,,1.200000,2.500000,1.500000,0.000000
1670041467.742478,,,,,385.197000,0.001515,1.199975,0.000000,0.002098,2.499957,0.000001,9.796913,1.390557,0.001509,,,,
1670041467.742521,,,,,385.197000,0.001515,1.199975,0.000000,0.002098,2.499957,0.000001,9.796913,1.390557,0.001509,,,,
1670041467.742815,,,,,,,,,,,,,,,1.200000,2.500000,1.500000,0.000000
1670041467.742834,,,,,,,,,,,,,,,1.200000,2.500000,1.500000,0.000000
1670041467.752288,,,,,385.207000,0.001515,1.199975,0.000000,0.002098,2.499957,0.000001,9.796995,1.390571,0.001469,,,,
1670041467.752338,,,,,385.207000,0.001515,1.199975,0.000000,0.002098,2.499957,0.000001,9.796995,1.390571,0.001469,,,,
1670041467.752479,0.001514,0.002097,9.796366,0.000000,,,,,,,,,,,,,,
1670041467.752495,,,,,,,,,,,,,,,1.200000,2.500000,1.500000,0.000000
1670041467.752501,,,,,,,,,,,,,,,1.200000,2.500000,1.500000,0.000000
1670041467.753423,0.001514,0.002098,9.796463,0.000000,,,,,,,,,,,,,,
1670041467.762931,,,,,385.217000,0.001515,1.199975,0.000000,0.002098,2.499957,0.000001,9.797076,1.390586,0.001430,,,,
1670041467.762985,,,,,385.217000,0.001515,1.199975,0.000000,0.002098,2.499957,0.000001,9.797076,1.390586,0.001430,,,,
1670041467.763477,,,,,,,,,,,,,,,1.200000,2.500000,1.500000,0.000000
1670041467.763518,,,,,,,,,,,,,,,1.200000,2.500000,1.500000,0.000000
1670041467.772461,,,,,385.227000,0.001515,1.199975,0.000000,0.002098,2.499957,0.000001,9.797154,1.390600,0.001391,,,,
1670041467.772531,,,,,385.227000,0.001515,1.199975,0.000000,0.002098,2.499957,0.000001,9.797154,1.390600,0.001391,,,,
1670041467.773051,0.001514,0.002098,9.796558,0.000000,,,,,,,,,,,,,,
1670041467.773095,,,,,,,,,,,,,,,1.200000,2.500000,1.500000,0.000000
1670041467.773111,,,,,,,,,,,,,,,1.200000,2.500000,1.500000,0.000000
1670041467.773952,0.001514,0.002098,9.796650,0.000000,,,,,,,,,,,,,,
1670041467.782470,,,,,385.237000,0.001515,1.199975,0.000000,0.002098,2.499957,0.000001,9.797231,1.390614,0.001354,,,,
1670041467.782584,,,,,385.237000,0.001515,1.199975,0.000000,0.002098,2.499957,0.000001,9.797231,1.390614,0.001354,,,,
1670041467.782901,0.001514,0.002098,9.796650,0.000000,,,,,,,,,,,,,,
1670041467.782941,,,,,,,,,,,,,,,1.200000,2.500000,1.500000,0.000000
1670041467.782970,,,,,,,,,,,,,,,1.200000,2.500000,1.500000,0.000000
1670041467.784006,0.001515,0.002098,9.796740,0.000000,,,,,,,,,,,,,,
1670041467.793008,,,,,385.247000,0.001515,1.199975,0.000000,0.002098,2.499957,0.000001,9.797305,1.390627,0.001318,,,,
1670041467.793132,,,,,385.247000,0.001515,1.199975,0.000000,0.002098,2.499957,0.000001,9.797305,1.390627,0.001318,,,,
1670041467.793553,,,,,,,,,,,,,,,1.200000,2.500000,1.500000,0.000000
1670041467.793614,,,,,,,,,,,,,,,1.200000,2.500000,1.500000,0.000000
1670041467.802668,,,,,385.257000,0.001515,1.199975,0.000000,0.002098,2.499957,0.000001,9.797377,1.390640,0.001282,,,,
1670041467.802812,,,,,385.257000,0.001515,1.199975,0.000000,0.002098,2.499957,0.000001,9.797377,1.390640,0.001282,,,,
1670041467.803274,,,,,,,,,,,,,,,1.200000,2.500000,1.500000,0.000000
1670041467.803344,,,,,,,,,,,,,,,1.200000,2.500000,1.500000,0.000000
1670041467.812261,,,,,385.267000,0.001515,1.199975,0.000000,0.002098,2.499957,0.000001,9.797448,1.390653,0.001248,,,,
1670041467.812306,,,,,385.267000,0.001515,1.199975,0.000000,0.002098,2.499957,0.000001,9.797448,1.390653,0.001248,,,,
1670041467.812335,0.001515,0.002098,9.796913,0.000000,,,,,,,,,,,,,,
1670041467.812345,0.001515,0.002098,9.796913,0.000000,,,,,,,,,,,,,,
1670041467.812350,,,,,,,,,,,,,,,1.200000,2.500000,1.500000,0.000000
1670041467.812367,,,,,,,,,,,,,,,1.200000,2.500000,1.500000,0.000000
1670041467.813963,0.001515,0.002098,9.796995,0.000000,,,,,,,,,,,,,,
1670041467.814028,0.001515,0.002098,9.796995,0.000000,,,,,,,,,,,,,,
1670041467.822006,,,,,385.277000,0.001515,1.199975,0.000000,0.002098,2.499958,0.000001,9.797516,1.390665,0.001214,,,,
1670041467.822055,,,,,385.277000,0.001515,1.199975,0.000000,0.002098,2.499958,0.000001,9.797516,1.390665,0.001214,,,,
1670041467.822180,,,,,,,,,,,,,,,1.200000,2.500000,1.500000,0.000000
1670041467.822190,,,,,,,,,,,,,,,1.200000,2.500000,1.500000,0.000000
1670041467.832531,,,,,385.287000,0.001515,1.199975,0.000000,0.002098,2.499958,0.000001,9.797583,1.390677,0.001182,,,,
1670041467.832601,,,,,385.287000,0.001515,1.199975,0.000000,0.002098,2.499958,0.000001,9.797583,1.390677,0.001182,,,,
1670041467.832787,,,,,,,,,,,,,,,1.200000,2.500000,1.500000,0.000000
1670041467.832815,,,,,,,,,,,,,,,1.200000,2.500000,1.500000,0.000000
1670041467.843438,,,,,385.297000,0.001515,1.199975,0.000000,0.002098,2.499958,0.000001,9.797647,1.390689,0.001150,,,,
1670041467.843526,,,,,385.297000,0.001515,1.199975,0.000000,0.002098,2.499958,0.000001,9.797647,1.390689,0.001150,,,,
1670041467.843550,,,,,,,,,,,,,,,1.200000,2.500000,1.500000,0.000000
1670041467.843573,,,,,,,,,,,,,,,1.200000,2.500000,1.500000,0.000000
1670041467.852449,,,,,385.307000,0.001515,1.199975,0.000000,0.002098,2.499958,0.000001,9.797711,1.390700,0.001119,,,,
1670041467.852525,,,,,385.307000,0.001515,1.199975,0.000000,0.002098,2.499958,0.000001,9.797711,1.390700,0.001119,,,,
1670041467.852922,,,,,,,,,,,,,,,1.200000,2.500000,1.500000,0.000000
1670041467.852969,,,,,,,,,,,,,,,1.200000,2.500000,1.500000,0.000000
1670041467.862503,,,,,385.317000,0.001515,1.199975,0.000000,0.002098,2.499958,0.000001,9.797772,1.390711,0.001089,,,,
1670041467.862553,,,,,385.317000,0.001515,1.199975,0.000000,0.002098,2.499958,0.000001,9.797772,1.390711,0.001089,,,,
1670041467.862584,,,,,,,,,,,,,,,1.200000,2.500000,1.500000,0.000000
1670041467.862595,,,,,,,,,,,,,,,1.200000,2.500000,1.500000,0.000000
1670041467.872689,,,,,385.327000,0.001515,1.199975,0.000000,0.002098,2.499958,0.000001,9.797832,1.390722,0.001060,,,,
1670041467.872756,,,,,385.327000,0.001515,1.199975,0.000000,0.002098,2.499958,0.000001,9.797832,1.390722,0.001060,,,,
1670041467.872949,,,,,,,,,,,,,,,1.200000,2.500000,1.500000,0.000000
1670041467.872978,,,,,,,,,,,,,,,1.200000,2.500000,1.500000,0.000000
1670041467.882655,,,,,385.337000,0.001515,1.199975,0.000000,0.002098,2.499958,0.000001,9.797890,1.390732,0.001032,,,,
1670041467.882757,,,,,385.337000,0.001515,1.199975,0.000000,0.002098,2.499958,0.000001,9.797890,1.390732,0.001032,,,,
1670041467.883182,0.001515,0.002098,9.797448,0.000000,,,,,,,,,,,,,,
1670041467.883233,,,,,,,,,,,,,,,1.200000,2.500000,1.500000,0.000000
1670041467.883251,,,,,,,,,,,,,,,1.200000,2.500000,1.500000,0.000000
1670041467.883643,0.001515,0.002098,9.797516,0.000000,,,,,,,,,,,,,,
1670041467.892847,,,,,385.347000,0.001515,1.199975,0.000000,0.002098,2.499958,0.000001,9.797946,1.390742,0.001004,,,,
1670041467.892952,,,,,385.347000,0.001515,1.199975,0.000000,0.002098,2.499958,0.000001,9.797946,1.390742,0.001004,,,,
1670041467.893449,,,,,,,,,,,,,,,1.200000,2.500000,1.500000,0.000000
1670041467.893509,,,,,,,,,,,,,,,1.200000,2.500000,1.500000,0.000000
1670041467.903317,,,,,385.357000,0.001515,1.199975,0.000000,0.002098,2.499958,0.000001,9.798002,1.390752,0.000977,,,,
1670041467.903428,,,,,385.357000,0.001515,1.199975,0.000000,0.002098,2.499958,0.000001,9.798002,1.390752,0.000977,,,,
1670041467.903933,,,,,,,,,,,,,,,1.200000,2.500000,1.500000,0.000000
1670041467.903991,,,,,,,,,,,,,,,1.200000,2.500000,1.500000,0.000000
1670041467.913310,,,,,385.367000,0.001515,1.199975,0.000000,0.002098,2.499958,0.000001,9.798055,1.390762,0.000951,,,,
1670041467.913397,,,,,385.367000,0.001515,1.199975,0.000000,0.002098,2.499958,0.000001,9.798055,1.390762,0.000951,,,,
1670041467.913809,0.001515,0.002098,9.797647,0.000000,,,,,,,,,,,,,,
1670041467.913851,,,,,,,,,,,,,,,1.200000,2.500000,1.500000,0.000000
1670041467.913866,,,,,,,,,,,,,,,1.200000,2.500000,1.500000,0.000000
1670041467.923296,,,,,385.377000,0.001515,1.199975,0.000000,0.002098,2.499958,0.000001,9.798107,1.390771,0.000925,,,,
1670041467.923341,,,,,385.377000,0.001515,1.199975,0.000000,0.002098,2.499958,0.000001,9.798107,1.390771,0.000925,,,,
1670041467.923590,0.001515,0.002098,9.797711,0.000000,,,,,,,,,,,,,,
1670041467.923617,,,,,,,,,,,,,,,1.200000,2.500000,1.500000,0.000000
1670041467.923622,,,,,,,,,,,,,,,1.200000,2.500000,1.500000,0.000000
1670041467.924264,0.001515,0.002098,9.797772,0.000000,,,,,,,,,,,,,,
1670041467.933619,,,,,385.387000,0.001515,1.199975,0.000000,0.002099,2.499958,0.000001,9.798158,1.390780,0.000901,,,,
1670041467.933658,,,,,385.387000,0.001515,1.199975,0.000000,0.002099,2.499958,0.000001,9.798158,1.390780,0.000901,,,,
1670041467.933898,0.001515,0.002098,9.797772,0.000000,,,,,,,,,,,,,,
1670041467.933915,,,,,,,,,,,,,,,1.200000,2.500000,1.500000,0.000000
1670041467.933921,,,,,,,,,,,,,,,1.200000,2.500000,1.500000,0.000000
1670041467.934146,0.001515,0.002098,9.797832,0.000000,,,,,,,,,,,,,,
1670041467.943203,,,,,385.397000,0.001515,1.199975,0.000000,0.002099,2.499958,0.000001,9.798207,1.390789,0.000876,,,,
1670041467.943256,,,,,385.397000,0.001515,1.199975,0.000000,0.002099,2.499958,0.000001,9.798207,1.390789,0.000876,,,,
1670041467.943550,,,,,,,,,,,,,,,1.200000,2.500000,1.500000,0.000000
1670041467.943580,,,,,,,,,,,,,,,1.200000,2.500000,1.500000,0.000000
1670041467.953576,,,,,385.407000,0.001515,1.199975,0.000000,0.002099,2.499958,0.000001,9.798255,1.390798,0.000853,,,,
1670041467.953672,,,,,385.407000,0.001515,1.199975,0.000000,0.002099,2.499958,0.000001,9.798255,1.390798,0.000853,,,,
1670041467.954227,,,,,,,,,,,,,,,1.200000,2.500000,1.500000,0.000000
1670041467.954314,,,,,,,,,,,,,,,1.200000,2.500000,1.500000,0.000000
1670041467.963646,,,,,385.417000,0.001515,1.199975,0.000000,0.002099,2.499958,0.000001,9.798302,1.390806,0.000830,,,,
1670041467.963695,,,,,385.417000,0.001515,1.199975,0.000000,0.002099,2.499958,0.000001,9.798302,1.390806,0.000830,,,,
1670041467.963923,,,,,,,,,,,,,,,1.200000,2.500000,1.500000,0.000000
1670041467.963945,,,,,,,,,,,,,,,1.200000,2.500000,1.500000,0.000000
1670041467.973565,,,,,385.427000,0.001515,1.199975,0.000000,0.002099,2.499958,0.000001,9.798348,1.390814,0.000808,,,,
1670041467.973620,,,,,385.427000,0.001515,1.199975,0.000000,0.002099,2.499958,0.000001,9.798348,1.390814,0.000808,,,,
1670041467.973767,,,,,,,,,,,,,,,1.200000,2.500000,1.500000,0.000000
1670041467.973791,,,,,,,,,,,,,,,1.200000,2.500000,1.500000,0.000000
1670041467.983139,,,,,385.437000,0.001515,1.199975,0.000000,0.002099,2.499958,0.000001,9.798392,1.390822,0.000786,,,,
1670041467.983226,,,,,385.437000,0.001515,1.199975,0.000000,0.002099,2.499958,0.000001,9.798392,1.390822,0.000786,,,,
1670041467.983489,,,,,,,,,,,,,,,1.200000,2.500000,1.500000,0.000000
1670041467.983541,,,,,,,,,,,,,,,1.200000,2.500000,1.500000,0.000000
1670041467.993193,,,,,385.447000,0.001515,1.199975,0.000000,0.002099,2.499958,0.000001,9.798435,1.390830,0.000765,,,,
1670041467.993366,,,,,385.447000,0.001515,1.199975,0.000000,0.002099,2.499958,0.000001,9.798435,1.390830,0.000765,,,,
1670041467.993935,0.001515,0.002098,9.798107,0.000000,,,,,,,,,,,,,,
1670041467.994017,,,,,,,,,,,,,,,1.200000,2.500000,1.500000,0.000000
1670041467.994060,,,,,,,,,,,,,,,1.200000,2.500000,1.500000,0.000000
1670041467.994432,0.001515,0.002099,9.798158,0.000000,,,,,,,,,,,,,,
1670041468.003112,,,,,385.457000,0.001515,1.199975,0.000000,0.002099,2.499958,0.000001,9.798477,1.390838,0.000744,,,,
1670041468.003275,,,,,385.457000,0.001515,1.199975,0.000000,0.002099,2.499958,0.000001,9.798477,1.390838,0.000744,,,,
1670041468.003535,0.001515,0.002099,9.798158,0.000000,,,,,,,,,,,,,,
1670041468.003714,,,,,,,,,,,,,,,1.200000,2.500000,1.500000,0.000000
1670041468.004529,,,,,,,,,,,,,,,1.200000,2.500000,1.500000,0.000000
1670041468.004993,0.001515,0.002099,9.798207,0.000000,,,,,,,,,,,,,,
1670041468.013779,,,,,385.467000,0.001515,1.199975,0.000000,0.002099,2.499958,0.000001,9.798518,1.390845,0.000725,,,,
1670041468.013842,,,,,385.467000,0.001515,1.199975,0.000000,0.002099,2.499958,0.000001,9.798518,1.390845,0.000725,,,,
1670041468.014091,,,,,,,,,,,,,,,1.200000,2.500000,1.500000,0.000000
1670041468.014115,,,,,,,,,,,,,,,1.200000,2.500000,1.500000,0.000000
1670041468.023895,,,,,385.477000,0.001515,1.199975,0.000000,0.002099,2.499958,0.000001,9.798558,1.390852,0.000705,,,,
1670041468.023944,,,,,385.477000,0.001515,1.199975,0.000000,0.002099,2.499958,0.000001,9.798558,1.390852,0.000705,,,,
1670041468.024003,0.001515,0.002099,9.798255,0.000000,,,,,,,,,,,,,,
1670041468.024014,,,,,,,,,,,,,,,1.200000,2.500000,1.500000,0.000000
1670041468.024027,,,,,,,,,,,,,,,1.200000,2.500000,1.500000,0.000000
1670041468.024839,0.001515,0.002099,9.798302,0.000000,,,,,,,,,,,,,,
1670041468.034508,,,,,385.487000,0.001515,1.199975,0.000000,0.002099,2.499958,0.000001,9.798596,1.390859,0.000686,,,,
1670041468.034538,,,,,385.487000,0.001515,1.199975,0.000000,0.002099,2.499958,0.000001,9.798596,1.390859,0.000686,,,,
1670041468.034545,,,,,,,,,,,,,,,1.200000,2.500000,1.500000,0.000000
1670041468.034553,,,,,,,,,,,,,,,1.200000,2.500000,1.500000,0.000000
1670041468.044235,,,,,385.497000,0.001515,1.199975,0.000000,0.002099,2.499958,0.000001,9.798634,1.390866,0.000668,,,,
1670041468.044282,,,,,385.497000,0.001515,1.199975,0.000000,0.002099,2.499958,0.000001,9.798634,1.390866,0.000668,,,,
1670041468.044785,,,,,,,,,,,,,,,1.200000,2.500000,1.500000,0.000000
1670041468.044836,,,,,,,,,,,,,,,1.200000,2.500000,1.500000,0.000000
1670041468.054606,,,,,385.507000,0.001515,1.199975,0.000000,0.002099,2.499958,0.000001,9.798671,1.390872,0.000650,,,,
1670041468.054761,,,,,385.507000,0.001515,1.199975,0.000000,0.002099,2.499958,0.000001,9.798671,1.390872,0.000650,,,,
1670041468.055151,,,,,,,,,,,,,,,1.200000,2.500000,1.500000,0.000000
1670041468.055233,,,,,,,,,,,,,,,1.200000,2.500000,1.500000,0.000000
1670041468.064595,,,,,385.517000,0.001515,1.199975,0.000000,0.002099,2.499958,0.000001,9.798706,1.390879,0.000632,,,,
1670041468.064694,,,,,385.517000,0.001515,1.199975,0.000000,0.002099,2.499958,0.000001,9.798706,1.390879,0.000632,,,,
1670041468.064901,,,,,,,,,,,,,,,1.200000,2.500000,1.500000,0.000000
1670041468.064924,,,,,,,,,,,,,,,1.200000,2.500000,1.500000,0.000000
1670041468.074387,,,,,385.527000,0.001515,1.199975,0.000000,0.002099,2.499958,0.000001,9.798741,1.390885,0.000615,,,,
1670041468.074473,,,,,385.527000,0.001515,1.199975,0.000000,0.002099,2.499958,0.000001,9.798741,1.390885,0.000615,,,,
1670041468.074728,0.001515,0.002099,9.798477,0.000000,,,,,,,,,,,,,,
1670041468.074761,,,,,,,,,,,,,,,1.200000,2.500000,1.500000,0.000000
1670041468.074771,,,,,,,,,,,,,,,1.200000,2.500000,1.500000,0.000000
1670041468.075720,0.001515,0.002099,9.798518,0.000000,,,,,,,,,,,,,,
1670041468.084011,,,,,385.537000,0.001515,1.199975,0.000000,0.002099,2.499958,0.000001,9.798775,1.390891,0.000599,,,,
1670041468.084075,,,,,385.537000,0.001515,1.199975,0.000000,0.002099,2.499958,0.000001,9.798775,1.390891,0.000599,,,,
1670041468.084339,,,,,,,,,,,,,,,1.200000,2.500000,1.500000,0.000000
1670041468.084357,,,,,,,,,,,,,,,1.200000,2.500000,1.500000,0.000000
1670041468.094187,,,,,385.547000,0.001515,1.199975,0.000000,0.002099,2.499958,0.000000,9.798808,1.390897,0.000583,,,,
1670041468.094236,,,,,385.547000,0.001515,1.199975,0.000000,0.002099,2.499958,0.000000,9.798808,1.390897,0.000583,,,,
1670041468.094302,,,,,,,,,,,,,,,1.200000,2.500000,1.500000,0.000000
1670041468.094312,,,,,,,,,,,,,,,1.200000,2.500000,1.500000,0.000000
1670041468.104435,,,,,385.557000,0.001515,1.199975,0.000000,0.002099,2.499958,0.000000,9.798840,1.390903,0.000567,,,,
1670041468.104471,,,,,385.557000,0.001515,1.199975,0.000000,0.002099,2.499958,0.000000,9.798840,1.390903,0.000567,,,,
1670041468.104735,,,,,,,,,,,,,,,1.200000,2.500000,1.500000,0.000000
1670041468.104756,,,,,,,,,,,,,,,1.200000,2.500000,1.500000,0.000000
1670041468.114880,,,,,385.567000,0.001515,1.199975,0.000000,0.002099,2.499958,0.000000,9.798871,1.390908,0.000552,,,,
1670041468.114965,,,,,385.567000,0.001515,1.199975,0.000000,0.002099,2.499958,0.000000,9.798871,1.390908,0.000552,,,,
1670041468.115272,,,,,,,,,,,,,,,1.200000,2.500000,1.500000,0.000000
1670041468.115318,,,,,,,,,,,,,,,1.200000,2.500000,1.500000,0.000000
1670041468.123862,,,,,385.577000,0.001515,1.199975,0.000000,0.002099,2.499958,0.000000,9.798901,1.390914,0.000537,,,,
1670041468.123950,,,,,385.577000,0.001515,1.199975,0.000000,0.002099,2.499958,0.000000,9.798901,1.390914,0.000537,,,,
1670041468.124445,0.001515,0.002099,9.798671,0.000000,,,,,,,,,,,,,,
1670041468.124472,,,,,,,,,,,,,,,1.200000,2.500000,1.500000,0.000000
1670041468.124520,,,,,,,,,,,,,,,1.200000,2.500000,1.500000,0.000000
1670041468.126028,0.001515,0.002099,9.798706,0.000000,,,,,,,,,,,,,,
1670041468.133601,,,,,385.587000,0.001515,1.199975,0.000000,0.002099,2.499958,0.000000,9.798931,1.390919,0.000523,,,,
1670041468.133740,,,,,385.587000,0.001515,1.199975,0.000000,0.002099,2.499958,0.000000,9.798931,1.390919,0.000523,,,,
1670041468.134096,,,,,,,,,,,,,,,1.200000,2.500000,1.500000,0.000000
1670041468.134217,,,,,,,,,,,,,,,1.200000,2.500000,1.500000,0.000000
1670041468.143617,,,,,385.597000,0.001515,1.199975,0.000000,0.002099,2.499958,0.000000,9.798959,1.390924,0.000509,,,,
1670041468.143698,,,,,385.597000,0.001515,1.199975,0.000000,0.002099,2.499958,0.000000,9.798959,1.390924,0.000509,,,,
1670041468.143816,,,,,,,,,,,,,,,1.200000,2.500000,1.500000,0.000000
1670041468.143842,,,,,,,,,,,,,,,1.200000,2.500000,1.500000,0.000000
1670041468.154081,,,,,385.607000,0.001515,1.199975,0.000000,0.002099,2.499958,0.000000,9.798987,1.390929,0.000495,,,,
1670041468.154138,,,,,385.607000,0.001515,1.199975,0.000000,0.002099,2.499958,0.000000,9.798987,1.390929,0.000495,,,,
1670041468.154211,,,,,,,,,,,,,,,1.200000,2.500000,1.500000,0.000000
1670041468.154265,0.001515,0.002099,9.798775,0.000000,,,,,,,,,,,,,,
1670041468.154280,,,,,,,,,,,,,,,1.200000,2.500000,1.500000,0.000000
1670041468.164613,,,,,385.617000,0.001515,1.199975,0.000000,0.002099,2.499958,0.000000,9.799014,1.390934,0.000482,,,,
1670041468.164692,,,,,385.617000,0.001515,1.199975,0.000000,0.002099,2.499958,0.000000,9.799014,1.390934,0.000482,,,,
1670041468.165123,,,,,,,,,,,,,,,1.200000,2.500000,1.500000,0.000000
1670041468.165164,,,,,,,,,,,,,,,1.200000,2.500000,1.500000,0.000000
1670041468.173933,,,,,385.627000,0.001515,1.199975,0.000000,0.002099,2.499958,0.000000,9.799041,1.390939,0.000469,,,,
1670041468.174068,,,,,385.627000,0.001515,1.199975,0.000000,0.002099,2.499958,0.000000,9.799041,1.390939,0.000469,,,,
1670041468.174435,0.001515,0.002099,9.798840,0.000000,,,,,,,,,,,,,,
1670041468.174509,,,,,,,,,,,,,,,1.200000,2.500000,1.500000,0.000000
1670041468.174544,,,,,,,,,,,,,,,1.200000,2.500000,1.500000,0.000000
1670041468.175869,0.001515,0.002099,9.798871,0.000000,,,,,,,,,,,,,,
1670041468.183923,,,,,385.637000,0.001515,1.199975,0.000000,0.002099,2.499958,0.000000,9.799066,1.390943,0.000456,,,,
1670041468.183994,,,,,385.637000,0.001515,1.199975,0.000000,0.002099,2.499958,0.000000,9.799066,1.390943,0.000456,,,,
1670041468.184254,,,,,,,,,,,,,,,1.200000,2.500000,1.500000,0.000000
1670041468.184289,,,,,,,,,,,,,,,1.200000,2.500000,1.500000,0.000000
1670041468.192969,,,,,385.647000,0.001515,1.199975,0.000000,0.002099,2.499958,0.000000,9.799091,1.390948,0.000444,,,,
1670041468.193026,,,,,385.647000,0.001515,1.199975,0.000000,0.002099,2.499958,0.000000,9.799091,1.390948,0.000444,,,,
1670041468.193229,0.001515,0.002099,9.798901,0.000000,,,,,,,,,,,,,,
1670041468.193246,,,,,,,,,,,,,,,1.200000,2.500000,1.500000,0.000000
1670041468.193255,,,,,,,,,,,,,,,1.200000,2.500000,1.500000,0.000000
1670041468.194881,0.001515,0.002099,9.798931,0.000000,,,,,,,,,,,,,,
1670041468.202507,0.000000,0.000000,0.000000,0.000000,,,,,,,,,,,,,,
1670041468.203036,,,,,385.657000,0.001515,1.199975,0.000000,0.002099,2.499958,0.000000,9.799116,1.390952,0.000432,,,,
1670041468.203098,,,,,385.657000,0.001515,1.199975,0.000000,0.002099,2.499958,0.000000,9.799116,1.390952,0.000432,,,,
1670041468.203260,,,,,,,,,,,,,,,1.200000,2.500000,1.500000,0.000000
1670041468.203289,,,,,,,,,,,,,,,1.200000,2.500000,1.500000,0.000000
1670041468.213258,,,,,385.667000,0.001516,1.199975,0.000000,0.002099,2.499958,0.000000,9.799140,1.390957,0.000421,,,,
1670041468.213357,,,,,385.667000,0.001516,1.199975,0.000000,0.002099,2.499958,0.000000,9.799140,1.390957,0.000421,,,,
1670041468.213571,,,,,,,,,,,,,,,1.200000,2.500000,1.500000,0.000000
1670041468.213599,,,,,,,,,,,,,,,1.200000,2.500000,1.500000,0.000000
1670041468.223466,,,,,385.677000,0.001516,1.199975,0.000000,0.002099,2.499958,0.000000,9.799163,1.390961,0.000409,,,,
1670041468.223578,,,,,385.677000,0.001516,1.199975,0.000000,0.002099,2.499958,0.000000,9.799163,1.390961,0.000409,,,,
1670041468.224074,,,,,,,,,,,,,,,1.200000,2.500000,1.500000,0.000000
1670041468.224144,,,,,,,,,,,,,,,1.200000,2.500000,1.500000,0.000000
1670041468.234354,,,,,385.687000,0.001516,1.199975,0.000000,0.002099,2.499958,0.000000,9.799185,1.390965,0.000398,,,,
1670041468.234515,,,,,385.687000,0.001516,1.199975,0.000000,0.002099,2.499958,0.000000,9.799185,1.390965,0.000398,,,,
1670041468.235188,,,,,,,,,,,,,,,1.200000,2.500000,1.500000,0.000000
1670041468.235262,,,,,,,,,,,,,,,1.200000,2.500000,1.500000,0.000000
1670041468.243760,,,,,385.697000,0.001516,1.199975,0.000000,0.002099,2.499958,0.000000,9.799207,1.390969,0.000388,,,,
1670041468.243818,,,,,385.697000,0.001516,1.199975,0.000000,0.002099,2.499958,0.000000,9.799207,1.390969,0.000388,,,,
1670041468.244058,0.001515,0.002099,9.799041,0.000000,,,,,,,,,,,,,,
1670041468.244086,,,,,,,,,,,,,,,1.200000,2.500000,1.500000,0.000000
1670041468.244096,,,,,,,,,,,,,,,1.200000,2.500000,1.500000,0.000000
1670041468.245467,0.001515,0.002099,9.799066,0.000000,,,,,,,,,,,,,,
1670041468.253435,,,,,385.707000,0.001516,1.199975,0.000000,0.002099,2.499958,0.000000,9.799228,1.390973,0.000377,,,,
1670041468.253516,,,,,385.707000,0.001516,1.199975,0.000000,0.002099,2.499958,0.000000,9.799228,1.390973,0.000377,,,,
1670041468.253832,,,,,,,,,,,,,,,1.200000,2.500000,1.500000,0.000000
1670041468.253867,,,,,,,,,,,,,,,1.200000,2.500000,1.500000,0.000000
1670041468.263298,,,,,385.717000,0.001516,1.199975,0.000000,0.002099,2.499958,0.000000,9.799249,1.390976,0.000367,,,,
1670041468.263359,,,,,385.717000,0.001516,1.199975,0.000000,0.002099,2.499958,0.000000,9.799249,1.390976,0.000367,,,,
1670041468.263526,,,,,,,,,,,,,,,1.200000,2.500000,1.500000,0.000000
1670041468.263544,,,,,,,,,,,,,,,1.200000,2.500000,1.500000,0.000000
1670041468.273753,,,,,385.727000,0.001516,1.199975,0.000000,0.002099,2.499958,0.000000,9.799269,1.390980,0.000357,,,,
1670041468.273821,,,,,385.727000,0.001516,1.199975,0.000000,0.002099,2.499958,0.000000,9.799269,1.390980,0.000357,,,,
1670041468.274077,,,,,,,,,,,,,,,1.200000,2.500000,1.500000,0.000000
1670041468.274099,,,,,,,,,,,,,,,1.200000,2.500000,1.500000,0.000000
1670041468.283576,,,,,385.737000,0.001516,1.199975,0.000000,0.002099,2.499958,0.000000,9.799289,1.390983,0.000348,,,,
1670041468.283629,,,,,385.737000,0.001516,1.199975,0.000000,0.002099,2.499958,0.000000,9.799289,1.390983,0.000348,,,,
1670041468.283793,,,,,,,,,,,,,,,1.200000,2.500000,1.500000,0.000000
1670041468.283817,,,,,,,,,,,,,,,1.200000,2.500000,1.500000,0.000000
1670041468.293910,,,,,385.747000,0.001516,1.199975,0.000000,0.002099,2.499958,0.000000,9.799308,1.390987,0.000338,,,,
1670041468.293999,,,,,385.747000,0.001516,1.199975,0.000000,0.002099,2.499958,0.000000,9.799308,1.390987,0.000338,,,,
1670041468.294266,0.001516,0.002099,9.799163,0.000000,,,,,,,,,,,,,,
1670041468.294309,,,,,,,,,,,,,,,1.200000,2.500000,1.500000,0.000000
1670041468.294338,,,,,,,,,,,,,,,1.200000,2.500000,1.500000,0.000000
1670041468.294428,0.001516,0.002099,9.799185,0.000000,,,,,,,,,,,,,,
1670041468.303796,,,,,385.757000,0.001516,1.199975,0.000000,0.002099,2.499958,0.000000,9.799326,1.390990,0.000329,,,,
1670041468.303840,,,,,385.757000,0.001516,1.199975,0.000000,0.002099,2.499958,0.000000,9.799326,1.390990,0.000329,,,,
1670041468.303968,,,,,,,,,,,,,,,1.200000,2.500000,1.500000,0.000000
1670041468.303987,,,,,,,,,,,,,,,1.200000,2.500000,1.500000,0.000000
1670041468.314029,,,,,385.767000,0.001516,1.199975,0.000000,0.002099,2.499958,0.000000,9.799344,1.390993,0.000321,,,,
1670041468.314084,,,,,385.767000,0.001516,1.199975,0.000000,0.002099,2.499958,0.000000,9.799344,1.390993,0.000321,,,,
1670041468.314194,0.001516,0.002099,9.799207,0.000000,,,,,,,,,,,,,,
1670041468.314212,,,,,,,,,,,,,,,1.200000,2.500000,1.500000,0.000000
1670041468.314218,,,,,,,,,,,,,,,1.200000,2.500000,1.500000,0.000000
1670041468.314381,0.001516,0.002099,9.799228,0.000000,,,,,,,,,,,,,,
1670041468.324516,,,,,385.777000,0.001516,1.199975,0.000000,0.002099,2.499958,0.000000,9.799362,1.390997,0.000312,,,,
1670041468.324557,,,,,385.777000,0.001516,1.199975,0.000000,0.002099,2.499958,0.000000,9.799362,1.390997,0.000312,,,,
1670041468.324829,,,,,,,,,,,,,,,1.200000,2.500000,1.500000,0.000000
1670041468.324854,,,,,,,,,,,,,,,1.200000,2.500000,1.500000,0.000000
1670041468.334965,,,,,385.787000,0.001516,1.199975,0.000000,0.002099,2.499958,0.000000,9.799379,1.391000,0.000304,,,,
1670041468.335037,,,,,385.787000,0.001516,1.199975,0.000000,0.002099,2.499958,0.000000,9.799379,1.391000,0.000304,,,,
1670041468.335809,,,,,,,,,,,,,,,1.200000,2.500000,1.500000,0.000000
1670041468.335845,,,,,,,,,,,,,,,1.200000,2.500000,1.500000,0.000000
1670041468.345385,,,,,385.797000,0.001516,1.199975,0.000000,0.002099,2.499958,0.000000,9.799396,1.391003,0.000295,,,,
1670041468.345497,,,,,385.797000,0.001516,1.199975,0.000000,0.002099,2.499958,0.000000,9.799396,1.391003,0.000295,,,,
1670041468.346011,0.001516,0.002099,9.799269,0.000000,,,,,,,,,,,,,,
1670041468.346070,,,,,,,,,,,,,,,1.200000,2.500000,1.500000,0.000000
1670041468.346092,,,,,,,,,,,,,,,1.200000,2.500000,1.500000,0.000000
1670041468.355427,,,,,385.807000,0.001516,1.199975,0.000000,0.002099,2.499958,0.000000,9.799412,1.391006,0.000287,,,,
1670041468.355548,,,,,385.807000,0.001516,1.199975,0.000000,0.002099,2.499958,0.000000,9.799412,1.391006,0.000287,,,,
1670041468.355935,0.001516,0.002099,9.799289,0.000000,,,,,,,,,,,,,,
1670041468.356001,,,,,,,,,,,,,,,1.200000,2.500000,1.500000,0.000000
1670041468.356024,,,,,,,,,,,,,,,1.200000,2.500000,1.500000,0.000000
1670041468.356917,0.001516,0.002099,9.799308,0.000000,,,,,,,,,,,,,,
1670041468.365403,,,,,385.817000,0.001516,1.199975,0.000000,0.002099,2.499958,0.000000,9.799428,1.391008,0.000280,,,,
1670041468.365494,,,,,385.817000,0.001516,1.199975,0.000000,0.002099,2.499958,0.000000,9.799428,1.391008,0.000280,,,,
1670041468.365713,,,,,,,,,,,,,,,1.200000,2.500000,1.500000,0.000000
1670041468.365758,,,,,,,,,,,,,,,1.200000,2.500000,1.500000,0.000000
1670041468.375054,,,,,385.827000,0.001516,1.199975,0.000000,0.002099,2.499958,0.000000,9.799443,1.391011,0.000272,,,,
1670041468.375097,,,,,385.827000,0.001516,1.199975,0.000000,0.002099,2.499958,0.000000,9.799443,1.391011,0.000272,,,,
1670041468.375246,0.001516,0.002099,9.799326,0.000000,,,,,,,,,,,,,,
1670041468.375270,,,,,,,,,,,,,,,1.200000,2.500000,1.500000,0.000000
1670041468.375281,,,,,,,,,,,,,,,1.200000,2.500000,1.500000,0.000000
1670041468.376342,0.001516,0.002099,9.799344,0.000000,,,,,,,,,,,,,,
1670041468.384923,,,,,385.837000,0.001516,1.199975,0.000000,0.002099,2.499958,0.000000,9.799458,1.391014,0.000265,,,,
1670041468.384985,,,,,385.837000,0.001516,1.199975,0.000000,0.002099,2.499958,0.000000,9.799458,1.391014,0.000265,,,,
1670041468.385198,,,,,,,,,,,,,,,1.200000,2.500000,1.500000,0.000000
1670041468.385229,,,,,,,,,,,,,,,1.200000,2.500000,1.500000,0.000000
1670041468.394568,,,,,385.847000,0.001516,1.199975,0.000000,0.002099,2.499958,0.000000,9.799472,1.391016,0.000258,,,,
1670041468.394654,,,,,385.847000,0.001516,1.199975,0.000000,0.002099,2.499958,0.000000,9.799472,1.391016,0.000258,,,,
1670041468.394807,,,,,,,,,,,,,,,1.200000,2.500000,1.500000,0.000000
1670041468.394840,,,,,,,,,,,,,,,1.200000,2.500000,1.500000,0.000000
1670041468.404299,,,,,385.857000,0.001516,1.199975,0.000000,0.002099,2.499958,0.000000,9.799487,1.391019,0.000251,,,,
1670041468.404437,,,,,385.857000,0.001516,1.199975,0.000000,0.002099,2.499958,0.000000,9.799487,1.391019,0.000251,,,,
1670041468.404584,,,,,,,,,,,,,,,1.200000,2.500000,1.500000,0.000000
1670041468.404688,,,,,,,,,,,,,,,1.200000,2.500000,1.500000,0.000000
1670041468.414386,,,,,385.867000,0.001516,1.199975,0.000000,0.002099,2.499958,0.000000,9.799500,1.391021,0.000244,,,,
1670041468.414481,,,,,385.867000,0.001516,1.199975,0.000000,0.002099,2.499958,0.000000,9.799500,1.391021,0.000244,,,,
1670041468.414595,0.001516,0.002099,9.799396,0.000000,,,,,,,,,,,,,,
1670041468.414629,,,,,,,,,,,,,,,1.200000,2.500000,1.500000,0.000000
1670041468.414652,,,,,,,,,,,,,,,1.200000,2.500000,1.500000,0.000000
1670041468.415329,0.001516,0.002099,9.799412,0.000000,,,,,,,,,,,,,,
1670041468.424483,,,,,385.877000,0.001516,1.199975,0.000000,0.002099,2.499958,0.000000,9.799514,1.391024,0.000238,,,,
1670041468.424576,,,,,385.877000,0.001516,1.199975,0.000000,0.002099,2.499958,0.000000,9.799514,1.391024,0.000238,,,,
1670041468.424675,,,,,,,,,,,,,,,1.200000,2.500000,1.500000,0.000000
1670041468.424709,,,,,,,,,,,,,,,1.200000,2.500000,1.500000,0.000000
1670041468.433755,,,,,385.887000,0.001516,1.199975,0.000000,0.002099,2.499958,0.000000,9.799527,1.391026,0.000231,,,,
1670041468.433800,,,,,385.887000,0.001516,1.199975,0.000000,0.002099,2.499958,0.000000,9.799527,1.391026,0.000231,,,,
1670041468.433939,,,,,,,,,,,,,,,1.200000,2.500000,1.500000,0.000000
1670041468.433953,,,,,,,,,,,,,,,1.200000,2.500000,1.500000,0.000000
1670041468.442930,,,,,385.897000,0.001516,1.199975,0.000000,0.002099,2.499958,0.000000,9.799539,1.391028,0.000225,,,,
1670041468.442977,,,,,385.897000,0.001516,1.199975,0.000000,0.002099,2.499958,0.000000,9.799539,1.391028,0.000225,,,,
1670041468.443079,,,,,,,,,,,,,,,1.200000,2.500000,1.500000,0.000000
1670041468.443127,,,,,,,,,,,,,,,1.200000,2.500000,1.500000,0.000000
1670041468.452806,,,,,385.907000,0.001516,1.199975,0.000000,0.002099,2.499958,0.000000,9.799552,1.391031,0.000219,,,,
1670041468.452864,,,,,385.907000,0.001516,1.199975,0.000000,0.002099,2.499958,0.000000,9.799552,1.391031,0.000219,,,,
1670041468.452915,,,,,,,,,,,,,,,1.200000,2.500000,1.500000,0.000000
1670041468.452933,,,,,,,,,,,,,,,1.200000,2.500000,1.500000,0.000000
1670041468.462434,,,,,385.917000,0.001516,1.199975,0.000000,0.002099,2.499958,0.000000,9.799564,1.391033,0.000213,,,,
1670041468.462519,,,,,385.917000,0.001516,1.199975,0.000000,0.002099,2.499958,0.000000,9.799564,1.391033,0.000213,,,,
1670041468.462608,,,,,,,,,,,,,,,1.200000,2.500000,1.500000,0.000000
1670041468.462631,,,,,,,,,,,,,,,1.200000,2.500000,1.500000,0.000000
1670041468.472020,,,,,385.927000,0.001516,1.199975,0.000000,0.002100,2.499958,0.000000,9.799576,1.391035,0.000207,,,,
1670041468.472084,,,,,385.927000,0.001516,1.199975,0.000000,0.002100,2.499958,0.000000,9.799576,1.391035,0.000207,,,,
1670041468.472196,0.001516,0.002099,9.799487,0.000000,,,,,,,,,,,,,,
1670041468.472219,0.001516,0.002099,9.799487,0.000000,,,,,,,,,,,,,,
1670041468.472235,,,,,,,,,,,,,,,1.200000,2.500000,1.500000,0.000000
1670041468.472252,,,,,,,,,,,,,,,1.200000,2.500000,1.500000,0.000000
1670041468.473142,0.001516,0.002099,9.799500,0.000000,,,,,,,,,,,,,,
1670041468.473166,0.001516,0.002099,9.799500,0.000000,,,,,,,,,,,,,,
1670041468.481321,0.000000,0.000000,0.000000,0.000000,,,,,,,,,,,,,,
1670041468.482179,,,,,385.937000,0.001516,1.199975,0.000000,0.002100,2.499958,0.000000,9.799587,1.391037,0.000202,,,,
1670041468.482221,,,,,385.937000,0.001516,1.199975,0.000000,0.002100,2.499958,0.000000,9.799587,1.391037,0.000202,,,,
1670041468.482396,,,,,,,,,,,,,,,1.200000,2.500000,1.500000,0.000000
1670041468.482411,,,,,,,,,,,,,,,1.200000,2.500000,1.500000,0.000000
1670041468.492445,,,,,385.947000,0.001516,1.199975,0.000000,0.002100,2.499958,0.000000,9.799598,1.391039,0.000196,,,,
1670041468.492508,,,,,385.947000,0.001516,1.199975,0.000000,0.002100,2.499958,0.000000,9.799598,1.391039,0.000196,,,,
1670041468.492561,,,,,,,,,,,,,,,1.200000,2.500000,1.500000,0.000000
1670041468.492581,,,,,,,,,,,,,,,1.200000,2.500000,1.500000,0.000000
1670041468.502996,,,,,385.957000,0.001516,1.199975,0.000000,0.002100,2.499958,0.000000,9.799609,1.391041,0.000191,,,,
1670041468.503088,,,,,385.957000,0.001516,1.199975,0.000000,0.002100,2.499958,0.000000,9.799609,1.391041,0.000191,,,,
1670041468.503308,,,,,,,,,,,,,,,1.200000,2.500000,1.500000,0.000000
1670041468.503345,,,,,,,,,,,,,,,1.200000,2.500000,1.500000,0.000000
1670041468.513033,,,,,385.967000,0.001516,1.199975,0.000000,0.002100,2.499958,0.000000,9.799619,1.391043,0.000186,,,,
1670041468.513119,,,,,385.967000,0.001516,1.199975,0.000000,0.002100,2.499958,0.000000,9.799619,1.391043,0.000186,,,,
1670041468.513235,,,,,,,,,,,,,,,1.200000,2.500000,1.500000,0.000000
1670041468.513259,,,,,,,,,,,,,,,1.200000,2.500000,1.500000,0.000000
1670041468.523303,,,,,385.977000,0.001516,1.199975,0.000000,0.002100,2.499958,0.000000,9.799629,1.391045,0.000181,,,,
1670041468.523405,,,,,385.977000,0.001516,1.199975,0.000000,0.002100,2.499958,0.000000,9.799629,1.391045,0.000181,,,,
1670041468.523689,,,,,,,,,,,,,,,1.200000,2.500000,1.500000,0.000000
1670041468.523741,,,,,,,,,,,,,,,1.200000,2.500000,1.500000,0.000000
1670041468.533463,,,,,385.987000,0.001516,1.199975,0.000000,0.002100,2.499958,0.000000,9.799639,1.391046,0.000176,,,,
1670041468.533523,,,,,385.987000,0.001516,1.199975,0.000000,0.002100,2.499958,0.000000,9.799639,1.391046,0.000176,,,,
1670041468.533632,,,,,,,,,,,,,,,1.200000,2.500000,1.500000,0.000000
1670041468.533649,,,,,,,,,,,,,,,1.200000,2.500000,1.500000,0.000000
1670041468.543709,,,,,385.997000,0.001516,1.199975,0.000000,0.002100,2.499958,0.000000,9.799649,1.391048,0.000172,,,,
1670041468.543789,,,,,385.997000,0.001516,1.199975,0.000000,0.002100,2.499958,0.000000,9.799649,1.391048,0.000172,,,,
1670041468.543995,,,,,,,,,,,,,,,1.200000,2.500000,1.500000,0.000000
1670041468.544017,,,,,,,,,,,,,,,1.200000,2.500000,1.500000,0.000000
1670041468.554142,,,,,386.007000,0.001516,1.199975,0.000000,0.002100,2.499958,0.000000,9.799658,1.391050,0.000167,,,,
1670041468.554196,,,,,386.007000,0.001516,1.199975,0.000000,0.002100,2.499958,0.000000,9.799658,1.391050,0.000167,,,,
1670041468.554534,,,,,,,,,,,,,,,1.200000,2.500000,1.500000,0.000000
1670041468.554552,,,,,,,,,,,,,,,1.200000,2.500000,1.500000,0.000000
1670041468.564611,,,,,386.017000,0.001516,1.199975,0.000000,0.002100,2.499958,0.000000,9.799668,1.391051,0.000162,,,,
1670041468.564734,,,,,386.017000,0.001516,1.199975,0.000000,0.002100,2.499958,0.000000,9.799668,1.391051,0.000162,,,,
1670041468.565019,,,,,,,,,,,,,,,1.200000,2.500000,1.500000,0.000000
1670041468.565071,,,,,,,,,,,,,,,1.200000,2.500000,1.500000,0.000000
1670041468.574966,,,,,386.027000,0.001516,1.199975,0.000000,0.002100,2.499958,0.000000,9.799677,1.391053,0.000158,,,,
1670041468.575060,,,,,386.027000,0.001516,1.199975,0.000000,0.002100,2.499958,0.000000,9.799677,1.391053,0.000158,,,,
1670041468.575170,0.001516,0.002100,9.799609,0.000000,,,,,,,,,,,,,,
1670041468.575207,0.001516,0.002100,9.799609,0.000000,,,,,,,,,,,,,,
1670041468.575236,,,,,,,,,,,,,,,1.200000,2.500000,1.500000,0.000000
1670041468.575268,,,,,,,,,,,,,,,1.200000,2.500000,1.500000,0.000000
1670041468.575532,0.001516,0.002100,9.799619,0.000000,,,,,,,,,,,,,,
1670041468.575579,0.001516,0.002100,9.799619,0.000000,,,,,,,,,,,,,,
1670041468.584504,,,,,386.037000,0.001516,1.199975,0.000000,0.002100,2.499958,0.000000,9.799685,1.391055,0.000154,,,,
1670041468.584596,,,,,386.037000,0.001516,1.199975,0.000000,0.002100,2.499958,0.000000,9.799685,1.391055,0.000154,,,,
1670041468.584852,,,,,,,,,,,,,,,1.200000,2.500000,1.500000,0.000000
1670041468.584892,,,,,,,,,,,,,,,1.200000,2.500000,1.500000,0.000000
1670041468.594793,,,,,386.047000,0.001516,1.199975,0.000000,0.002100,2.499958,0.000000,9.799694,1.391056,0.000150,,,,
1670041468.594847,,,,,386.047000,0.001516,1.199975,0.000000,0.002100,2.499958,0.000000,9.799694,1.391056,0.000150,,,,
1670041468.594891,,,,,,,,,,,,,,,1.200000,2.500000,1.500000,0.000000
1670041468.594908,,,,,,,,,,,,,,,1.200000,2.500000,1.500000,0.000000
1670041468.604765,,,,,386.057000,0.001516,1.199975,0.000000,0.002100,2.499958,0.000000,9.799702,1.391058,0.000146,,,,
1670041468.604811,,,,,386.057000,0.001516,1.199975,0.000000,0.002100,2.499958,0.000000,9.799702,1.391058,0.000146,,,,
1670041468.604844,0.001516,0.002100,9.799639,0.000000,,,,,,,,,,,,,,
1670041468.604858,,,,,,,,,,,,,,,1.200000,2.500000,1.500000,0.000000
1670041468.604868,,,,,,,,,,,,,,,1.200000,2.500000,1.500000,0.000000
1670041468.605286,0.001516,0.002100,9.799649,0.000000,,,,,,,,,,,,,,
1670041468.615026,,,,,386.067000,0.001516,1.199975,0.000000,0.002100,2.499958,0.000000,9.799710,1.391059,0.000142,,,,
1670041468.615088,,,,,386.067000,0.001516,1.199975,0.000000,0.002100,2.499958,0.000000,9.799710,1.391059,0.000142,,,,
1670041468.615220,,,,,,,,,,,,,,,1.200000,2.500000,1.500000,0.000000
1670041468.615250,,,,,,,,,,,,,,,1.200000,2.500000,1.500000,0.000000
1670041468.624736,,,,,386.077000,0.001516,1.199975,0.000000,0.002100,2.499958,0.000000,9.799718,1.391060,0.000138,,,,
1670041468.624846,,,,,386.077000,0.001516,1.199975,0.000000,0.002100,2.499958,0.000000,9.799718,1.391060,0.000138,,,,
1670041468.625025,0.001516,0.002100,9.799658,0.000000,,,,,,,,,,,,,,
1670041468.625050,,,,,,,,,,,,,,,1.200000,2.500000,1.500000,0.000000
1670041468.625062,,,,,,,,,,,,,,,1.200000,2.500000,1.500000,0.000000
1670041468.626093,0.001516,0.002100,9.799668,0.000000,,,,,,,,,,,,,,
1670041468.635051,,,,,386.087000,0.001516,1.199975,0.000000,0.002100,2.499958,0.000000,9.799725,1.391062,0.000134,,,,
1670041468.635157,,,,,386.087000,0.001516,1.199975,0.000000,0.002100,2.499958,0.000000,9.799725,1.391062,0.000134,,,,
1670041468.635313,,,,,,,,,,,,,,,1.200000,2.500000,1.500000,0.000000
1670041468.635347,,,,,,,,,,,,,,,1.200000,2.500000,1.500000,0.000000
1670041468.645350,,,,,386.097000,0.001516,1.199975,0.000000,0.002100,2.499958,0.000000,9.799733,1.391063,0.000131,,,,
1670041468.645495,,,,,386.097000,0.001516,1.199975,0.000000,0.002100,2.499958,0.000000,9.799733,1.391063,0.000131,,,,
1670041468.645952,,,,,,,,,,,,,,,1.200000,2.500000,1.500000,0.000000
1670041468.646050,,,,,,,,,,,,,,,1.200000,2.500000,1.500000,0.000000
1670041468.655470,,,,,386.107000,0.001516,1.199975,0.000000,0.002100,2.499958,0.000000,9.799740,1.391064,0.000127,,,,
1670041468.655601,,,,,386.107000,0.001516,1.199975,0.000000,0.002100,2.499958,0.000000,9.799740,1.391064,0.000127,,,,
1670041468.655971,,,,,,,,,,,,,,,1.200000,2.500000,1.500000,0.000000
1670041468.656038,,,,,,,,,,,,,,,1.200000,2.500000,1.500000,0.000000
1670041468.665556,,,,,386.117000,0.001516,1.199975,0.000000,0.002100,2.499958,0.000000,9.799747,1.391066,0.000124,,,,
1670041468.665605,,,,,386.117000,0.001516,1.199975,0.000000,0.002100,2.499958,0.000000,9.799747,1.391066,0.000124,,,,
1670041468.665727,,,,,,,,,,,,,,,1.200000,2.500000,1.500000,0.000000
1670041468.665744,,,,,,,,,,,,,,,1.200000,2.500000,1.500000,0.000000
1670041468.675619,,,,,386.127000,0.001516,1.199975,0.000000,0.002100,2.499958,0.000000,9.799754,1.391067,0.000120,,,,
1670041468.675694,,,,,386.127000,0.001516,1.199975,0.000000,0.002100,2.499958,0.000000,9.799754,1.391067,0.000120,,,,
1670041468.675895,,,,,,,,,,,,,,,1.200000,2.500000,1.500000,0.000000
1670041468.675936,,,,,,,,,,,,,,,1.200000,2.500000,1.500000,0.000000
1670041468.685977,,,,,386.137000,0.001516,1.199975,0.000000,0.002100,2.499958,0.000000,9.799760,1.391068,0.000117,,,,
1670041468.686113,,,,,386.137000,0.001516,1.199975,0.000000,0.002100,2.499958,0.000000,9.799760,1.391068,0.000117,,,,
1670041468.686510,,,,,,,,,,,,,,,1.200000,2.500000,1.500000,0.000000
1670041468.686590,,,,,,,,,,,,,,,1.200000,2.500000,1.500000,0.000000
1670041468.695039,,,,,386.147000,0.001516,1.199975,0.000000,0.002100,2.499958,0.000000,9.799767,1.391069,0.000114,,,,
1670041468.695154,,,,,386.147000,0.001516,1.199975,0.000000,0.002100,2.499958,0.000000,9.799767,1.391069,0.000114,,,,
1670041468.695284,,,,,,,,,,,,,,,1.200000,2.500000,1.500000,0.000000
1670041468.695329,,,,,,,,,,,,,,,1.200000,2.500000,1.500000,0.000000
1670041468.705316,,,,,386.157000,0.001516,1.199975,0.000000,0.002100,2.499958,0.000000,9.799773,1.391070,0.000111,,,,
1670041468.705487,,,,,386.157000,0.001516,1.199975,0.000000,0.002100,2.499958,0.000000,9.799773,1.391070,0.000111,,,,
1670041468.705727,0.001516,0.002100,9.799725,0.000000,,,,,,,,,,,,,,
1670041468.705777,,,,,,,,,,,,,,,1.200000,2.500000,1.500000,0.000000
1670041468.705812,,,,,,,,,,,,,,,1.200000,2.500000,1.500000,0.000000
1670041468.706298,0.001516,0.002100,9.799733,0.000000,,,,,,,,,,,,,,
1670041468.715459,,,,,386.167000,0.001516,1.199975,0.000000,0.002100,2.499958,0.000000,9.799779,1.391071,0.000108,,,,
1670041468.715530,,,,,386.167000,0.001516,1.199975,0.000000,0.002100,2.499958,0.000000,9.799779,1.391071,0.000108,,,,
1670041468.715940,,,,,,,,,,,,,,,1.200000,2.500000,1.500000,0.000000
1670041468.715976,,,,,,,,,,,,,,,1.200000,2.500000,1.500000,0.000000
1670041468.724858,,,,,386.177000,0.001516,1.199975,0.000000,0.002100,2.499958,0.000000,9.799785,1.391072,0.000105,,,,
1670041468.724901,,,,,386.177000,0.001516,1.199975,0.000000,0.002100,2.499958,0.000000,9.799785,1.391072,0.000105,,,,
1670041468.724946,0.001516,0.002100,9.799740,0.000000,,,,,,,,,,,,,,
1670041468.724956,,,,,,,,,,,,,,,1.200000,2.500000,1.500000,0.000000
1670041468.724961,,,,,,,,,,,,,,,1.200000,2.500000,1.500000,0.000000
1670041468.726406,0.001516,0.002100,9.799747,0.000000,,,,,,,,,,,,,,
1670041468.734945,,,,,386.187000,0.001516,1.199975,0.000000,0.002100,2.499958,0.000000,9.799791,1.391074,0.000102,,,,
1670041468.734988,,,,,386.187000,0.001516,1.199975,0.000000,0.002100,2.499958,0.000000,9.799791,1.391074,0.000102,,,,
1670041468.735111,,,,,,,,,,,,,,,1.200000,2.500000,1.500000,0.000000
1670041468.735130,,,,,,,,,,,,,,,1.200000,2.500000,1.500000,0.000000
1670041468.744978,,,,,386.197000,0.001516,1.199975,0.000000,0.002100,2.499958,0.000000,9.799796,1.391075,0.000100,,,,
1670041468.745036,,,,,386.197000,0.001516,1.199975,0.000000,0.002100,2.499958,0.000000,9.799796,1.391075,0.000100,,,,
1670041468.745270,,,,,,,,,,,,,,,1.200000,2.500000,1.500000,0.000000
1670041468.745291,,,,,,,,,,,,,,,1.200000,2.500000,1.500000,0.000000
1670041468.754869,,,,,386.207000,0.001516,1.199975,0.000000,0.002100,2.499958,0.000000,9.799802,1.391076,0.000097,,,,
1670041468.754997,,,,,386.207000,0.001516,1.199975,0.000000,0.002100,2.499958,0.000000,9.799802,1.391076,0.000097,,,,
1670041468.755685,,,,,,,,,,,,,,,1.200000,2.500000,1.500000,0.000000
1670041468.755742,,,,,,,,,,,,,,,1.200000,2.500000,1.500000,0.000000
1670041468.763941,,,,,386.217000,0.001516,1.199975,0.000000,0.002100,2.499958,0.000000,9.799807,1.391076,0.000094,,,,
1670041468.764024,,,,,386.217000,0.001516,1.199975,0.000000,0.002100,2.499958,0.000000,9.799807,1.391076,0.000094,,,,
1670041468.764385,0.001516,0.002100,9.799767,0.000000,,,,,,,,,,,,,,
1670041468.764433,,,,,,,,,,,,,,,1.200000,2.500000,1.500000,0.000000
1670041468.764452,,,,,,,,,,,,,,,1.200000,2.500000,1.500000,0.000000
1670041468.766278,0.001516,0.002100,9.799773,0.000000,,,,,,,,,,,,,,
1670041468.773411,,,,,386.227000,0.001516,1.199975,0.000000,0.002100,2.499958,0.000000,9.799812,1.391077,0.000092,,,,
1670041468.773483,,,,,386.227000,0.001516,1.199975,0.000000,0.002100,2.499958,0.000000,9.799812,1.391077,0.000092,,,,
1670041468.773906,,,,,,,,,,,,,,,1.200000,2.500000,1.500000,0.000000
1670041468.773948,,,,,,,,,,,,,,,1.200000,2.500000,1.500000,0.000000
1670041468.783281,,,,,386.237000,0.001516,1.199975,0.000000,0.002100,2.499958,0.000000,9.799817,1.391078,0.000089,,,,
1670041468.783330,,,,,386.237000,0.001516,1.199975,0.000000,0.002100,2.499958,0.000000,9.799817,1.391078,0.000089,,,,
1670041468.783390,,,,,,,,,,,,,,,1.200000,2.500000,1.500000,0.000000
1670041468.783412,,,,,,,,,,,,,,,1.200000,2.500000,1.500000,0.000000
1670041468.793681,,,,,386.247000,0.001516,1.199975,0.000000,0.002100,2.499958,0.000000,9.799822,1.391079,0.000087,,,,
1670041468.793727,,,,,386.247000,0.001516,1.199975,0.000000,0.002100,2.499958,0.000000,9.799822,1.391079,0.000087,,,,
1670041468.793890,0.001516,0.002100,9.799785,0.000000,,,,,,,,,,,,,,
1670041468.793920,,,,,,,,,,,,,,,1.200000,2.500000,1.500000,0.000000
1670041468.793926,,,,,,,,,,,,,,,1.200000,2.500000,1.500000,0.000000
1670041468.803970,,,,,386.257000,0.001516,1.199975,0.000000,0.002100,2.499958,0.000000,9.799827,1.391080,0.000085,,,,
1670041468.804038,,,,,386.257000,0.001516,1.199975,0.000000,0.002100,2.499958,0.000000,9.799827,1.391080,0.000085,,,,
1670041468.804381,,,,,,,,,,,,,,,1.200000,2.500000,1.500000,0.000000
1670041468.804415,,,,,,,,,,,,,,,1.200000,2.500000,1.500000,0.000000
1670041468.814289,,,,,386.267000,0.001516,1.199975,0.000000,0.002100,2.499958,0.000000,9.799831,1.391081,0.000082,,,,
1670041468.814364,,,,,386.267000,0.001516,1.199975,0.000000,0.002100,2.499958,0.000000,9.799831,1.391081,0.000082,,,,
1670041468.814651,,,,,,,,,,,,,,,1.200000,2.500000,1.500000,0.000000
1670041468.814694,,,,,,,,,,,,,,,1.200000,2.500000,1.500000,0.000000
1670041468.824738,,,,,386.277000,0.001516,1.199975,0.000000,0.002100,2.499958,0.000000,9.799836,1.391082,0.000080,,,,
1670041468.824847,,,,,386.277000,0.001516,1.199975,0.000000,0.002100,2.499958,0.000000,9.799836,1.391082,0.000080,,,,
1670041468.825162,0.001516,0.002100,9.799802,0.000000,,,,,,,,,,,,,,
1670041468.825196,0.001516,0.002100,9.799807,0.000000,,,,,,,,,,,,,,
1670041468.825210,,,,,,,,,,,,,,,1.200000,2.500000,1.500000,0.000000
1670041468.825416,0.001516,0.002100,9.799812,0.000000,,,,,,,,,,,,,,
1670041468.825444,,,,,,,,,,,,,,,1.200000,2.500000,1.500000,0.000000
1670041468.834754,,,,,386.287000,0.001516,1.199975,0.000000,0.002100,2.499958,0.000000,9.799840,1.391082,0.000078,,,,
1670041468.834825,,,,,386.287000,0.001516,1.199975,0.000000,0.002100,2.499958,0.000000,9.799840,1.391082,0.000078,,,,
1670041468.835234,,,,,,,,,,,,,,,1.200000,2.500000,1.500000,0.000000
1670041468.835281,,,,,,,,,,,,,,,1.200000,2.500000,1.500000,0.000000
1670041468.844426,,,,,386.297000,0.001516,1.199975,0.000000,0.002100,2.499958,0.000000,9.799845,1.391083,0.000076,,,,
1670041468.844477,,,,,386.297000,0.001516,1.199975,0.000000,0.002100,2.499958,0.000000,9.799845,1.391083,0.000076,,,,
1670041468.844698,,,,,,,,,,,,,,,1.200000,2.500000,1.500000,0.000000
1670041468.844716,,,,,,,,,,,,,,,1.200000,2.500000,1.500000,0.000000
1670041468.854730,,,,,386.307000,0.001516,1.199975,0.000000,0.002100,2.499958,0.000000,9.799849,1.391084,0.000074,,,,
1670041468.854785,,,,,386.307000,0.001516,1.199975,0.000000,0.002100,2.499958,0.000000,9.799849,1.391084,0.000074,,,,
1670041468.855067,,,,,,,,,,,,,,,1.200000,2.500000,1.500000,0.000000
1670041468.855089,,,,,,,,,,,,,,,1.200000,2.500000,1.500000,0.000000
1670041468.865059,,,,,386.317000,0.001516,1.199975,0.000000,0.002100,2.499958,0.000000,9.799853,1.391085,0.000072,,,,
1670041468.865143,,,,,386.317000,0.001516,1.199975,0.000000,0.002100,2.499958,0.000000,9.799853,1.391085,0.000072,,,,
1670041468.865275,0.001516,0.002100,9.799822,0.000000,,,,,,,,,,,,,,
1670041468.865314,,,,,,,,,,,,,,,1.200000,2.500000,1.500000,0.000000
1670041468.865379,,,,,,,,,,,,,,,1.200000,2.500000,1.500000,0.000000
1670041468.865496,0.001516,0.002100,9.799827,0.000000,,,,,,,,,,,,,,
1670041468.875722,,,,,386.327000,0.001516,1.199975,0.000000,0.002100,2.499958,0.000000,9.799857,1.391085,0.000070,,,,
1670041468.875800,,,,,386.327000,0.001516,1.199975,0.000000,0.002100,2.499958,0.000000,9.799857,1.391085,0.000070,,,,
1670041468.876079,,,,,,,,,,,,,,,1.200000,2.500000,1.500000,0.000000
1670041468.876100,,,,,,,,,,,,,,,1.200000,2.500000,1.500000,0.000000
1670041468.886127,,,,,386.337000,0.001516,1.199975,0.000000,0.002100,2.499958,0.000000,9.799861,1.391086,0.000068,,,,
1670041468.886202,,,,,386.337000,0.001516,1.199975,0.000000,0.002100,2.499958,0.000000,9.799861,1.391086,0.000068,,,,
1670041468.886612,0.001516,0.002100,9.799831,0.000000,,,,,,,,,,,,,,
1670041468.886870,,,,,,,,,,,,,,,1.200000,2.500000,1.500000,0.000000
1670041468.887004,,,,,,,,,,,,,,,1.200000,2.500000,1.500000,0.000000
1670041468.895624,,,,,386.347000,0.001516,1.199975,0.000000,0.002100,2.499958,0.000000,9.799864,1.391087,0.000066,,,,
1670041468.895690,,,,,386.347000,0.001516,1.199975,0.000000,0.002100,2.499958,0.000000,9.799864,1.391087,0.000066,,,,
1670041468.895821,0.001516,0.002100,9.799836,0.000000,,,,,,,,,,,,,,
1670041468.895847,,,,,,,,,,,,,,,1.200000,2.500000,1.500000,0.000000
1670041468.895867,,,,,,,,,,,,,,,1.200000,2.500000,1.500000,0.000000
1670041468.897335,0.001516,0.002100,9.799840,0.000000,,,,,,,,,,,,,,
1670041468.905576,,,,,386.357000,0.001516,1.199975,0.000000,0.002100,2.499958,0.000000,9.799868,1.391087,0.000064,,,,
1670041468.905632,,,,,386.357000,0.001516,1.199975,0.000000,0.002100,2.499958,0.000000,9.799868,1.391087,0.000064,,,,
1670041468.905733,0.001516,0.002100,9.799840,0.000000,,,,,,,,,,,,,,
1670041468.905751,,,,,,,,,,,,,,,1.200000,2.500000,1.500000,0.000000
1670041468.905760,,,,,,,,,,,,,,,1.200000,2.500000,1.500000,0.000000
1670041468.906196,0.001516,0.002100,9.799845,0.000000,,,,,,,,,,,,,,
1670041468.915871,,,,,386.367000,0.001516,1.199975,0.000000,0.002100,2.499958,0.000000,9.799872,1.391088,0.000063,,,,
1670041468.915922,,,,,386.367000,0.001516,1.199975,0.000000,0.002100,2.499958,0.000000,9.799872,1.391088,0.000063,,,,
1670041468.915949,,,,,,,,,,,,,,,1.200000,2.500000,1.500000,0.000000
1670041468.915957,,,,,,,,,,,,,,,1.200000,2.500000,1.500000,0.000000
1670041468.926059,,,,,386.377000,0.001516,1.199975,0.000000,0.002100,2.499958,0.000000,9.799875,1.391089,0.000061,,,,
1670041468.926108,,,,,386.377000,0.001516,1.199975,0.000000,0.002100,2.499958,0.000000,9.799875,1.391089,0.000061,,,,
1670041468.926434,,,,,,,,,,,,,,,1.200000,2.500000,1.500000,0.000000
1670041468.926460,,,,,,,,,,,,,,,1.200000,2.500000,1.500000,0.000000
1670041468.936258,,,,,386.387000,0.001516,1.199975,0.000000,0.002100,2.499958,0.000000,9.799878,1.391089,0.000059,,,,
1670041468.936336,,,,,386.387000,0.001516,1.199975,0.000000,0.002100,2.499958,0.000000,9.799878,1.391089,0.000059,,,,
1670041468.936546,,,,,,,,,,,,,,,1.200000,2.500000,1.500000,0.000000
1670041468.936581,,,,,,,,,,,,,,,1.200000,2.500000,1.500000,0.000000
1670041468.946334,,,,,386.397000,0.001516,1.199975,0.000000,0.002100,2.499958,0.000000,9.799882,1.391090,0.000058,,,,
1670041468.946382,,,,,386.397000,0.001516,1.199975,0.000000,0.002100,2.499958,0.000000,9.799882,1.391090,0.000058,,,,
1670041468.946428,,,,,,,,,,,,,,,1.200000,2.500000,1.500000,0.000000
1670041468.946442,,,,,,,,,,,,,,,1.200000,2.500000,1.500000,0.000000
1670041468.956767,,,,,386.407000,0.001516,1.199975,0.000000,0.002100,2.499958,0.000000,9.799885,1.391090,0.000056,,,,
1670041468.956834,,,,,386.407000,0.001516,1.199975,0.000000,0.002100,2.499958,0.000000,9.799885,1.391090,0.000056,,,,
1670041468.956882,0.001516,0.002100,9.799861,0.000000,,,,,,,,,,,,,,
1670041468.956895,,,,,,,,,,,,,,,1.200000,2.500000,1.500000,0.000000
1670041468.956905,,,,,,,,,,,,,,,1.200000,2.500000,1.500000,0.000000
1670041468.966562,,,,,386.417000,0.001516,1.199975,0.000000,0.002100,2.499958,0.000000,9.799888,1.391091,0.000055,,,,
1670041468.966608,,,,,386.417000,0.001516,1.199975,0.000000,0.002100,2.499958,0.000000,9.799888,1.391091,0.000055,,,,
1670041468.966662,0.001516,0.002100,9.799864,0.000000,,,,,,,,,,,,,,
1670041468.966677,,,,,,,,,,,,,,,1.200000,2.500000,1.500000,0.000000
1670041468.966714,,,,,,,,,,,,,,,1.200000,2.500000,1.500000,0.000000
1670041468.967121,0.001516,0.002100,9.799868,0.000000,,,,,,,,,,,,,,
1670041468.976653,,,,,386.427000,0.001516,1.199975,0.000000,0.002100,2.499958,0.000000,9.799891,1.391092,0.000053,,,,
1670041468.976719,,,,,386.427000,0.001516,1.199975,0.000000,0.002100,2.499958,0.000000,9.799891,1.391092,0.000053,,,,
1670041468.976885,,,,,,,,,,,,,,,1.200000,2.500000,1.500000,0.000000
1670041468.976915,,,,,,,,,,,,,,,1.200000,2.500000,1.500000,0.000000
1670041468.986472,,,,,386.437000,0.001516,1.199975,0.000000,0.002100,2.499958,0.000000,9.799894,1.391092,0.000052,,,,
1670041468.986575,,,,,386.437000,0.001516,1.199975,0.000000,0.002100,2.499958,0.000000,9.799894,1.391092,0.000052,,,,
1670041468.986813,,,,,,,,,,,,,,,1.200000,2.500000,1.500000,0.000000
1670041468.986860,,,,,,,,,,,,,,,1.200000,2.500000,1.500000,0.000000
1670041468.996701,,,,,386.447000,0.001516,1.199975,0.000000,0.002100,2.499958,0.000000,9.799897,1.391093,0.000050,,,,
1670041468.996754,,,,,386.447000,0.001516,1.199975,0.000000,0.002100,2.499958,0.000000,9.799897,1.391093,0.000050,,,,
1670041468.996879,,,,,,,,,,,,,,,1.200000,2.500000,1.500000,0.000000
1670041468.996897,,,,,,,,,,,,,,,1.200000,2.500000,1.500000,0.000000
1670041469.006790,,,,,386.457000,0.001516,1.199975,0.000000,0.002100,2.499958,0.000000,9.799899,1.391093,0.000049,,,,
1670041469.006835,,,,,386.457000,0.001516,1.199975,0.000000,0.002100,2.499958,0.000000,9.799899,1.391093,0.000049,,,,
1670041469.006969,,,,,,,,,,,,,,,1.200000,2.500000,1.500000,0.000000
1670041469.006984,,,,,,,,,,,,,,,1.200000,2.500000,1.500000,0.000000
1670041469.017114,,,,,386.467000,0.001516,1.199975,0.000000,0.002100,2.499958,0.000000,9.799902,1.391094,0.000048,,,,
1670041469.017177,,,,,386.467000,0.001516,1.199975,0.000000,0.002100,2.499958,0.000000,9.799902,1.391094,0.000048,,,,
1670041469.017342,,,,,,,,,,,,,,,1.200000,2.500000,1.500000,0.000000
1670041469.017372,,,,,,,,,,,,,,,1.200000,2.500000,1.500000,0.000000
1670041469.026423,,,,,386.477000,0.001516,1.199975,0.000000,0.002100,2.499958,0.000000,9.799905,1.391094,0.000047,,,,
1670041469.026523,,,,,386.477000,0.001516,1.199975,0.000000,0.002100,2.499958,0.000000,9.799905,1.391094,0.000047,,,,
1670041469.026637,,,,,,,,,,,,,,,1.200000,2.500000,1.500000,0.000000
1670041469.026678,,,,,,,,,,,,,,,1.200000,2.500000,1.500000,0.000000
1670041469.036652,,,,,386.487000,0.001516,1.199975,0.000000,0.002100,2.499958,0.000000,9.799907,1.391094,0.000045,,,,
1670041469.036769,,,,,386.487000,0.001516,1.199975,0.000000,0.002100,2.499958,0.000000,9.799907,1.391094,0.000045,,,,
1670041469.037193,,,,,,,,,,,,,,,1.200000,2.500000,1.500000,0.000000
1670041469.037248,,,,,,,,,,,,,,,1.200000,2.500000,1.500000,0.000000
1670041469.046743,,,,,386.497000,0.001516,1.199975,0.000000,0.002100,2.499958,0.000000,9.799910,1.391095,0.000044,,,,
1670041469.046914,,,,,386.497000,0.001516,1.199975,0.000000,0.002100,2.499958,0.000000,9.799910,1.391095,0.000044,,,,
1670041469.047912,,,,,,,,,,,,,,,1.200000,2.500000,1.500000,0.000000
1670041469.047965,,,,,,,,,,,,,,,1.200000,2.500000,1.500000,0.000000
1670041469.056385,,,,,386.507000,0.001516,1.199975,0.000000,0.002100,2.499958,0.000000,9.799912,1.391095,0.000043,,,,
1670041469.056454,,,,,386.507000,0.001516,1.199975,0.000000,0.002100,2.499958,0.000000,9.799912,1.391095,0.000043,,,,
1670041469.056533,0.001516,0.002100,9.799894,0.000000,,,,,,,,,,,,,,
1670041469.056556,,,,,,,,,,,,,,,1.200000,2.500000,1.500000,0.000000
1670041469.056573,,,,,,,,,,,,,,,1.200000,2.500000,1.500000,0.000000
1670041469.058703,0.001516,0.002100,9.799897,0.000000,,,,,,,,,,,,,,
1670041469.065628,0.001516,0.002100,9.799897,0.000000,,,,,,,,,,,,,,
1670041469.065656,,,,,386.517000,0.001516,1.199975,0.000000,0.002100,2.499958,0.000000,9.799915,1.391096,0.000042,,,,
1670041469.065689,,,,,386.517000,0.001516,1.199975,0.000000,0.002100,2.499958,0.000000,9.799915,1.391096,0.000042,,,,
1670041469.065704,,,,,,,,,,,,,,,1.200000,2.500000,1.500000,0.000000
1670041469.065727,,,,,,,,,,,,,,,1.200000,2.500000,1.500000,0.000000
1670041469.067040,0.001516,0.002100,9.799899,0.000000,,,,,,,,,,,,,,
1670041469.074815,0.000000,0.000000,0.000000,0.000000,,,,,,,,,,,,,,
1670041469.075415,,,,,386.527000,0.001516,1.199975,0.000000,0.002100,2.499958,0.000000,9.799917,1.391096,0.000041,,,,
1670041469.075459,,,,,386.527000,0.001516,1.199975,0.000000,0.002100,2.499958,0.000000,9.799917,1.391096,0.000041,,,,
1670041469.075475,,,,,,,,,,,,,,,1.200000,2.500000,1.500000,0.000000
1670041469.075488,,,,,,,,,,,,,,,1.200000,2.500000,1.500000,0.000000
1670041469.085253,,,,,386.537000,0.000000,1.199997,0.001384,0.000000,2.499906,-0.001653,0.000000,1.390485,-0.099264,,,,
1670041469.085293,,,,,386.537000,0.000000,1.199997,0.001384,0.000000,2.499906,-0.001653,0.000000,1.390485,-0.099264,,,,
1670041469.085476,,,,,,,,,,,,,,,1.200000,2.500000,1.500000,0.000000
1670041469.085491,,,,,,,,,,,,,,,1.200000,2.500000,1.500000,0.000000
1670041469.094946,,,,,386.547000,0.001516,1.199978,-0.001332,0.002100,2.499954,0.001557,9.799921,1.389581,-0.095441,,,,
1670041469.095001,,,,,386.547000,0.001516,1.199978,-0.001332,0.002100,2.499954,0.001557,9.799921,1.389581,-0.095441,,,,
1670041469.095237,,,,,,,,,,,,,,,1.200000,2.500000,1.500000,0.000000
1670041469.095247,,,,,,,,,,,,,,,1.200000,2.500000,1.500000,0.000000
1670041469.104176,,,,,386.557000,-0.041321,1.199964,-0.001119,0.062592,2.499981,0.001345,13.330639,1.388841,-0.060342,,,,
1670041469.104205,,,,,386.557000,-0.041321,1.199964,-0.001119,0.062592,2.499981,0.001345,13.330639,1.388841,-0.060342,,,,
1670041469.104341,,,,,,,,,,,,,,,1.200000,2.500000,1.500000,0.000000
1670041469.104348,,,,,,,,,,,,,,,1.200000,2.500000,1.500000,0.000000
1670041469.114111,,,,,386.567000,0.041281,1.199960,-0.000054,-0.052162,2.499984,0.000009,13.278167,1.388425,-0.025999,,,,
1670041469.114154,,,,,386.567000,0.041281,1.199960,-0.000054,-0.052162,2.499984,0.000009,13.278167,1.388425,-0.025999,,,,
1670041469.114325,,,,,,,,,,,,,,,1.200000,2.500000,1.500000,0.000000
1670041469.114345,,,,,,,,,,,,,,,1.200000,2.500000,1.500000,0.000000
1670041469.124136,,,,,386.577000,0.035745,1.199964,0.000542,-0.046112,2.499975,-0.000663,12.116247,1.388284,-0.002953,,,,
1670041469.124178,,,,,386.577000,0.035745,1.199964,0.000542,-0.046112,2.499975,-0.000663,12.116247,1.388284,-0.002953,,,,
1670041469.124238,,,,,,,,,,,,,,,1.200000,2.500000,1.500000,0.000000
1670041469.124257,,,,,,,,,,,,,,,1.200000,2.500000,1.500000,0.000000
1670041469.133819,,,,,386.587000,0.004034,1.199971,0.000571,0.000494,2.499964,-0.000664,10.951725,1.388310,0.008547,,,,
1670041469.133854,,,,,386.587000,0.004034,1.199971,0.000571,0.000494,2.499964,-0.000664,10.951725,1.388310,0.008547,,,,
1670041469.134092,,,,,,,,,,,,,,,1.200000,2.500000,1.500000,0.000000
1670041469.134111,,,,,,,,,,,,,,,1.200000,2.500000,1.500000,0.000000
1670041469.143382,,,,,386.597000,-0.014127,1.199976,0.000324,0.024432,2.499956,-0.000380,10.157792,1.388411,0.012123,,,,
1670041469.143442,,,,,386.597000,-0.014127,1.199976,0.000324,0.024432,2.499956,-0.000380,10.157792,1.388411,0.012123,,,,
1670041469.143661,,,,,,,,,,,,,,,1.200000,2.500000,1.500000,0.000000
1670041469.143678,,,,,,,,,,,,,,,1.200000,2.500000,1.500000,0.000000
1670041469.154029,,,,,386.607000,-0.015406,1.199978,0.000060,0.025052,2.499952,-0.000090,9.752918,1.388527,0.011643,,,,
1670041469.154139,,,,,386.607000,-0.015406,1.199978,0.000060,0.025052,2.499952,-0.000090,9.752918,1.388527,0.011643,,,,
1670041469.154271,0.001516,0.002100,9.799919,0.000000,,,,,,,,,,,,,,
1670041469.154308,,,,,,,,,,,,,,,1.200000,2.500000,1.500000,0.000000
1670041469.154347,,,,,,,,,,,,,,,1.200000,2.500000,1.500000,0.000000
1670041469.164234,,,,,386.617000,-0.008290,1.199978,-0.000100,0.015507,2.499952,0.000088,9.618740,1.388632,0.009807,,,,
1670041469.164307,,,,,386.617000,-0.008290,1.199978,-0.000100,0.015507,2.499952,0.000088,9.618740,1.388632,0.009807,,,,
1670041469.164609,0.001516,0.002100,9.799921,0.000000,,,,,,,,,,,,,,
1670041469.164650,,,,,,,,,,,,,,,1.200000,2.500000,1.500000,0.000000
1670041469.164672,,,,,,,,,,,,,,,1.200000,2.500000,1.500000,0.000000
1670041469.165004,-0.041321,0.062592,13.330639,0.000000,,,,,,,,,,,,,,
1670041469.174140,,,,,386.627000,-0.000507,1.199977,-0.000147,0.005517,2.499953,0.000146,9.625104,1.388721,0.008022,,,,
1670041469.174194,,,,,386.627000,-0.000507,1.199977,-0.000147,0.005517,2.499953,0.000146,9.625104,1.388721,0.008022,,,,
1670041469.174322,,,,,,,,,,,,,,,1.200000,2.500000,1.500000,0.000000
1670041469.174336,,,,,,,,,,,,,,,1.200000,2.500000,1.500000,0.000000
1670041469.184156,,,,,386.637000,0.004303,1.199975,-0.000123,-0.000681,2.499955,0.000128,9.679871,1.388794,0.006779,,,,
1670041469.184217,,,,,386.637000,0.004303,1.199975,-0.000123,-0.000681,2.499955,0.000128,9.679871,1.388794,0.006779,,,,
1670041469.184425,0.041281,-0.052162,13.278167,0.000000,,,,,,,,,,,,,,
1670041469.184456,,,,,,,,,,,,,,,1.200000,2.500000,1.500000,0.000000
1670041469.184476,,,,,,,,,,,,,,,1.200000,2.500000,1.500000,0.000000
1670041469.184965,0.035745,-0.046112,12.116247,0.000000,,,,,,,,,,,,,,
1670041469.195178,,,,,386.647000,0.005803,1.199974,-0.000074,-0.002778,2.499956,0.000081,9.734375,1.388859,0.006077,,,,
1670041469.195277,,,,,386.647000,0.005803,1.199974,-0.000074,-0.002778,2.499956,0.000081,9.734375,1.388859,0.006077,,,,
1670041469.195841,,,,,,,,,,,,,,,1.200000,2.500000,1.500000,0.000000
1670041469.195902,,,,,,,,,,,,,,,1.200000,2.500000,1.500000,0.000000
1670041469.205948,,,,,386.657000,0.005168,1.199974,-0.000028,-0.002223,2.499957,0.000036,9.771264,1.388918,0.005745,,,,
1670041469.206044,,,,,386.657000,0.005168,1.199974,-0.000028,-0.002223,2.499957,0.000036,9.771264,1.388918,0.005745,,,,
1670041469.206169,,,,,,,,,,,,,,,1.200000,2.500000,1.500000,0.000000
1670041469.206203,,,,,,,,,,,,,,,1.200000,2.500000,1.500000,0.000000
1670041469.216170,,,,,386.667000,0.003740,1.199974,0.000001,-0.000637,2.499957,0.000006,9.790018,1.388975,0.005602,,,,
1670041469.216317,,,,,386.667000,0.003740,1.199974,0.000001,-0.000637,2.499957,0.000006,9.790018,1.388975,0.005602,,,,
1670041469.216811,,,,,,,,,,,,,,,1.200000,2.500000,1.500000,0.000000
1670041469.216895,,,,,,,,,,,,,,,1.200000,2.500000,1.500000,0.000000
1670041469.225725,,,,,386.677000,0.002414,1.199974,0.000013,0.000897,2.499957,-0.000008,9.796313,1.389030,0.005524,,,,
1670041469.225781,,,,,386.677000,0.002414,1.199974,0.000013,0.000897,2.499957,-0.000008,9.796313,1.389030,0.005524,,,,
1670041469.226034,-0.015406,0.025052,9.752918,0.000000,,,,,,,,,,,,,,
1670041469.226059,,,,,,,,,,,,,,,1.200000,2.500000,1.500000,0.000000
1670041469.226073,,,,,,,,,,,,,,,1.200000,2.500000,1.500000,0.000000
1670041469.235956,,,,,386.687000,0.001556,1.199974,0.000015,0.001920,2.499957,-0.000010,9.796209,1.389085,0.005446,,,,
1670041469.236012,,,,,386.687000,0.001556,1.199974,0.000015,0.001920,2.499957,-0.000010,9.796209,1.389085,0.005446,,,,
1670041469.236194,-0.008290,0.015507,9.618740,0.000000,,,,,,,,,,,,,,
1670041469.236212,,,,,,,,,,,,,,,1.200000,2.500000,1.500000,0.000000
1670041469.236221,,,,,,,,,,,,,,,1.200000,2.500000,1.500000,0.000000
1670041469.236482,-0.000507,0.005517,9.625104,0.000000,,,,,,,,,,,,,,
1670041469.245751,,,,,386.697000,0.001173,1.199974,0.000011,0.002402,2.499957,-0.000008,9.793942,1.389139,0.005348,,,,
1670041469.245835,,,,,386.697000,0.001173,1.199974,0.000011,0.002402,2.499957,-0.000008,9.793942,1.389139,0.005348,,,,
1670041469.246161,-0.000507,0.005517,9.625104,0.000000,,,,,,,,,,,,,,
1670041469.246202,,,,,,,,,,,,,,,1.200000,2.500000,1.500000,0.000000
1670041469.246231,,,,,,,,,,,,,,,1.200000,2.500000,1.500000,0.000000
1670041469.246949,0.004303,-0.000681,9.679871,0.000000,,,,,,,,,,,,,,
1670041469.255974,,,,,386.707000,0.001114,1.199974,0.000007,0.002505,2.499957,-0.000004,9.791726,1.389192,0.005228,,,,
1670041469.256066,,,,,386.707000,0.001114,1.199974,0.000007,0.002505,2.499957,-0.000004,9.791726,1.389192,0.005228,,,,
1670041469.256175,,,,,,,,,,,,,,,1.200000,2.500000,1.500000,0.000000
1670041469.256236,,,,,,,,,,,,,,,1.200000,2.500000,1.500000,0.000000
1670041469.266366,,,,,386.717000,0.001211,1.199974,0.000003,0.002419,2.499957,-0.000000,9.790335,1.389243,0.005095,,,,
1670041469.266444,,,,,386.717000,0.001211,1.199974,0.000003,0.002419,2.499957,-0.000000,9.790335,1.389243,0.005095,,,,
1670041469.266541,,,,,,,,,,,,,,,1.200000,2.500000,1.500000,0.000000
1670041469.266590,,,,,,,,,,,,,,,1.200000,2.500000,1.500000,0.000000
1670041469.276202,,,,,386.727000,0.001342,1.199974,0.000001,0.002283,2.499957,0.000001,9.789776,1.389293,0.004958,,,,
1670041469.276262,,,,,386.727000,0.001342,1.199974,0.000001,0.002283,2.499957,0.000001,9.789776,1.389293,0.004958,,,,
1670041469.276434,,,,,,,,,,,,,,,1.200000,2.500000,1.500000,0.000000
1670041469.276459,,,,,,,,,,,,,,,1.200000,2.500000,1.500000,0.000000
1670041469.286793,,,,,386.737000,0.001447,1.199974,0.000000,0.002169,2.499957,0.000002,9.789781,1.389342,0.004821,,,,
1670041469.286866,,,,,386.737000,0.001447,1.199974,0.000000,0.002169,2.499957,0.000002,9.789781,1.389342,0.004821,,,,
1670041469.286933,0.003740,-0.000637,9.790018,0.000000,,,,,,,,,,,,,,
1670041469.286958,,,,,,,,,,,,,,,1.200000,2.500000,1.500000,0.000000
1670041469.286977,,,,,,,,,,,,,,,1.200000,2.500000,1.500000,0.000000
1670041469.288078,0.000000,0.000000,0.000000,0.000000,,,,,,,,,,,,,,
1670041469.296486,,,,,386.747000,0.001509,1.199974,0.000000,0.002100,2.499957,0.000002,9.790070,1.389390,0.004689,,,,
1670041469.296598,,,,,386.747000,0.001509,1.199974,0.000000,0.002100,2.499957,0.000002,9.790070,1.389390,0.004689,,,,
1670041469.296875,,,,,,,,,,,,,,,1.200000,2.500000,1.500000,0.000000
1670041469.296908,,,,,,,,,,,,,,,1.200000,2.500000,1.500000,0.000000
1670041469.306954,,,,,386.757000,0.001535,1.199974,0.000000,0.002071,2.499957,0.000002,9.790448,1.389436,0.004561,,,,
1670041469.307020,,,,,386.757000,0.001535,1.199974,0.000000,0.002071,2.499957,0.000002,9.790448,1.389436,0.004561,,,,
1670041469.307514,,,,,,,,,,,,,,,1.200000,2.500000,1.500000,0.000000
1670041469.307563,,,,,,,,,,,,,,,1.200000,2.500000,1.500000,0.000000
1670041469.317477,,,,,386.767000,0.001538,1.199974,0.000001,0.002067,2.499957,0.000002,9.790814,1.389481,0.004438,,,,
1670041469.317572,,,,,386.767000,0.001538,1.199974,0.000001,0.002067,2.499957,0.000002,9.790814,1.389481,0.004438,,,,
1670041469.317954,,,,,,,,,,,,,,,1.200000,2.500000,1.500000,0.000000
1670041469.318009,,,,,,,,,,,,,,,1.200000,2.500000,1.500000,0.000000
1670041469.327503,,,,,386.777000,0.001531,1.199974,0.000001,0.002074,2.499957,0.000002,9.791134,1.389525,0.004318,,,,
1670041469.327562,,,,,386.777000,0.001531,1.199974,0.000001,0.002074,2.499957,0.000002,9.791134,1.389525,0.004318,,,,
1670041469.327806,,,,,,,,,,,,,,,1.200000,2.500000,1.500000,0.000000
1670041469.327832,,,,,,,,,,,,,,,1.200000,2.500000,1.500000,0.000000
1670041469.337497,,,,,386.787000,0.001523,1.199974,0.000001,0.002083,2.499957,0.000001,9.791409,1.389567,0.004202,,,,
1670041469.337547,,,,,386.787000,0.001523,1.199974,0.000001,0.002083,2.499957,0.000001,9.791409,1.389567,0.004202,,,,
1670041469.337711,,,,,,,,,,,,,,,1.200000,2.500000,1.500000,0.000000
1670041469.337728,,,,,,,,,,,,,,,1.200000,2.500000,1.500000,0.000000
1670041469.347962,,,,,386.797000,0.001516,1.199974,0.000001,0.002091,2.499957,0.000001,9.791652,1.389609,0.004090,,,,
1670041469.348030,,,,,386.797000,0.001516,1.199974,0.000001,0.002091,2.499957,0.000001,9.791652,1.389609,0.004090,,,,
1670041469.348299,0.001342,0.002283,9.789776,0.000000,,,,,,,,,,,,,,
1670041469.348338,,,,,,,,,,,,,,,1.200000,2.500000,1.500000,0.000000
1670041469.348363,,,,,,,,,,,,,,,1.200000,2.500000,1.500000,0.000000
1670041469.357364,,,,,386.807000,0.001513,1.199974,0.000001,0.002095,2.499957,0.000001,9.791875,1.389649,0.003980,,,,
1670041469.357478,,,,,386.807000,0.001513,1.199974,0.000001,0.002095,2.499957,0.000001,9.791875,1.389649,0.003980,,,,
1670041469.357844,,,,,,,,,,,,,,,1.200000,2.500000,1.500000,0.000000
1670041469.357899,,,,,,,,,,,,,,,1.200000,2.500000,1.500000,0.000000
1670041469.367009,,,,,386.817000,0.001512,1.199974,0.000001,0.002097,2.499957,0.000001,9.792087,1.389688,0.003874,,,,
1670041469.367097,,,,,386.817000,0.001512,1.199974,0.000001,0.002097,2.499957,0.000001,9.792087,1.389688,0.003874,,,,
1670041469.367474,,,,,,,,,,,,,,,1.200000,2.500000,1.500000,0.000000
1670041469.367521,,,,,,,,,,,,,,,1.200000,2.500000,1.500000,0.000000
1670041469.377413,,,,,386.827000,0.001511,1.199974,0.000001,0.002097,2.499957,0.000001,9.792295,1.389726,0.003770,,,,
1670041469.377477,,,,,386.827000,0.001511,1.199974,0.000001,0.002097,2.499957,0.000001,9.792295,1.389726,0.003770,,,,
1670041469.377826,,,,,,,,,,,,,,,1.200000,2.500000,1.500000,0.000000
1670041469.377863,,,,,,,,,,,,,,,1.200000,2.500000,1.500000,0.000000
1670041469.386888,,,,,386.837000,0.001512,1.199974,0.000001,0.002097,2.499957,0.000001,9.792498,1.389763,0.003669,,,,
1670041469.386932,,,,,386.837000,0.001512,1.199974,0.000001,0.002097,2.499957,0.000001,9.792498,1.389763,0.003669,,,,
1670041469.387057,0.001538,0.002067,9.790814,0.000000,,,,,,,,,,,,,,
1670041469.387072,,,,,,,,,,,,,,,1.200000,2.500000,1.500000,0.000000
1670041469.387080,,,,,,,,,,,,,,,1.200000,2.500000,1.500000,0.000000
1670041469.388584,0.001531,0.002074,9.791134,0.000000,,,,,,,,,,,,,,
1670041469.397175,,,,,386.847000,0.001513,1.199974,0.000001,0.002096,2.499957,0.000001,9.792697,1.389800,0.003570,,,,
1670041469.397226,,,,,386.847000,0.001513,1.199974,0.000001,0.002096,2.499957,0.000001,9.792697,1.389800,0.003570,,,,
1670041469.397394,,,,,,,,,,,,,,,1.200000,2.500000,1.500000,0.000000
1670041469.397404,,,,,,,,,,,,,,,1.200000,2.500000,1.500000,0.000000
1670041469.407039,,,,,386.857000,0.001513,1.199974,0.000001,0.002096,2.499957,0.000001,9.792893,1.389835,0.003475,,,,
1670041469.407089,,,,,386.857000,0.001513,1.199974,0.000001,0.002096,2.499957,0.000001,9.792893,1.389835,0.003475,,,,
1670041469.407350,,,,,,,,,,,,,,,1.200000,2.500000,1.500000,0.000000
1670041469.407370,,,,,,,,,,,,,,,1.200000,2.500000,1.500000,0.000000
1670041469.417696,,,,,386.867000,0.001513,1.199974,0.000001,0.002096,2.499957,0.000001,9.793083,1.389869,0.003381,,,,
1670041469.417737,,,,,386.867000,0.001513,1.199974,0.000001,0.002096,2.499957,0.000001,9.793083,1.389869,0.003381,,,,
1670041469.417902,,,,,,,,,,,,,,,1.200000,2.500000,1.500000,0.000000
1670041469.417912,,,,,,,,,,,,,,,1.200000,2.500000,1.500000,0.000000
1670041469.427112,,,,,386.877000,0.001513,1.199974,0.000001,0.002096,2.499957,0.000001,9.793269,1.389902,0.003291,,,,
1670041469.427200,,,,,386.877000,0.001513,1.199974,0.000001,0.002096,2.499957,0.000001,9.793269,1.389902,0.003291,,,,
1670041469.427466,0.001513,0.002095,9.791875,0.000000,,,,,,,,,,,,,,
1670041469.427500,,,,,,,,,,,,,,,1.200000,2.500000,1.500000,0.000000
1670041469.427512,,,,,,,,,,,,,,,1.200000,2.500000,1.500000,0.000000
1670041469.428687,0.001512,0.002097,9.792087,0.000000,,,,,,,,,,,,,,
1670041469.437036,,,,,386.887000,0.001514,1.199974,0.000001,0.002096,2.499957,0.000001,9.793450,1.389935,0.003202,,,,
1670041469.437141,,,,,386.887000,0.001514,1.199974,0.000001,0.002096,2.499957,0.000001,9.793450,1.389935,0.003202,,,,
1670041469.437469,,,,,,,,,,,,,,,1.200000,2.500000,1.500000,0.000000
1670041469.437529,,,,,,,,,,,,,,,1.200000,2.500000,1.500000,0.000000
1670041469.446757,,,,,386.897000,0.001514,1.199974,0.000001,0.002096,2.499957,0.000001,9.793626,1.389966,0.003117,,,,
1670041469.446874,,,,,386.897000,0.001514,1.199974,0.000001,0.002096,2.499957,0.000001,9.793626,1.389966,0.003117,,,,
1670041469.447152,,,,,,,,,,,,,,,1.200000,2.500000,1.500000,0.000000
1670041469.447210,,,,,,,,,,,,,,,1.200000,2.500000,1.500000,0.000000
1670041469.456505,,,,,386.907000,0.001514,1.199974,0.000001,0.002096,2.499957,0.000001,9.793797,1.389997,0.003033,,,,
1670041469.456559,,,,,386.907000,0.001514,1.199974,0.000001,0.002096,2.499957,0.000001,9.793797,1.389997,0.003033,,,,
1670041469.456619,,,,,,,,,,,,,,,1.200000,2.500000,1.500000,0.000000
1670041469.456636,,,,,,,,,,,,,,,1.200000,2.500000,1.500000,0.000000
1670041469.466299,,,,,386.917000,0.001514,1.199974,0.000001,0.002096,2.499957,0.000001,9.793963,1.390027,0.002952,,,,
1670041469.466353,,,,,386.917000,0.001514,1.199974,0.000001,0.002096,2.499957,0.000001,9.793963,1.390027,0.002952,,,,
1670041469.466527,,,,,,,,,,,,,,,1.200000,2.500000,1.500000,0.000000
1670041469.466542,,,,,,,,,,,,,,,1.200000,2.500000,1.500000,0.000000
1670041469.476545,,,,,386.927000,0.001514,1.199974,0.000001,0.002096,2.499957,0.000001,9.794125,1.390056,0.002872,,,,
1670041469.476613,,,,,386.927000,0.001514,1.199974,0.000001,0.002096,2.499957,0.000001,9.794125,1.390056,0.002872,,,,
1670041469.476710,0.001513,0.002096,9.792893,0.000000,,,,,,,,,,,,,,
1670041469.476739,,,,,,,,,,,,,,,1.200000,2.500000,1.500000,0.000000
1670041469.476763,,,,,,,,,,,,,,,1.200000,2.500000,1.500000,0.000000
1670041469.486713,,,,,386.937000,0.001514,1.199974,0.000001,0.002097,2.499957,0.000001,9.794283,1.390084,0.002795,,,,
1670041469.486973,,,,,386.937000,0.001514,1.199974,0.000001,0.002097,2.499957,0.000001,9.794283,1.390084,0.002795,,,,
1670041469.487124,0.001513,0.002096,9.793083,0.000000,,,,,,,,,,,,,,
1670041469.487172,,,,,,,,,,,,,,,1.200000,2.500000,1.500000,0.000000
1670041469.487207,,,,,,,,,,,,,,,1.200000,2.500000,1.500000,0.000000
1670041469.487536,0.001513,0.002096,9.793269,0.000000,,,,,,,,,,,,,,
1670041469.496391,,,,,386.947000,0.001514,1.199974,0.000001,0.002097,2.499957,0.000001,9.794436,1.390112,0.002720,,,,
1670041469.496503,,,,,386.947000,0.001514,1.199974,0.000001,0.002097,2.499957,0.000001,9.794436,1.390112,0.002720,,,,
1670041469.496770,0.001513,0.002096,9.793269,0.000000,,,,,,,,,,,,,,
1670041469.496833,,,,,,,,,,,,,,,1.200000,2.500000,1.500000,0.000000
1670041469.496869,,,,,,,,,,,,,,,1.200000,2.500000,1.500000,0.000000
1670041469.497646,0.001514,0.002096,9.793450,0.000000,,,,,,,,,,,,,,
1670041469.506630,,,,,386.957000,0.001514,1.199974,0.000001,0.002097,2.499957,0.000001,9.794585,1.390139,0.002647,,,,
1670041469.506741,,,,,386.957000,0.001514,1.199974,0.000001,0.002097,2.499957,0.000001,9.794585,1.390139,0.002647,,,,
1670041469.507059,,,,,,,,,,,,,,,1.200000,2.500000,1.500000,0.000000
1670041469.507184,,,,,,,,,,,,,,,1.200000,2.500000,1.500000,0.000000
1670041469.516555,,,,,386.967000,0.001514,1.199974,0.000001,0.002097,2.499957,0.000001,9.794730,1.390165,0.002576,,,,
1670041469.516608,,,,,386.967000,0.001514,1.199974,0.000001,0.002097,2.499957,0.000001,9.794730,1.390165,0.002576,,,,
1670041469.516794,,,,,,,,,,,,,,,1.200000,2.500000,1.500000,0.000000
1670041469.516814,,,,,,,,,,,,,,,1.200000,2.500000,1.500000,0.000000
1670041469.526117,,,,,386.977000,0.001514,1.199974,0.000001,0.002097,2.499957,0.000001,9.794872,1.390190,0.002507,,,,
1670041469.526173,,,,,386.977000,0.001514,1.199974,0.000001,0.002097,2.499957,0.000001,9.794872,1.390190,0.002507,,,,
1670041469.526416,,,,,,,,,,,,,,,1.200000,2.500000,1.500000,0.000000
1670041469.526440,,,,,,,,,,,,,,,1.200000,2.500000,1.500000,0.000000
1670041469.536011,,,,,386.987000,0.001514,1.199974,0.000001,0.002097,2.499957,0.000001,9.795009,1.390215,0.002440,,,,
1670041469.536102,,,,,386.987000,0.001514,1.199974,0.000001,0.002097,2.499957,0.000001,9.795009,1.390215,0.002440,,,,
1670041469.536467,,,,,,,,,,,,,,,1.200000,2.500000,1.500000,0.000000
1670041469.536514,,,,,,,,,,,,,,,1.200000,2.500000,1.500000,0.000000
1670041469.546149,,,,,386.997000,0.001514,1.199974,0.000001,0.002097,2.499957,0.000001,9.795143,1.390239,0.002375,,,,
1670041469.546245,,,,,386.997000,0.001514,1.199974,0.000001,0.002097,2.499957,0.000001,9.795143,1.390239,0.002375,,,,
1670041469.546544,0.001514,0.002096,9.794125,0.000000,,,,,,,,,,,,,,
1670041469.546589,,,,,,,,,,,,,,,1.200000,2.500000,1.500000,0.000000
1670041469.546836,0.001514,0.002097,9.794283,0.000000,,,,,,,,,,,,,,
1670041469.546907,,,,,,,,,,,,,,,1.200000,2.500000,1.500000,0.000000
1670041469.556919,,,,,387.007000,0.001514,1.199974,0.000001,0.002097,2.499957,0.000001,9.795273,1.390262,0.002311,,,,
1670041469.557102,,,,,387.007000,0.001514,1.199974,0.000001,0.002097,2.499957,0.000001,9.795273,1.390262,0.002311,,,,
1670041469.557564,,,,,,,,,,,,,,,1.200000,2.500000,1.500000,0.000000
1670041469.557626,,,,,,,,,,,,,,,1.200000,2.500000,1.500000,0.000000
1670041469.566242,,,,,387.017000,0.001514,1.199974,0.000001,0.002097,2.499957,0.000001,9.795400,1.390285,0.002249,,,,
1670041469.566339,,,,,387.017000,0.001514,1.199974,0.000001,0.002097,2.499957,0.000001,9.795400,1.390285,0.002249,,,,
1670041469.566660,0.001514,0.002097,9.794436,0.000000,,,,,,,,,,,,,,
1670041469.566699,,,,,,,,,,,,,,,1.200000,2.500000,1.500000,0.000000
1670041469.566742,,,,,,,,,,,,,,,1.200000,2.500000,1.500000,0.000000
1670041469.568256,0.001514,0.002097,9.794585,0.000000,,,,,,,,,,,,,,
1670041469.576404,,,,,387.027000,0.001514,1.199974,0.000001,0.002097,2.499957,0.000001,9.795523,1.390307,0.002189,,,,
1670041469.576485,,,,,387.027000,0.001514,1.199974,0.000001,0.002097,2.499957,0.000001,9.795523,1.390307,0.002189,,,,
1670041469.576690,,,,,,,,,,,,,,,1.200000,2.500000,1.500000,0.000000
1670041469.576728,,,,,,,,,,,,,,,1.200000,2.500000,1.500000,0.000000
1670041469.586537,,,,,387.037000,0.001514,1.199974,0.000001,0.002097,2.499957,0.000001,9.795644,1.390329,0.002130,,,,
1670041469.586580,,,,,387.037000,0.001514,1.199974,0.000001,0.002097,2.499957,0.000001,9.795644,1.390329,0.002130,,,,
1670041469.586657,,,,,,,,,,,,,,,1.200000,2.500000,1.500000,0.000000
1670041469.586667,,,,,,,,,,,,,,,1.200000,2.500000,1.500000,0.000000
1670041469.596667,,,,,387.047000,0.001514,1.199974,0.000001,0.002097,2.499957,0.000001,9.795760,1.390350,0.002073,,,,
1670041469.596707,,,,,387.047000,0.001514,1.199974,0.000001,0.002097,2.499957,0.000001,9.795760,1.390350,0.002073,,,,
1670041469.596897,,,,,,,,,,,,,,,1.200000,2.500000,1.500000,0.000000
1670041469.596911,,,,,,,,,,,,,,,1.200000,2.500000,1.500000,0.000000
1670041469.606744,,,,,387.057000,0.001514,1.199975,0.000001,0.002097,2.499957,0.000001,9.795874,1.390370,0.002017,,,,
