SumeetShanbhag/Controller-Design-for-SCARA/rrbot_work/Results/info_2.csv
__time,/forward_effort_controller/commands/data.0,/forward_effort_controller/commands/data.1,/forward_effort_controller/commands/data.2,/forward_effort_controller/commands/layout/data_offset,/joint_states/header/stamp,/joint_states/joint1/effort,/joint_states/joint1/position,/joint_states/joint1/velocity,/joint_states/joint2/effort,/joint_states/joint2/position,/joint_states/joint2/velocity,/joint_states/joint3/effort,/joint_states/joint3/position,/joint_states/joint3/velocity,/reference_joint/commands/data.0,/reference_joint/commands/data.1,/reference_joint/commands/data.2,/reference_joint/commands/layout/data_offset
1670040245.979519,,,,,3548.794000,-0.150569,1.999891,-0.000883,0.625391,1.499729,0.006571,50.000000,2.100032,-0.003220,,,,
1670040245.979920,,,,,,,,,,,,,,,2.000000,1.500000,3.000000,0.000000
1670040245.980798,0.062593,-0.015064,81.058158,0.000000,,,,,,,,,,,,,,
1670040245.989801,,,,,3548.804000,0.065335,1.999855,-0.005659,-0.199302,1.499857,0.012410,50.000000,2.100002,-0.001456,,,,
1670040245.989856,,,,,3548.804000,0.065335,1.999855,-0.005659,-0.199302,1.499857,0.012410,50.000000,2.100002,-0.001456,,,,
1670040245.990322,,,,,,,,,,,,,,,2.000000,1.500000,3.000000,0.000000
1670040245.990346,,,,,,,,,,,,,,,2.000000,1.500000,3.000000,0.000000
1670040245.999445,,,,,3548.814000,0.032990,1.999803,0.000900,-0.216470,1.499943,0.004697,50.000000,2.100025,-0.002631,,,,
1670040245.999491,,,,,3548.814000,0.032990,1.999803,0.000900,-0.216470,1.499943,0.004697,50.000000,2.100025,-0.002631,,,,
1670040245.999744,-0.029812,-0.038458,81.053178,0.000000,,,,,,,,,,,,,,
1670040245.999759,,,,,,,,,,,,,,,2.000000,1.500000,3.000000,0.000000
1670040245.999765,,,,,,,,,,,,,,,2.000000,1.500000,3.000000,0.000000
1670040246.000890,0.713683,-1.144320,78.900725,0.000000,,,,,,,,,,,,,,
1670040246.009678,,,,,3548.824000,0.178485,1.999792,-0.001645,-0.427193,1.500000,0.002515,50.000000,2.100001,-0.001908,,,,
1670040246.009748,,,,,3548.824000,0.178485,1.999792,-0.001645,-0.427193,1.500000,0.002515,50.000000,2.100001,-0.001908,,,,
1670040246.010181,,,,,,,,,,,,,,,2.000000,1.500000,3.000000,0.000000
1670040246.010209,,,,,,,,,,,,,,,2.000000,1.500000,3.000000,0.000000
1670040246.019222,,,,,3548.834000,-0.015201,1.999787,0.004223,-0.161544,1.499993,-0.001291,50.000000,2.100020,-0.002063,,,,
1670040246.019292,,,,,3548.834000,-0.015201,1.999787,0.004223,-0.161544,1.499993,-0.001291,50.000000,2.100020,-0.002063,,,,
1670040246.019712,,,,,,,,,,,,,,,2.000000,1.500000,3.000000,0.000000
1670040246.019741,,,,,,,,,,,,,,,2.000000,1.500000,3.000000,0.000000
1670040246.029564,,,,,3548.844000,0.061816,1.999796,-0.000336,-0.088004,1.499996,-0.001097,50.000000,2.100001,-0.002018,,,,
1670040246.029652,,,,,3548.844000,0.061816,1.999796,-0.000336,-0.088004,1.499996,-0.001097,50.000000,2.100001,-0.002018,,,,
1670040246.030201,-0.399851,1.041421,81.478027,0.000000,,,,,,,,,,,,,,
1670040246.030244,,,,,,,,,,,,,,,2.000000,1.500000,3.000000,0.000000
1670040246.030260,,,,,,,,,,,,,,,2.000000,1.500000,3.000000,0.000000
1670040246.030338,-0.251323,0.630957,81.122513,0.000000,,,,,,,,,,,,,,
1670040246.039233,,,,,3548.854000,-0.113895,1.999803,0.003551,0.045536,1.499969,-0.000069,50.000000,2.100016,-0.001564,,,,
1670040246.039299,,,,,3548.854000,-0.113895,1.999803,0.003551,0.045536,1.499969,-0.000069,50.000000,2.100016,-0.001564,,,,
1670040246.039570,,,,,,,,,,,,,,,2.000000,1.500000,3.000000,0.000000
1670040246.039587,,,,,,,,,,,,,,,2.000000,1.500000,3.000000,0.000000
1670040246.048909,,,,,3548.864000,0.022334,1.999804,-0.001146,0.038578,1.499979,0.000340,50.000000,2.100000,-0.001757,,,,
1670040246.048964,,,,,3548.864000,0.022334,1.999804,-0.001146,0.038578,1.499979,0.000340,50.000000,2.100000,-0.001757,,,,
1670040246.048993,,,,,,,,,,,,,,,2.000000,1.500000,3.000000,0.000000
1670040246.049003,,,,,,,,,,,,,,,2.000000,1.500000,3.000000,0.000000
1670040246.059026,,,,,3548.874000,-0.094704,1.999810,0.002168,0.003942,1.499963,0.001689,50.000000,2.100012,-0.001415,,,,
1670040246.059071,,,,,3548.874000,-0.094704,1.999810,0.002168,0.003942,1.499963,0.001689,50.000000,2.100012,-0.001415,,,,
1670040246.059214,0.065335,-0.199302,81.029765,0.000000,,,,,,,,,,,,,,
1670040246.059229,,,,,,,,,,,,,,,2.000000,1.500000,3.000000,0.000000
1670040246.059235,,,,,,,,,,,,,,,2.000000,1.500000,3.000000,0.000000
1670040246.059401,0.032990,-0.216470,81.109835,0.000000,,,,,,,,,,,,,,
1670040246.069364,,,,,3548.884000,0.046123,1.999804,-0.001390,-0.010831,1.499977,0.000377,50.000000,2.100000,-0.001672,,,,
1670040246.069404,,,,,3548.884000,0.046123,1.999804,-0.001390,-0.010831,1.499977,0.000377,50.000000,2.100000,-0.001672,,,,
1670040246.069562,,,,,,,,,,,,,,,2.000000,1.500000,3.000000,0.000000
1670040246.069586,,,,,,,,,,,,,,,2.000000,1.500000,3.000000,0.000000
1670040246.079211,,,,,3548.894000,-0.053613,1.999812,0.001607,-0.057261,1.499958,0.001197,50.000000,2.100010,-0.001541,,,,
1670040246.079290,,,,,3548.894000,-0.053613,1.999812,0.001607,-0.057261,1.499958,0.001197,50.000000,2.100010,-0.001541,,,,
1670040246.079714,,,,,,,,,,,,,,,2.000000,1.500000,3.000000,0.000000
1670040246.079823,,,,,,,,,,,,,,,2.000000,1.500000,3.000000,0.000000
1670040246.089497,,,,,3548.904000,0.053483,1.999784,-0.023179,-0.012038,1.499996,0.032831,50.000000,2.100080,0.059784,,,,
1670040246.089599,,,,,3548.904000,0.053483,1.999784,-0.023179,-0.012038,1.499996,0.032831,50.000000,2.100080,0.059784,,,,
1670040246.089880,-0.015201,-0.161544,81.089797,0.000000,,,,,,,,,,,,,,
1670040246.089921,,,,,,,,,,,,,,,2.000000,1.500000,3.000000,0.000000
1670040246.089987,,,,,,,,,,,,,,,2.000000,1.500000,3.000000,0.000000
1670040246.099589,,,,,3548.914000,-0.036943,1.999820,0.001177,-0.039830,1.499938,0.000531,50.000000,2.100007,-0.001696,,,,
1670040246.099658,,,,,3548.914000,-0.036943,1.999820,0.001177,-0.039830,1.499938,0.000531,50.000000,2.100007,-0.001696,,,,
1670040246.099901,0.061816,-0.088004,81.066669,0.000000,,,,,,,,,,,,,,
1670040246.099926,,,,,,,,,,,,,,,2.000000,1.500000,3.000000,0.000000
1670040246.099942,,,,,,,,,,,,,,,2.000000,1.500000,3.000000,0.000000
1670040246.100591,-0.113895,0.045536,81.070414,0.000000,,,,,,,,,,,,,,
1670040246.109732,,,,,3548.924000,0.708330,1.999864,0.013745,-1.148881,1.499832,-0.029397,50.000000,2.100062,-0.013817,,,,
1670040246.109791,,,,,3548.924000,0.708330,1.999864,0.013745,-1.148881,1.499832,-0.029397,50.000000,2.100062,-0.013817,,,,
1670040246.109955,-0.113895,0.045536,81.070414,0.000000,,,,,,,,,,,,,,
1670040246.109971,,,,,,,,,,,,,,,2.000000,1.500000,3.000000,0.000000
1670040246.109998,,,,,,,,,,,,,,,2.000000,1.500000,3.000000,0.000000
1670040246.110776,0.022334,0.038578,81.070558,0.000000,,,,,,,,,,,,,,
1670040246.119544,,,,,3548.934000,-0.024535,1.999994,0.008538,-0.015464,1.499603,-0.017385,50.000000,2.100006,-0.003515,,,,
1670040246.119586,,,,,3548.934000,-0.024535,1.999994,0.008538,-0.015464,1.499603,-0.017385,50.000000,2.100006,-0.003515,,,,
1670040246.119609,,,,,,,,,,,,,,,2.000000,1.500000,3.000000,0.000000
1670040246.119619,,,,,,,,,,,,,,,2.000000,1.500000,3.000000,0.000000
1670040246.129300,,,,,3548.944000,-0.404195,2.000008,0.005150,1.037331,1.499515,-0.017130,50.000000,2.100039,-0.007676,,,,
1670040246.129370,,,,,3548.944000,-0.404195,2.000008,0.005150,1.037331,1.499515,-0.017130,50.000000,2.100039,-0.007676,,,,
1670040246.129594,,,,,,,,,,,,,,,2.000000,1.500000,3.000000,0.000000
1670040246.129625,,,,,,,,,,,,,,,2.000000,1.500000,3.000000,0.000000
1670040246.139730,,,,,3548.954000,-0.255797,2.000025,-0.002089,0.628328,1.499519,0.006420,50.000000,2.100003,-0.000859,,,,
1670040246.139827,,,,,3548.954000,-0.255797,2.000025,-0.002089,0.628328,1.499519,0.006420,50.000000,2.100003,-0.000859,,,,
1670040246.140182,,,,,,,,,,,,,,,2.000000,1.500000,3.000000,0.000000
1670040246.140234,,,,,,,,,,,,,,,2.000000,1.500000,3.000000,0.000000
1670040246.149673,,,,,3548.964000,-0.154962,1.999973,-0.000920,0.623795,1.499618,0.006771,50.000000,2.100032,-0.003221,,,,
1670040246.149750,,,,,3548.964000,-0.154962,1.999973,-0.000920,0.623795,1.499618,0.006771,50.000000,2.100032,-0.003221,,,,
1670040246.150109,-0.053613,-0.057261,81.048415,0.000000,,,,,,,,,,,,,,
1670040246.150149,,,,,,,,,,,,,,,2.000000,1.500000,3.000000,0.000000
1670040246.150162,,,,,,,,,,,,,,,2.000000,1.500000,3.000000,0.000000
1670040246.150886,0.053483,-0.012038,81.058545,0.000000,,,,,,,,,,,,,,
1670040246.159399,,,,,3548.974000,0.061159,1.999936,-0.005709,-0.200628,1.499747,0.012613,50.000000,2.100002,-0.001456,,,,
1670040246.159484,,,,,3548.974000,0.061159,1.999936,-0.005709,-0.200628,1.499747,0.012613,50.000000,2.100002,-0.001456,,,,
1670040246.159812,,,,,,,,,,,,,,,2.000000,1.500000,3.000000,0.000000
1670040246.159831,,,,,,,,,,,,,,,2.000000,1.500000,3.000000,0.000000
1670040246.169513,,,,,3548.984000,0.029219,1.999884,0.000840,-0.217865,1.499835,0.004898,50.000000,2.100025,-0.002630,,,,
1670040246.169561,,,,,3548.984000,0.029219,1.999884,0.000840,-0.217865,1.499835,0.004898,50.000000,2.100025,-0.002630,,,,
1670040246.169719,,,,,,,,,,,,,,,2.000000,1.500000,3.000000,0.000000
1670040246.169740,,,,,,,,,,,,,,,2.000000,1.500000,3.000000,0.000000
1670040246.179854,,,,,3548.994000,0.175110,1.999872,-0.001713,-0.428819,1.499894,0.002711,50.000000,2.100001,-0.001908,,,,
1670040246.179907,,,,,3548.994000,0.175110,1.999872,-0.001713,-0.428819,1.499894,0.002711,50.000000,2.100001,-0.001908,,,,
1670040246.180132,0.708330,-1.148881,78.900401,0.000000,,,,,,,,,,,,,,
1670040246.180160,,,,,,,,,,,,,,,2.000000,1.500000,3.000000,0.000000
1670040246.180165,,,,,,,,,,,,,,,2.000000,1.500000,3.000000,0.000000
1670040246.180289,-0.024535,-0.015464,81.058710,0.000000,,,,,,,,,,,,,,
1670040246.190315,,,,,3549.004000,-0.018229,1.999866,0.004149,-0.163182,1.499889,-0.001104,50.000000,2.100020,-0.002063,,,,
1670040246.190368,,,,,3549.004000,-0.018229,1.999866,0.004149,-0.163182,1.499889,-0.001104,50.000000,2.100020,-0.002063,,,,
1670040246.190639,,,,,,,,,,,,,,,2.000000,1.500000,3.000000,0.000000
1670040246.190671,,,,,,,,,,,,,,,2.000000,1.500000,3.000000,0.000000
1670040246.200804,,,,,3549.014000,0.059055,1.999874,-0.000415,-0.089578,1.499894,-0.000917,50.000000,2.100001,-0.002018,,,,
1670040246.200897,,,,,3549.014000,0.059055,1.999874,-0.000415,-0.089578,1.499894,-0.000917,50.000000,2.100001,-0.002018,,,,
1670040246.201441,,,,,,,,,,,,,,,2.000000,1.500000,3.000000,0.000000
1670040246.201508,,,,,,,,,,,,,,,2.000000,1.500000,3.000000,0.000000
1670040246.210203,,,,,3549.024000,-0.116451,1.999881,0.003468,0.044171,1.499869,0.000104,50.000000,2.100016,-0.001564,,,,
1670040246.210300,,,,,3549.024000,-0.116451,1.999881,0.003468,0.044171,1.499869,0.000104,50.000000,2.100016,-0.001564,,,,
1670040246.210657,,,,,,,,,,,,,,,2.000000,1.500000,3.000000,0.000000
1670040246.210705,,,,,,,,,,,,,,,2.000000,1.500000,3.000000,0.000000
1670040246.220030,,,,,3549.034000,0.019982,1.999881,-0.001234,0.037379,1.499880,0.000508,50.000000,2.100000,-0.001757,,,,
1670040246.220111,,,,,3549.034000,0.019982,1.999881,-0.001234,0.037379,1.499880,0.000508,50.000000,2.100000,-0.001757,,,,
1670040246.220368,,,,,,,,,,,,,,,2.000000,1.500000,3.000000,0.000000
1670040246.220393,,,,,,,,,,,,,,,2.000000,1.500000,3.000000,0.000000
1670040246.229919,,,,,3549.044000,-0.096883,1.999886,0.002076,0.002881,1.499866,0.001853,50.000000,2.100012,-0.001415,,,,
1670040246.229997,,,,,3549.044000,-0.096883,1.999886,0.002076,0.002881,1.499866,0.001853,50.000000,2.100012,-0.001415,,,,
1670040246.230201,0.061159,-0.200628,81.029808,0.000000,,,,,,,,,,,,,,
1670040246.230239,,,,,,,,,,,,,,,2.000000,1.500000,3.000000,0.000000
1670040246.230251,,,,,,,,,,,,,,,2.000000,1.500000,3.000000,0.000000
1670040246.231013,0.029219,-0.217865,81.109862,0.000000,,,,,,,,,,,,,,
1670040246.239062,,,,,3549.054000,0.044154,1.999878,-0.001486,-0.011797,1.499882,0.000537,50.000000,2.100000,-0.001672,,,,
1670040246.239118,,,,,3549.054000,0.044154,1.999878,-0.001486,-0.011797,1.499882,0.000537,50.000000,2.100000,-0.001672,,,,
1670040246.239268,,,,,,,,,,,,,,,2.000000,1.500000,3.000000,0.000000
1670040246.239286,,,,,,,,,,,,,,,2.000000,1.500000,3.000000,0.000000
1670040246.248549,,,,,3549.064000,-0.055417,1.999886,0.001508,-0.058174,1.499865,0.001353,50.000000,2.100010,-0.001540,,,,
1670040246.248610,,,,,3549.064000,-0.055417,1.999886,0.001508,-0.058174,1.499865,0.001353,50.000000,2.100010,-0.001540,,,,
1670040246.248803,,,,,,,,,,,,,,,2.000000,1.500000,3.000000,0.000000
1670040246.248821,,,,,,,,,,,,,,,2.000000,1.500000,3.000000,0.000000
1670040246.258482,,,,,3549.074000,0.051875,1.999857,-0.023281,-0.012866,1.499904,0.032982,50.000000,2.100080,0.059785,,,,
1670040246.258538,,,,,3549.074000,0.051875,1.999857,-0.023281,-0.012866,1.499904,0.032982,50.000000,2.100080,0.059785,,,,
1670040246.258791,,,,,,,,,,,,,,,2.000000,1.500000,3.000000,0.000000
1670040246.258843,,,,,,,,,,,,,,,2.000000,1.500000,3.000000,0.000000
1670040246.268855,,,,,3549.084000,-0.038414,1.999892,0.001073,-0.040612,1.499847,0.000678,50.000000,2.100007,-0.001696,,,,
1670040246.268934,,,,,3549.084000,-0.038414,1.999892,0.001073,-0.040612,1.499847,0.000678,50.000000,2.100007,-0.001696,,,,
1670040246.268980,,,,,,,,,,,,,,,2.000000,1.500000,3.000000,0.000000
1670040246.269011,,,,,,,,,,,,,,,2.000000,1.500000,3.000000,0.000000
1670040246.278903,,,,,3549.094000,0.707021,1.999935,0.013639,-1.149582,1.499742,-0.029258,50.000000,2.100062,-0.013818,,,,
1670040246.279104,,,,,3549.094000,0.707021,1.999935,0.013639,-1.149582,1.499742,-0.029258,50.000000,2.100062,-0.013818,,,,
1670040246.279348,-0.116451,0.044171,81.070405,0.000000,,,,,,,,,,,,,,
1670040246.279413,,,,,,,,,,,,,,,2.000000,1.500000,3.000000,0.000000
1670040246.279454,,,,,,,,,,,,,,,2.000000,1.500000,3.000000,0.000000
1670040246.279986,0.019982,0.037379,81.070568,0.000000,,,,,,,,,,,,,,
1670040246.288339,,,,,3549.104000,-0.025725,2.000064,0.008431,-0.016099,1.499515,-0.017247,50.000000,2.100006,-0.003515,,,,
1670040246.288401,,,,,3549.104000,-0.025725,2.000064,0.008431,-0.016099,1.499515,-0.017247,50.000000,2.100006,-0.003515,,,,
1670040246.288688,,,,,,,,,,,,,,,2.000000,1.500000,3.000000,0.000000
1670040246.288740,,,,,,,,,,,,,,,2.000000,1.500000,3.000000,0.000000
1670040246.298449,,,,,3549.114000,-0.405268,2.000076,0.005039,1.036892,1.499429,-0.016994,50.000000,2.100039,-0.007677,,,,
1670040246.298529,,,,,3549.114000,-0.405268,2.000076,0.005039,1.036892,1.499429,-0.016994,50.000000,2.100039,-0.007677,,,,
1670040246.298608,,,,,,,,,,,,,,,2.000000,1.500000,3.000000,0.000000
1670040246.298638,,,,,,,,,,,,,,,2.000000,1.500000,3.000000,0.000000
1670040246.309042,,,,,3549.124000,-0.256755,2.000093,-0.002201,0.627881,1.499434,0.006555,50.000000,2.100003,-0.000859,,,,
1670040246.309114,,,,,3549.124000,-0.256755,2.000093,-0.002201,0.627881,1.499434,0.006555,50.000000,2.100003,-0.000859,,,,
1670040246.309303,,,,,,,,,,,,,,,2.000000,1.500000,3.000000,0.000000
1670040246.309324,,,,,,,,,,,,,,,2.000000,1.500000,3.000000,0.000000
1670040246.318976,,,,,3549.134000,-0.155748,2.000039,-0.001033,0.623352,1.499534,0.006902,50.000000,2.100032,-0.003221,,,,
1670040246.319042,,,,,3549.134000,-0.155748,2.000039,-0.001033,0.623352,1.499534,0.006902,50.000000,2.100032,-0.003221,,,,
1670040246.319296,,,,,,,,,,,,,,,2.000000,1.500000,3.000000,0.000000
1670040246.319329,,,,,,,,,,,,,,,2.000000,1.500000,3.000000,0.000000
1670040246.329213,,,,,3549.144000,0.060465,2.000001,-0.005822,-0.201118,1.499665,0.012741,50.000000,2.100002,-0.001456,,,,
1670040246.329301,,,,,3549.144000,0.060465,2.000001,-0.005822,-0.201118,1.499665,0.012741,50.000000,2.100002,-0.001456,,,,
1670040246.329663,0.051875,-0.012866,81.058552,0.000000,,,,,,,,,,,,,,
1670040246.329716,0.051875,-0.012866,81.058552,0.000000,,,,,,,,,,,,,,
1670040246.329743,,,,,,,,,,,,,,,2.000000,1.500000,3.000000,0.000000
1670040246.329771,,,,,,,,,,,,,,,2.000000,1.500000,3.000000,0.000000
1670040246.339094,,,,,3549.154000,0.028634,1.999948,0.000727,-0.218270,1.499754,0.005020,50.000000,2.100025,-0.002630,,,,
1670040246.339199,,,,,3549.154000,0.028634,1.999948,0.000727,-0.218270,1.499754,0.005020,50.000000,2.100025,-0.002630,,,,
1670040246.339531,,,,,,,,,,,,,,,2.000000,1.500000,3.000000,0.000000
1670040246.339597,,,,,,,,,,,,,,,2.000000,1.500000,3.000000,0.000000
1670040246.349436,,,,,3549.164000,0.174584,1.999935,-0.001826,-0.429169,1.499814,0.002830,50.000000,2.100001,-0.001908,,,,
1670040246.349533,,,,,3549.164000,0.174584,1.999935,-0.001826,-0.429169,1.499814,0.002830,50.000000,2.100001,-0.001908,,,,
1670040246.349676,,,,,,,,,,,,,,,2.000000,1.500000,3.000000,0.000000
1670040246.349750,,,,,,,,,,,,,,,2.000000,1.500000,3.000000,0.000000
1670040246.359457,,,,,3549.174000,-0.018694,1.999928,0.004037,-0.163399,1.499811,-0.000988,50.000000,2.100020,-0.002063,,,,
1670040246.359511,,,,,3549.174000,-0.018694,1.999928,0.004037,-0.163399,1.499811,-0.000988,50.000000,2.100020,-0.002063,,,,
1670040246.359720,,,,,,,,,,,,,,,2.000000,1.500000,3.000000,0.000000
1670040246.359742,,,,,,,,,,,,,,,2.000000,1.500000,3.000000,0.000000
1670040246.369025,,,,,3549.184000,0.058654,1.999935,-0.000528,-0.089763,1.499817,-0.000802,50.000000,2.100001,-0.002018,,,,
1670040246.369083,,,,,3549.184000,0.058654,1.999935,-0.000528,-0.089763,1.499817,-0.000802,50.000000,2.100001,-0.002018,,,,
1670040246.369320,,,,,,,,,,,,,,,2.000000,1.500000,3.000000,0.000000
1670040246.369337,,,,,,,,,,,,,,,2.000000,1.500000,3.000000,0.000000
1670040246.378451,,,,,3549.194000,-0.116786,1.999940,0.003355,0.044029,1.499793,0.000218,50.000000,2.100016,-0.001563,,,,
1670040246.378502,,,,,3549.194000,-0.116786,1.999940,0.003355,0.044029,1.499793,0.000218,50.000000,2.100016,-0.001563,,,,
1670040246.378592,,,,,,,,,,,,,,,2.000000,1.500000,3.000000,0.000000
1670040246.378612,,,,,,,,,,,,,,,2.000000,1.500000,3.000000,0.000000
1670040246.388393,,,,,3549.204000,0.019729,1.999940,-0.001347,0.037226,1.499805,0.000619,50.000000,2.100000,-0.001757,,,,
1670040246.388455,,,,,3549.204000,0.019729,1.999940,-0.001347,0.037226,1.499805,0.000619,50.000000,2.100000,-0.001757,,,,
1670040246.388677,-0.155748,0.623352,81.265161,0.000000,,,,,,,,,,,,,,
1670040246.388716,,,,,,,,,,,,,,,2.000000,1.500000,3.000000,0.000000
1670040246.388739,,,,,,,,,,,,,,,2.000000,1.500000,3.000000,0.000000
1670040246.389085,0.060465,-0.201118,81.029800,0.000000,,,,,,,,,,,,,,
1670040246.398065,,,,,3549.214000,-0.097082,1.999943,0.001964,0.002730,1.499792,0.001962,50.000000,2.100012,-0.001414,,,,
1670040246.398144,,,,,3549.214000,-0.097082,1.999943,0.001964,0.002730,1.499792,0.001962,50.000000,2.100012,-0.001414,,,,
1670040246.398357,,,,,,,,,,,,,,,2.000000,1.500000,3.000000,0.000000
1670040246.398378,,,,,,,,,,,,,,,2.000000,1.500000,3.000000,0.000000
1670040246.407718,,,,,3549.224000,0.044027,1.999935,-0.001597,-0.011930,1.499808,0.000643,50.000000,2.100000,-0.001672,,,,
1670040246.407799,,,,,3549.224000,0.044027,1.999935,-0.001597,-0.011930,1.499808,0.000643,50.000000,2.100000,-0.001672,,,,
1670040246.408083,,,,,,,,,,,,,,,2.000000,1.500000,3.000000,0.000000
1670040246.408145,,,,,,,,,,,,,,,2.000000,1.500000,3.000000,0.000000
1670040246.417631,,,,,3549.234000,-0.055512,1.999941,0.001398,-0.058289,1.499793,0.001458,50.000000,2.100010,-0.001540,,,,
1670040246.417696,,,,,3549.234000,-0.055512,1.999941,0.001398,-0.058289,1.499793,0.001458,50.000000,2.100010,-0.001540,,,,
1670040246.417797,,,,,,,,,,,,,,,2.000000,1.500000,3.000000,0.000000
1670040246.417815,,,,,,,,,,,,,,,2.000000,1.500000,3.000000,0.000000
1670040246.426612,,,,,3549.244000,0.051836,1.999911,-0.023390,-0.012930,1.499833,0.033084,50.000000,2.100080,0.059786,,,,
1670040246.426645,,,,,3549.244000,0.051836,1.999911,-0.023390,-0.012930,1.499833,0.033084,50.000000,2.100080,0.059786,,,,
1670040246.426877,-0.018694,-0.163399,81.089786,0.000000,,,,,,,,,,,,,,
1670040246.426895,-0.018694,-0.163399,81.089786,0.000000,,,,,,,,,,,,,,
1670040246.426905,,,,,,,,,,,,,,,2.000000,1.500000,3.000000,0.000000
1670040246.426914,,,,,,,,,,,,,,,2.000000,1.500000,3.000000,0.000000
1670040246.428318,0.058654,-0.089763,81.066669,0.000000,,,,,,,,,,,,,,
1670040246.428339,0.058654,-0.089763,81.066669,0.000000,,,,,,,,,,,,,,
1670040246.436674,,,,,3549.254000,-0.038431,1.999945,0.000965,-0.040662,1.499777,0.000778,50.000000,2.100007,-0.001696,,,,
1670040246.436738,,,,,3549.254000,-0.038431,1.999945,0.000965,-0.040662,1.499777,0.000778,50.000000,2.100007,-0.001696,,,,
1670040246.436819,,,,,,,,,,,,,,,2.000000,1.500000,3.000000,0.000000
1670040246.436842,,,,,,,,,,,,,,,2.000000,1.500000,3.000000,0.000000
1670040246.446443,,,,,3549.264000,0.707053,1.999987,0.013532,-1.149604,1.499673,-0.029162,50.000000,2.100062,-0.013818,,,,
1670040246.446543,,,,,3549.264000,0.707053,1.999987,0.013532,-1.149604,1.499673,-0.029162,50.000000,2.100062,-0.013818,,,,
1670040246.446707,,,,,,,,,,,,,,,2.000000,1.500000,3.000000,0.000000
1670040246.446750,,,,,,,,,,,,,,,2.000000,1.500000,3.000000,0.000000
1670040246.457203,,,,,3549.274000,-0.025668,2.000115,0.008325,-0.016109,1.499447,-0.017152,50.000000,2.100006,-0.003515,,,,
1670040246.457319,,,,,3549.274000,-0.025668,2.000115,0.008325,-0.016109,1.499447,-0.017152,50.000000,2.100006,-0.003515,,,,
1670040246.457681,,,,,,,,,,,,,,,2.000000,1.500000,3.000000,0.000000
1670040246.457740,,,,,,,,,,,,,,,2.000000,1.500000,3.000000,0.000000
1670040246.467215,,,,,3549.284000,-0.405185,2.000126,0.004933,1.036995,1.499362,-0.016899,50.000000,2.100039,-0.007677,,,,
1670040246.467309,,,,,3549.284000,-0.405185,2.000126,0.004933,1.036995,1.499362,-0.016899,50.000000,2.100039,-0.007677,,,,
1670040246.467711,,,,,,,,,,,,,,,2.000000,1.500000,3.000000,0.000000
1670040246.467757,,,,,,,,,,,,,,,2.000000,1.500000,3.000000,0.000000
1670040246.477666,,,,,3549.294000,-0.256643,2.000141,-0.002305,0.627942,1.499368,0.006650,50.000000,2.100003,-0.000859,,,,
1670040246.477726,,,,,3549.294000,-0.256643,2.000141,-0.002305,0.627942,1.499368,0.006650,50.000000,2.100003,-0.000859,,,,
1670040246.478127,,,,,,,,,,,,,,,2.000000,1.500000,3.000000,0.000000
1670040246.478184,,,,,,,,,,,,,,,2.000000,1.500000,3.000000,0.000000
1670040246.487769,,,,,3549.304000,-0.155561,2.000087,-0.001137,0.623384,1.499469,0.006995,50.000000,2.100032,-0.003221,,,,
1670040246.487821,,,,,3549.304000,-0.155561,2.000087,-0.001137,0.623384,1.499469,0.006995,50.000000,2.100032,-0.003221,,,,
1670040246.488049,,,,,,,,,,,,,,,2.000000,1.500000,3.000000,0.000000
1670040246.488068,,,,,,,,,,,,,,,2.000000,1.500000,3.000000,0.000000
1670040246.497750,,,,,3549.314000,0.060668,2.000048,-0.005923,-0.201143,1.499601,0.012831,50.000000,2.100002,-0.001456,,,,
1670040246.497829,,,,,3549.314000,0.060668,2.000048,-0.005923,-0.201143,1.499601,0.012831,50.000000,2.100002,-0.001456,,,,
1670040246.498154,,,,,,,,,,,,,,,2.000000,1.500000,3.000000,0.000000
1670040246.498196,,,,,,,,,,,,,,,2.000000,1.500000,3.000000,0.000000
1670040246.507749,,,,,3549.324000,0.028869,1.999994,0.000628,-0.218254,1.499691,0.005107,50.000000,2.100025,-0.002630,,,,
1670040246.507842,,,,,3549.324000,0.028869,1.999994,0.000628,-0.218254,1.499691,0.005107,50.000000,2.100025,-0.002630,,,,
1670040246.508166,,,,,,,,,,,,,,,2.000000,1.500000,3.000000,0.000000
1670040246.508226,,,,,,,,,,,,,,,2.000000,1.500000,3.000000,0.000000
1670040246.517413,,,,,3549.334000,0.174816,1.999980,-0.001923,-0.429129,1.499752,0.002916,50.000000,2.100001,-0.001908,,,,
1670040246.517490,,,,,3549.334000,0.174816,1.999980,-0.001923,-0.429129,1.499752,0.002916,50.000000,2.100001,-0.001908,,,,
1670040246.517813,,,,,,,,,,,,,,,2.000000,1.500000,3.000000,0.000000
1670040246.517850,,,,,,,,,,,,,,,2.000000,1.500000,3.000000,0.000000
1670040246.527663,,,,,3549.344000,-0.018459,1.999972,0.003941,-0.163279,1.499749,-0.000903,50.000000,2.100020,-0.002063,,,,
1670040246.527715,,,,,3549.344000,-0.018459,1.999972,0.003941,-0.163279,1.499749,-0.000903,50.000000,2.100020,-0.002063,,,,
1670040246.527869,-0.025668,-0.016109,81.058690,0.000000,,,,,,,,,,,,,,
1670040246.527889,-0.025668,-0.016109,81.058690,0.000000,,,,,,,,,,,,,,
1670040246.527900,,,,,,,,,,,,,,,2.000000,1.500000,3.000000,0.000000
1670040246.527909,,,,,,,,,,,,,,,2.000000,1.500000,3.000000,0.000000
1670040246.528179,-0.405185,1.036995,81.478014,0.000000,,,,,,,,,,,,,,
1670040246.528213,-0.405185,1.036995,81.478014,0.000000,,,,,,,,,,,,,,
1670040246.537778,,,,,3549.354000,0.058895,1.999978,-0.000623,-0.089637,1.499756,-0.000718,50.000000,2.100001,-0.002018,,,,
1670040246.537853,,,,,3549.354000,0.058895,1.999978,-0.000623,-0.089637,1.499756,-0.000718,50.000000,2.100001,-0.002018,,,,
1670040246.538006,,,,,,,,,,,,,,,2.000000,1.500000,3.000000,0.000000
1670040246.538034,,,,,,,,,,,,,,,2.000000,1.500000,3.000000,0.000000
1670040246.548295,,,,,3549.364000,-0.116533,1.999982,0.003262,0.044167,1.499733,0.000301,50.000000,2.100016,-0.001563,,,,
1670040246.548376,,,,,3549.364000,-0.116533,1.999982,0.003262,0.044167,1.499733,0.000301,50.000000,2.100016,-0.001563,,,,
1670040246.548725,,,,,,,,,,,,,,,2.000000,1.500000,3.000000,0.000000
1670040246.548766,,,,,,,,,,,,,,,2.000000,1.500000,3.000000,0.000000
1670040246.558905,,,,,3549.374000,0.020007,1.999981,-0.001439,0.037337,1.499746,0.000701,50.000000,2.100000,-0.001757,,,,
1670040246.559010,,,,,3549.374000,0.020007,1.999981,-0.001439,0.037337,1.499746,0.000701,50.000000,2.100000,-0.001757,,,,
1670040246.559544,,,,,,,,,,,,,,,2.000000,1.500000,3.000000,0.000000
1670040246.559605,,,,,,,,,,,,,,,2.000000,1.500000,3.000000,0.000000
1670040246.569527,,,,,3549.384000,-0.096796,1.999983,0.001874,0.002825,1.499734,0.002043,50.000000,2.100012,-0.001414,,,,
1670040246.569638,,,,,3549.384000,-0.096796,1.999983,0.001874,0.002825,1.499734,0.002043,50.000000,2.100012,-0.001414,,,,
1670040246.569996,0.060668,-0.201143,81.029793,0.000000,,,,,,,,,,,,,,
1670040246.570067,,,,,,,,,,,,,,,2.000000,1.500000,3.000000,0.000000
1670040246.570106,,,,,,,,,,,,,,,2.000000,1.500000,3.000000,0.000000
1670040246.578915,0.028869,-0.218254,81.109875,0.000000,,,,,,,,,,,,,,
1670040246.579912,,,,,3549.394000,0.044336,1.999974,-0.001686,-0.011836,1.499751,0.000722,50.000000,2.100000,-0.001672,,,,
1670040246.580003,,,,,3549.394000,0.044336,1.999974,-0.001686,-0.011836,1.499751,0.000722,50.000000,2.100000,-0.001672,,,,
1670040246.580315,,,,,,,,,,,,,,,2.000000,1.500000,3.000000,0.000000
1670040246.580360,,,,,,,,,,,,,,,2.000000,1.500000,3.000000,0.000000
1670040246.590151,,,,,3549.404000,-0.055209,1.999980,0.001311,-0.058195,1.499736,0.001536,50.000000,2.100010,-0.001540,,,,
1670040246.590250,,,,,3549.404000,-0.055209,1.999980,0.001311,-0.058195,1.499736,0.001536,50.000000,2.100010,-0.001540,,,,
1670040246.590296,,,,,,,,,,,,,,,2.000000,1.500000,3.000000,0.000000
1670040246.590329,,,,,,,,,,,,,,,2.000000,1.500000,3.000000,0.000000
1670040246.599993,,,,,3549.414000,0.052153,1.999948,-0.023476,-0.012811,1.499777,0.033161,50.000000,2.100080,0.059786,,,,
1670040246.600084,,,,,3549.414000,0.052153,1.999948,-0.023476,-0.012811,1.499777,0.033161,50.000000,2.100080,0.059786,,,,
1670040246.600513,-0.018459,-0.163279,81.089788,0.000000,,,,,,,,,,,,,,
1670040246.600550,,,,,,,,,,,,,,,2.000000,1.500000,3.000000,0.000000
1670040246.600563,,,,,,,,,,,,,,,2.000000,1.500000,3.000000,0.000000
1670040246.610316,,,,,3549.424000,-0.038124,1.999982,0.000882,-0.040545,1.499722,0.000854,50.000000,2.100007,-0.001696,,,,
1670040246.610409,,,,,3549.424000,-0.038124,1.999982,0.000882,-0.040545,1.499722,0.000854,50.000000,2.100007,-0.001696,,,,
1670040246.610922,,,,,,,,,,,,,,,2.000000,1.500000,3.000000,0.000000
1670040246.610970,,,,,,,,,,,,,,,2.000000,1.500000,3.000000,0.000000
1670040246.619484,,,,,3549.434000,0.707374,2.000023,0.013450,-1.149478,1.499619,-0.029090,50.000000,2.100062,-0.013818,,,,
1670040246.619554,,,,,3549.434000,0.707374,2.000023,0.013450,-1.149478,1.499619,-0.029090,50.000000,2.100062,-0.013818,,,,
1670040246.619894,,,,,,,,,,,,,,,2.000000,1.500000,3.000000,0.000000
1670040246.619928,,,,,,,,,,,,,,,2.000000,1.500000,3.000000,0.000000
1670040246.629277,,,,,3549.444000,-0.025352,2.000150,0.008245,-0.015985,1.499394,-0.017079,50.000000,2.100006,-0.003515,,,,
1670040246.629345,,,,,3549.444000,-0.025352,2.000150,0.008245,-0.015985,1.499394,-0.017079,50.000000,2.100006,-0.003515,,,,
1670040246.629592,,,,,,,,,,,,,,,2.000000,1.500000,3.000000,0.000000
1670040246.629611,,,,,,,,,,,,,,,2.000000,1.500000,3.000000,0.000000
1670040246.638618,,,,,3549.454000,-0.404874,2.000160,0.004853,1.037199,1.499309,-0.016827,50.000000,2.100039,-0.007678,,,,
1670040246.638886,,,,,3549.454000,-0.404874,2.000160,0.004853,1.037199,1.499309,-0.016827,50.000000,2.100039,-0.007678,,,,
1670040246.639450,-0.096796,0.002825,81.053293,0.000000,,,,,,,,,,,,,,
1670040246.639527,-0.096796,0.002825,81.053293,0.000000,,,,,,,,,,,,,,
1670040246.639553,,,,,,,,,,,,,,,2.000000,1.500000,3.000000,0.000000
1670040246.639600,,,,,,,,,,,,,,,2.000000,1.500000,3.000000,0.000000
1670040246.640334,0.044336,-0.011836,81.061483,0.000000,,,,,,,,,,,,,,
1670040246.640453,0.044336,-0.011836,81.061483,0.000000,,,,,,,,,,,,,,
1670040246.649173,,,,,3549.464000,-0.256328,2.000175,-0.002383,0.628103,1.499315,0.006723,50.000000,2.100003,-0.000858,,,,
1670040246.649282,,,,,3549.464000,-0.256328,2.000175,-0.002383,0.628103,1.499315,0.006723,50.000000,2.100003,-0.000858,,,,
1670040246.649631,,,,,,,,,,,,,,,2.000000,1.500000,3.000000,0.000000
1670040246.649678,,,,,,,,,,,,,,,2.000000,1.500000,3.000000,0.000000
1670040246.659384,,,,,3549.474000,-0.155208,2.000120,-0.001213,0.623504,1.499417,0.007066,50.000000,2.100032,-0.003221,,,,
1670040246.659426,,,,,3549.474000,-0.155208,2.000120,-0.001213,0.623504,1.499417,0.007066,50.000000,2.100032,-0.003221,,,,
1670040246.659633,,,,,,,,,,,,,,,2.000000,1.500000,3.000000,0.000000
1670040246.659652,,,,,,,,,,,,,,,2.000000,1.500000,3.000000,0.000000
1670040246.670159,,,,,3549.484000,0.061018,2.000080,-0.005998,-0.201073,1.499550,0.012901,50.000000,2.100002,-0.001456,,,,
1670040246.670223,,,,,3549.484000,0.061018,2.000080,-0.005998,-0.201073,1.499550,0.012901,50.000000,2.100002,-0.001456,,,,
1670040246.670390,,,,,,,,,,,,,,,2.000000,1.500000,3.000000,0.000000
1670040246.670404,,,,,,,,,,,,,,,2.000000,1.500000,3.000000,0.000000
1670040246.680554,,,,,3549.494000,0.029223,2.000025,0.000555,-0.218162,1.499640,0.005174,50.000000,2.100025,-0.002631,,,,
1670040246.680662,,,,,3549.494000,0.029223,2.000025,0.000555,-0.218162,1.499640,0.005174,50.000000,2.100025,-0.002631,,,,
1670040246.681227,,,,,,,,,,,,,,,2.000000,1.500000,3.000000,0.000000
1670040246.681290,,,,,,,,,,,,,,,2.000000,1.500000,3.000000,0.000000
1670040246.690606,,,,,3549.504000,0.175153,2.000010,-0.001994,-0.429020,1.499702,0.002982,50.000000,2.100001,-0.001908,,,,
1670040246.690671,,,,,3549.504000,0.175153,2.000010,-0.001994,-0.429020,1.499702,0.002982,50.000000,2.100001,-0.001908,,,,
1670040246.690765,0.707374,-1.149478,78.900323,0.000000,,,,,,,,,,,,,,
1670040246.690788,,,,,,,,,,,,,,,2.000000,1.500000,3.000000,0.000000
1670040246.690829,,,,,,,,,,,,,,,2.000000,1.500000,3.000000,0.000000
1670040246.691172,-0.025352,-0.015985,81.058683,0.000000,,,,,,,,,,,,,,
1670040246.696738,0.000000,0.000000,0.000000,0.000000,,,,,,,,,,,,,,
1670040246.701109,,,,,3549.514000,0.000000,2.000138,0.008526,0.000000,1.499625,0.004464,0.000000,2.099237,-0.104008,,,,
1670040246.701157,,,,,3549.514000,0.000000,2.000138,0.008526,0.000000,1.499625,0.004464,0.000000,2.099237,-0.104008,,,,
1670040246.701201,-0.404874,1.037199,81.478021,0.000000,,,,,,,,,,,,,,
1670040246.701263,,,,,,,,,,,,,,,2.000000,1.500000,3.000000,0.000000
1670040246.701274,,,,,,,,,,,,,,,2.000000,1.500000,3.000000,0.000000
1670040246.710236,,,,,3549.524000,0.059210,1.999796,0.044089,-0.089473,1.499742,-0.067513,50.000000,2.100060,0.023585,,,,
1670040246.710299,,,,,3549.524000,0.059210,1.999796,0.044089,-0.089473,1.499742,-0.067513,50.000000,2.100060,0.023585,,,,
1670040246.710409,,,,,,,,,,,,,,,2.000000,1.500000,3.000000,0.000000
1670040246.710431,,,,,,,,,,,,,,,2.000000,1.500000,3.000000,0.000000
1670040246.719789,,,,,3549.534000,-0.264077,2.000103,0.007636,-0.137476,1.499671,0.008108,50.000000,2.100008,0.004195,,,,
1670040246.719863,,,,,3549.534000,-0.264077,2.000103,0.007636,-0.137476,1.499671,0.008108,50.000000,2.100008,0.004195,,,,
1670040246.720055,-0.256328,0.628103,81.122527,0.000000,,,,,,,,,,,,,,
1670040246.720091,,,,,,,,,,,,,,,2.000000,1.500000,3.000000,0.000000
1670040246.720115,,,,,,,,,,,,,,,2.000000,1.500000,3.000000,0.000000
1670040246.721413,-0.155208,0.623504,81.265200,0.000000,,,,,,,,,,,,,,
1670040246.729342,,,,,3549.544000,-1.310451,1.999857,-0.033237,2.375841,1.500031,0.031438,50.000000,2.100050,-0.023713,,,,
1670040246.729433,,,,,3549.544000,-1.310451,1.999857,-0.033237,2.375841,1.500031,0.031438,50.000000,2.100050,-0.023713,,,,
1670040246.729672,,,,,,,,,,,,,,,2.000000,1.500000,3.000000,0.000000
1670040246.729717,,,,,,,,,,,,,,,2.000000,1.500000,3.000000,0.000000
1670040246.739058,,,,,3549.554000,-0.235259,1.999625,-0.017319,-0.267323,1.500360,0.033104,50.000000,2.100004,0.001159,,,,
1670040246.739138,,,,,3549.554000,-0.235259,1.999625,-0.017319,-0.267323,1.500360,0.033104,50.000000,2.100004,0.001159,,,,
1670040246.739321,,,,,,,,,,,,,,,2.000000,1.500000,3.000000,0.000000
1670040246.739343,,,,,,,,,,,,,,,2.000000,1.500000,3.000000,0.000000
1670040246.749085,,,,,3549.564000,1.005673,1.999527,-0.000312,-1.101875,1.500601,0.006840,50.000000,2.100064,-0.009754,,,,
1670040246.749126,,,,,3549.564000,1.005673,1.999527,-0.000312,-1.101875,1.500601,0.006840,50.000000,2.100064,-0.009754,,,,
1670040246.749359,0.029223,-0.218162,81.109879,0.000000,,,,,,,,,,,,,,
1670040246.749376,,,,,,,,,,,,,,,2.000000,1.500000,3.000000,0.000000
1670040246.749382,,,,,,,,,,,,,,,2.000000,1.500000,3.000000,0.000000
1670040246.750091,0.175153,-0.429020,81.050751,0.000000,,,,,,,,,,,,,,
1670040246.759088,,,,,3549.574000,0.542078,1.999544,-0.000644,-1.176650,1.500622,0.000201,50.000000,2.100006,-0.003458,,,,
1670040246.759137,,,,,3549.574000,0.542078,1.999544,-0.000644,-1.176650,1.500622,0.000201,50.000000,2.100006,-0.003458,,,,
1670040246.759376,,,,,,,,,,,,,,,2.000000,1.500000,3.000000,0.000000
1670040246.759392,,,,,,,,,,,,,,,2.000000,1.500000,3.000000,0.000000
1670040246.769048,,,,,3549.584000,0.037710,1.999500,0.003037,-0.269462,1.500613,-0.022020,50.000000,2.100049,-0.012039,,,,
1670040246.769095,,,,,3549.584000,0.037710,1.999500,0.003037,-0.269462,1.500613,-0.022020,50.000000,2.100049,-0.012039,,,,
1670040246.769295,,,,,,,,,,,,,,,2.000000,1.500000,3.000000,0.000000
1670040246.769320,,,,,,,,,,,,,,,2.000000,1.500000,3.000000,0.000000
1670040246.779546,,,,,3549.594000,0.046661,1.999544,0.003105,-0.038123,1.500523,-0.006625,50.000000,2.100004,-0.001421,,,,
1670040246.779607,,,,,3549.594000,0.046661,1.999544,0.003105,-0.038123,1.500523,-0.006625,50.000000,2.100004,-0.001421,,,,
1670040246.780295,,,,,,,,,,,,,,,2.000000,1.500000,3.000000,0.000000
1670040246.780326,,,,,,,,,,,,,,,2.000000,1.500000,3.000000,0.000000
1670040246.789502,,,,,3549.604000,-0.061123,1.999531,0.003463,0.740021,1.500515,-0.010751,50.000000,2.100040,-0.005958,,,,
1670040246.789575,,,,,3549.604000,-0.061123,1.999531,0.003463,0.740021,1.500515,-0.010751,50.000000,2.100040,-0.005958,,,,
1670040246.789811,,,,,,,,,,,,,,,2.000000,1.500000,3.000000,0.000000
1670040246.789847,,,,,,,,,,,,,,,2.000000,1.500000,3.000000,0.000000
1670040246.799688,,,,,3549.614000,-0.065789,1.999532,-0.003275,0.205752,1.500551,0.006848,50.000000,2.100003,-0.001591,,,,
1670040246.799739,,,,,3549.614000,-0.065789,1.999532,-0.003275,0.205752,1.500551,0.006848,50.000000,2.100003,-0.001591,,,,
1670040246.800406,-1.310451,2.375841,80.169107,0.000000,,,,,,,,,,,,,,
1670040246.800430,,,,,,,,,,,,,,,2.000000,1.500000,3.000000,0.000000
1670040246.800438,,,,,,,,,,,,,,,2.000000,1.500000,3.000000,0.000000
1670040246.803049,0.000000,0.000000,0.000000,0.000000,,,,,,,,,,,,,,
1670040246.809872,,,,,3549.624000,-0.075764,1.999477,-0.000173,0.350539,1.500631,0.002735,50.000000,2.100032,-0.003876,,,,
1670040246.809944,,,,,3549.624000,-0.075764,1.999477,-0.000173,0.350539,1.500631,0.002735,50.000000,2.100032,-0.003876,,,,
1670040246.810218,,,,,,,,,,,,,,,2.000000,1.500000,3.000000,0.000000
1670040246.810252,,,,,,,,,,,,,,,2.000000,1.500000,3.000000,0.000000
1670040246.820675,,,,,3549.634000,0.126305,1.999456,-0.003440,-0.267201,1.500714,0.007177,50.000000,2.100002,-0.001406,,,,
1670040246.820801,,,,,3549.634000,0.126305,1.999456,-0.003440,-0.267201,1.500714,0.007177,50.000000,2.100002,-0.001406,,,,
1670040246.821514,,,,,,,,,,,,,,,2.000000,1.500000,3.000000,0.000000
1670040246.821569,,,,,,,,,,,,,,,2.000000,1.500000,3.000000,0.000000
1670040246.830609,,,,,3549.644000,0.036590,1.999424,0.002572,-0.127305,1.500757,0.000847,50.000000,2.100025,-0.002638,,,,
1670040246.830740,,,,,3549.644000,0.036590,1.999424,0.002572,-0.127305,1.500757,0.000847,50.000000,2.100025,-0.002638,,,,
1670040246.831284,,,,,,,,,,,,,,,2.000000,1.500000,3.000000,0.000000
1670040246.831341,,,,,,,,,,,,,,,2.000000,1.500000,3.000000,0.000000
1670040246.841170,,,,,3549.654000,0.135838,1.999423,-0.001097,-0.286912,1.500788,0.000791,50.000000,2.100001,-0.001996,,,,
1670040246.841262,,,,,3549.654000,0.135838,1.999423,-0.001097,-0.286912,1.500788,0.000791,50.000000,2.100001,-0.001996,,,,
1670040246.841700,,,,,,,,,,,,,,,2.000000,1.500000,3.000000,0.000000
1670040246.841759,,,,,,,,,,,,,,,2.000000,1.500000,3.000000,0.000000
1670040246.850627,,,,,3549.664000,-0.042564,1.999420,0.004278,-0.067498,1.500770,-0.001697,50.000000,2.100020,-0.001988,,,,
1670040246.850699,,,,,3549.664000,-0.042564,1.999420,0.004278,-0.067498,1.500770,-0.001697,50.000000,2.100020,-0.001988,,,,
1670040246.851052,0.046661,-0.038123,81.120467,0.000000,,,,,,,,,,,,,,
1670040246.851080,,,,,,,,,,,,,,,2.000000,1.500000,3.000000,0.000000
1670040246.851115,,,,,,,,,,,,,,,2.000000,1.500000,3.000000,0.000000
1670040246.852427,-0.061123,0.740021,81.416962,0.000000,,,,,,,,,,,,,,
1670040246.861196,,,,,3549.674000,0.067547,1.999430,-0.000307,-0.067073,1.500770,-0.001254,50.000000,2.100001,-0.001898,,,,
1670040246.861246,,,,,3549.674000,0.067547,1.999430,-0.000307,-0.067073,1.500770,-0.001254,50.000000,2.100001,-0.001898,,,,
1670040246.861478,,,,,,,,,,,,,,,2.000000,1.500000,3.000000,0.000000
1670040246.861497,,,,,,,,,,,,,,,2.000000,1.500000,3.000000,0.000000
1670040246.871266,,,,,3549.684000,-0.093553,1.999438,0.003711,0.020873,1.500739,-0.000616,50.000000,2.100016,-0.001544,,,,
1670040246.871308,,,,,3549.684000,-0.093553,1.999438,0.003711,0.020873,1.500739,-0.000616,50.000000,2.100016,-0.001544,,,,
1670040246.871417,,,,,,,,,,,,,,,2.000000,1.500000,3.000000,0.000000
1670040246.871433,,,,,,,,,,,,,,,2.000000,1.500000,3.000000,0.000000
1670040246.881212,,,,,3549.694000,0.043407,1.999442,-0.000755,0.005417,1.500740,-0.000744,50.000000,2.100000,-0.001785,,,,
1670040246.881257,,,,,3549.694000,0.043407,1.999442,-0.000755,0.005417,1.500740,-0.000744,50.000000,2.100000,-0.001785,,,,
1670040246.881666,,,,,,,,,,,,,,,2.000000,1.500000,3.000000,0.000000
1670040246.881692,,,,,,,,,,,,,,,2.000000,1.500000,3.000000,0.000000
1670040246.891759,,,,,3549.704000,-0.077641,1.999453,0.002753,-0.015378,1.500712,0.000261,50.000000,2.100012,-0.001440,,,,
1670040246.891816,,,,,3549.704000,-0.077641,1.999453,0.002753,-0.015378,1.500712,0.000261,50.000000,2.100012,-0.001440,,,,
1670040246.892124,,,,,,,,,,,,,,,2.000000,1.500000,3.000000,0.000000
1670040246.892150,,,,,,,,,,,,,,,2.000000,1.500000,3.000000,0.000000
1670040246.901931,,,,,3549.714000,0.056101,1.999453,-0.000747,-0.010945,1.500711,-0.001085,50.000000,2.100000,-0.001685,,,,
1670040246.902013,,,,,3549.714000,0.056101,1.999453,-0.000747,-0.010945,1.500711,-0.001085,50.000000,2.100000,-0.001685,,,,
1670040246.902610,0.036590,-0.127305,81.132801,0.000000,,,,,,,,,,,,,,
1670040246.902659,,,,,,,,,,,,,,,2.000000,1.500000,3.000000,0.000000
1670040246.902693,,,,,,,,,,,,,,,2.000000,1.500000,3.000000,0.000000
1670040246.911570,,,,,3549.724000,-0.049753,1.999468,0.002195,-0.044700,1.500679,-0.000108,50.000000,2.100010,-0.001552,,,,
1670040246.911643,,,,,3549.724000,-0.049753,1.999468,0.002195,-0.044700,1.500679,-0.000108,50.000000,2.100010,-0.001552,,,,
1670040246.912007,,,,,,,,,,,,,,,2.000000,1.500000,3.000000,0.000000
1670040246.912049,,,,,,,,,,,,,,,2.000000,1.500000,3.000000,0.000000
1670040246.921552,,,,,3549.734000,0.055248,1.999445,-0.022652,0.002423,1.500705,0.031717,50.000000,2.100080,0.059778,,,,
1670040246.921595,,,,,3549.734000,0.055248,1.999445,-0.022652,0.002423,1.500705,0.031717,50.000000,2.100080,0.059778,,,,
1670040246.921780,-0.042564,-0.067498,81.090046,0.000000,,,,,,,,,,,,,,
1670040246.921799,,,,,,,,,,,,,,,2.000000,1.500000,3.000000,0.000000
1670040246.921810,,,,,,,,,,,,,,,2.000000,1.500000,3.000000,0.000000
1670040246.922494,0.067547,-0.067073,81.069747,0.000000,,,,,,,,,,,,,,
1670040246.931759,,,,,3549.744000,-0.033899,1.999486,0.001664,-0.030175,1.500636,-0.000461,50.000000,2.100007,-0.001689,,,,
1670040246.931808,,,,,3549.744000,-0.033899,1.999486,0.001664,-0.030175,1.500636,-0.000461,50.000000,2.100007,-0.001689,,,,
1670040246.931942,,,,,,,,,,,,,,,2.000000,1.500000,3.000000,0.000000
1670040246.931960,,,,,,,,,,,,,,,2.000000,1.500000,3.000000,0.000000
1670040246.941425,,,,,3549.754000,0.712872,1.999535,0.014223,-1.145330,1.500520,-0.030325,50.000000,2.100062,-0.013810,,,,
1670040246.941507,,,,,3549.754000,0.712872,1.999535,0.014223,-1.145330,1.500520,-0.030325,50.000000,2.100062,-0.013810,,,,
1670040246.941607,,,,,,,,,,,,,,,2.000000,1.500000,3.000000,0.000000
1670040246.941636,,,,,,,,,,,,,,,2.000000,1.500000,3.000000,0.000000
1670040246.951982,,,,,3549.764000,-0.019087,1.999670,0.009036,-0.015666,1.500282,-0.018349,50.000000,2.100006,-0.003514,,,,
1670040246.952089,,,,,3549.764000,-0.019087,1.999670,0.009036,-0.015666,1.500282,-0.018349,50.000000,2.100006,-0.003514,,,,
1670040246.952419,0.043407,0.005417,81.066389,0.000000,,,,,,,,,,,,,,
1670040246.952626,,,,,,,,,,,,,,,2.000000,1.500000,3.000000,0.000000
1670040246.952650,,,,,,,,,,,,,,,2.000000,1.500000,3.000000,0.000000
1670040246.961475,,,,,3549.774000,-0.398773,1.999688,0.005687,1.035374,1.500184,-0.018141,50.000000,2.100039,-0.007672,,,,
1670040246.961562,,,,,3549.774000,-0.398773,1.999688,0.005687,1.035374,1.500184,-0.018141,50.000000,2.100039,-0.007672,,,,
1670040246.961831,,,,,,,,,,,,,,,2.000000,1.500000,3.000000,0.000000
1670040246.961884,,,,,,,,,,,,,,,2.000000,1.500000,3.000000,0.000000
1670040246.971984,,,,,3549.784000,-0.251274,1.999711,-0.001537,0.628117,1.500178,0.005384,50.000000,2.100003,-0.000863,,,,
1670040246.972078,,,,,3549.784000,-0.251274,1.999711,-0.001537,0.628117,1.500178,0.005384,50.000000,2.100003,-0.000863,,,,
1670040246.972512,,,,,,,,,,,,,,,2.000000,1.500000,3.000000,0.000000
1670040246.972555,,,,,,,,,,,,,,,2.000000,1.500000,3.000000,0.000000
1670040246.981847,,,,,3549.794000,-0.151914,1.999665,-0.000365,0.625728,1.500266,0.005758,50.000000,2.100032,-0.003222,,,,
1670040246.981912,,,,,3549.794000,-0.151914,1.999665,-0.000365,0.625728,1.500266,0.005758,50.000000,2.100032,-0.003222,,,,
1670040246.981992,,,,,,,,,,,,,,,2.000000,1.500000,3.000000,0.000000
1670040246.982028,,,,,,,,,,,,,,,2.000000,1.500000,3.000000,0.000000
1670040246.991701,,,,,3549.804000,0.063454,1.999633,-0.005166,-0.197327,1.500386,0.011640,50.000000,2.100002,-0.001456,,,,
1670040246.991752,,,,,3549.804000,0.063454,1.999633,-0.005166,-0.197327,1.500386,0.011640,50.000000,2.100002,-0.001456,,,,
1670040246.992007,,,,,,,,,,,,,,,2.000000,1.500000,3.000000,0.000000
1670040246.992026,,,,,,,,,,,,,,,2.000000,1.500000,3.000000,0.000000
1670040247.001773,,,,,3549.814000,0.031073,1.999586,0.001371,-0.214853,1.500464,0.003974,50.000000,2.100025,-0.002629,,,,
1670040247.001841,,,,,3549.814000,0.031073,1.999586,0.001371,-0.214853,1.500464,0.003974,50.000000,2.100025,-0.002629,,,,
1670040247.002144,-0.033899,-0.030175,81.053440,0.000000,,,,,,,,,,,,,,
1670040247.002179,,,,,,,,,,,,,,,2.000000,1.500000,3.000000,0.000000
1670040247.002205,,,,,,,,,,,,,,,2.000000,1.500000,3.000000,0.000000
1670040247.002488,0.712872,-1.145330,78.900603,0.000000,,,,,,,,,,,,,,
1670040247.011852,,,,,3549.824000,0.176995,1.999580,-0.001190,-0.426701,1.500514,0.001814,50.000000,2.100001,-0.001906,,,,
1670040247.011930,,,,,3549.824000,0.176995,1.999580,-0.001190,-0.426701,1.500514,0.001814,50.000000,2.100001,-0.001906,,,,
1670040247.012298,,,,,,,,,,,,,,,2.000000,1.500000,3.000000,0.000000
1670040247.012337,,,,,,,,,,,,,,,2.000000,1.500000,3.000000,0.000000
1670040247.021629,,,,,3549.834000,-0.016305,1.999579,0.004670,-0.162310,1.500501,-0.001984,50.000000,2.100020,-0.002063,,,,
1670040247.021703,,,,,3549.834000,-0.016305,1.999579,0.004670,-0.162310,1.500501,-0.001984,50.000000,2.100020,-0.002063,,,,
1670040247.021880,-0.019087,-0.015666,81.058466,0.000000,,,,,,,,,,,,,,
1670040247.021903,,,,,,,,,,,,,,,2.000000,1.500000,3.000000,0.000000
1670040247.021916,,,,,,,,,,,,,,,2.000000,1.500000,3.000000,0.000000
1670040247.023072,-0.398773,1.035374,81.477730,0.000000,,,,,,,,,,,,,,
1670040247.031993,,,,,3549.844000,0.060910,1.999593,0.000108,-0.089206,1.500497,-0.001793,50.000000,2.100001,-0.002017,,,,
1670040247.032098,,,,,3549.844000,0.060910,1.999593,0.000108,-0.089206,1.500497,-0.001793,50.000000,2.100001,-0.002017,,,,
1670040247.032363,,,,,,,,,,,,,,,2.000000,1.500000,3.000000,0.000000
1670040247.032408,,,,,,,,,,,,,,,2.000000,1.500000,3.000000,0.000000
1670040247.041922,,,,,3549.854000,-0.114833,1.999604,0.003990,0.044421,1.500463,-0.000767,50.000000,2.100016,-0.001565,,,,
1670040247.041993,,,,,3549.854000,-0.114833,1.999604,0.003990,0.044421,1.500463,-0.000767,50.000000,2.100016,-0.001565,,,,
1670040247.042343,,,,,,,,,,,,,,,2.000000,1.500000,3.000000,0.000000
1670040247.042376,,,,,,,,,,,,,,,2.000000,1.500000,3.000000,0.000000
1670040247.051907,-0.151914,0.625728,81.265002,0.000000,,,,,,,,,,,,,,
1670040247.051929,,,,,3549.864000,0.021209,1.999610,-0.000712,0.037927,1.500465,-0.000352,50.000000,2.100000,-0.001757,,,,
1670040247.051953,,,,,3549.864000,0.021209,1.999610,-0.000712,0.037927,1.500465,-0.000352,50.000000,2.100000,-0.001757,,,,
1670040247.051959,,,,,,,,,,,,,,,2.000000,1.500000,3.000000,0.000000
1670040247.051965,,,,,,,,,,,,,,,2.000000,1.500000,3.000000,0.000000
1670040247.053056,0.063454,-0.197327,81.029941,0.000000,,,,,,,,,,,,,,
1670040247.061422,,,,,3549.874000,-0.095938,1.999619,0.002591,0.003702,1.500443,0.001006,50.000000,2.100012,-0.001417,,,,
1670040247.061482,,,,,3549.874000,-0.095938,1.999619,0.002591,0.003702,1.500443,0.001006,50.000000,2.100012,-0.001417,,,,
1670040247.061673,,,,,,,,,,,,,,,2.000000,1.500000,3.000000,0.000000
1670040247.061699,,,,,,,,,,,,,,,2.000000,1.500000,3.000000,0.000000
1670040247.071466,,,,,3549.884000,0.044776,1.999617,-0.000975,-0.010938,1.500450,-0.000289,50.000000,2.100000,-0.001672,,,,
1670040247.071532,,,,,3549.884000,0.044776,1.999617,-0.000975,-0.010938,1.500450,-0.000289,50.000000,2.100000,-0.001672,,,,
1670040247.072177,,,,,,,,,,,,,,,2.000000,1.500000,3.000000,0.000000
1670040247.072218,,,,,,,,,,,,,,,2.000000,1.500000,3.000000,0.000000
1670040247.081078,,,,,3549.894000,-0.054888,1.999630,0.002009,-0.057367,1.500425,0.000542,50.000000,2.100010,-0.001542,,,,
1670040247.081193,,,,,3549.894000,-0.054888,1.999630,0.002009,-0.057367,1.500425,0.000542,50.000000,2.100010,-0.001542,,,,
1670040247.081717,,,,,,,,,,,,,,,2.000000,1.500000,3.000000,0.000000
1670040247.081786,,,,,,,,,,,,,,,2.000000,1.500000,3.000000,0.000000
1670040247.091583,,,,,3549.904000,0.052211,1.999606,-0.022782,-0.012375,1.500456,0.032186,50.000000,2.100080,0.059781,,,,
1670040247.091671,,,,,3549.904000,0.052211,1.999606,-0.022782,-0.012375,1.500456,0.032186,50.000000,2.100080,0.059781,,,,
1670040247.091988,-0.016305,-0.162310,81.089735,0.000000,,,,,,,,,,,,,,
1670040247.092029,,,,,,,,,,,,,,,2.000000,1.500000,3.000000,0.000000
1670040247.092046,,,,,,,,,,,,,,,2.000000,1.500000,3.000000,0.000000
1670040247.092320,0.060910,-0.089206,81.066606,0.000000,,,,,,,,,,,,,,
1670040247.102337,,,,,3549.914000,-0.038103,1.999646,0.001563,-0.040217,1.500392,-0.000106,50.000000,2.100007,-0.001697,,,,
1670040247.102417,,,,,3549.914000,-0.038103,1.999646,0.001563,-0.040217,1.500392,-0.000106,50.000000,2.100007,-0.001697,,,,
1670040247.102482,,,,,,,,,,,,,,,2.000000,1.500000,3.000000,0.000000
1670040247.102501,,,,,,,,,,,,,,,2.000000,1.500000,3.000000,0.000000
1670040247.112516,,,,,3549.924000,0.707122,1.999694,0.014119,-1.149311,1.500279,-0.030006,50.000000,2.100062,-0.013816,,,,
1670040247.112590,,,,,3549.924000,0.707122,1.999694,0.014119,-1.149311,1.500279,-0.030006,50.000000,2.100062,-0.013816,,,,
1670040247.113044,,,,,,,,,,,,,,,2.000000,1.500000,3.000000,0.000000
1670040247.113082,,,,,,,,,,,,,,,2.000000,1.500000,3.000000,0.000000
1670040247.122812,,,,,3549.934000,-0.025670,1.999828,0.008907,-0.015884,1.500044,-0.017997,50.000000,2.100006,-0.003515,,,,
1670040247.122873,,,,,3549.934000,-0.025670,1.999828,0.008907,-0.015884,1.500044,-0.017997,50.000000,2.100006,-0.003515,,,,
1670040247.122918,,,,,,,,,,,,,,,2.000000,1.500000,3.000000,0.000000
1670040247.122934,,,,,,,,,,,,,,,2.000000,1.500000,3.000000,0.000000
1670040247.133170,,,,,3549.944000,-0.405216,1.999845,0.005521,1.036264,1.499951,-0.017748,50.000000,2.100039,-0.007673,,,,
1670040247.133252,,,,,3549.944000,-0.405216,1.999845,0.005521,1.036264,1.499951,-0.017748,50.000000,2.100039,-0.007673,,,,
1670040247.133611,,,,,,,,,,,,,,,2.000000,1.500000,3.000000,0.000000
1670040247.133650,,,,,,,,,,,,,,,2.000000,1.500000,3.000000,0.000000
1670040247.142840,,,,,3549.954000,-0.256864,1.999866,-0.001726,0.627687,1.499948,0.005802,50.000000,2.100003,-0.000860,,,,
1670040247.142941,,,,,3549.954000,-0.256864,1.999866,-0.001726,0.627687,1.499948,0.005802,50.000000,2.100003,-0.000860,,,,
1670040247.143051,,,,,,,,,,,,,,,2.000000,1.500000,3.000000,0.000000
1670040247.143090,,,,,,,,,,,,,,,2.000000,1.500000,3.000000,0.000000
1670040247.152837,,,,,3549.964000,-0.156308,1.999817,-0.000564,0.623638,1.500041,0.006165,50.000000,2.100032,-0.003221,,,,
1670040247.152982,,,,,3549.964000,-0.156308,1.999817,-0.000564,0.623638,1.500041,0.006165,50.000000,2.100032,-0.003221,,,,
1670040247.153174,-0.054888,-0.057367,81.048472,0.000000,,,,,,,,,,,,,,
1670040247.153226,,,,,,,,,,,,,,,2.000000,1.500000,3.000000,0.000000
1670040247.153266,,,,,,,,,,,,,,,2.000000,1.500000,3.000000,0.000000
1670040247.163559,,,,,3549.974000,0.059827,1.999784,-0.005366,-0.200457,1.500164,0.012023,50.000000,2.100002,-0.001456,,,,
1670040247.163664,,,,,3549.974000,0.059827,1.999784,-0.005366,-0.200457,1.500164,0.012023,50.000000,2.100002,-0.001456,,,,
1670040247.164094,0.052211,-0.012375,81.058528,0.000000,,,,,,,,,,,,,,
1670040247.164141,,,,,,,,,,,,,,,2.000000,1.500000,3.000000,0.000000
1670040247.164167,,,,,,,,,,,,,,,2.000000,1.500000,3.000000,0.000000
1670040247.173522,-0.038103,-0.040217,81.053096,0.000000,,,,,,,,,,,,,,
1670040247.173553,,,,,3549.984000,0.027895,1.999735,0.001173,-0.217818,1.500246,0.004327,50.000000,2.100025,-0.002630,,,,
1670040247.173596,,,,,3549.984000,0.027895,1.999735,0.001173,-0.217818,1.500246,0.004327,50.000000,2.100025,-0.002630,,,,
1670040247.173614,,,,,,,,,,,,,,,2.000000,1.500000,3.000000,0.000000
1670040247.173627,,,,,,,,,,,,,,,2.000000,1.500000,3.000000,0.000000
1670040247.174644,0.707122,-1.149311,78.900516,0.000000,,,,,,,,,,,,,,
1670040247.183396,,,,,3549.994000,0.173935,1.999727,-0.001390,-0.429021,1.500300,0.002150,50.000000,2.100001,-0.001907,,,,
1670040247.183451,,,,,3549.994000,0.173935,1.999727,-0.001390,-0.429021,1.500300,0.002150,50.000000,2.100001,-0.001907,,,,
1670040247.183650,,,,,,,,,,,,,,,2.000000,1.500000,3.000000,0.000000
1670040247.183671,,,,,,,,,,,,,,,2.000000,1.500000,3.000000,0.000000
1670040247.194094,,,,,3550.004000,-0.019284,1.999724,0.004466,-0.163753,1.500289,-0.001658,50.000000,2.100020,-0.002063,,,,
1670040247.194197,,,,,3550.004000,-0.019284,1.999724,0.004466,-0.163753,1.500289,-0.001658,50.000000,2.100020,-0.002063,,,,
1670040247.194464,,,,,,,,,,,,,,,2.000000,1.500000,3.000000,0.000000
1670040247.194506,,,,,,,,,,,,,,,2.000000,1.500000,3.000000,0.000000
1670040247.203899,,,,,3550.014000,0.058085,1.999735,-0.000103,-0.090234,1.500289,-0.001468,50.000000,2.100001,-0.002017,,,,
1670040247.204027,,,,,3550.014000,0.058085,1.999735,-0.000103,-0.090234,1.500289,-0.001468,50.000000,2.100001,-0.002017,,,,
1670040247.204322,,,,,,,,,,,,,,,2.000000,1.500000,3.000000,0.000000
1670040247.204386,,,,,,,,,,,,,,,2.000000,1.500000,3.000000,0.000000
1670040247.214357,,,,,3550.024000,-0.117409,1.999745,0.003774,0.043556,1.500258,-0.000444,50.000000,2.100016,-0.001564,,,,
1670040247.214474,,,,,3550.024000,-0.117409,1.999745,0.003774,0.043556,1.500258,-0.000444,50.000000,2.100016,-0.001564,,,,
1670040247.214599,,,,,,,,,,,,,,,2.000000,1.500000,3.000000,0.000000
1670040247.214644,,,,,,,,,,,,,,,2.000000,1.500000,3.000000,0.000000
1670040247.224010,,,,,3550.034000,0.018973,1.999748,-0.000933,0.036946,1.500264,-0.000033,50.000000,2.100000,-0.001757,,,,
1670040247.224123,,,,,3550.034000,0.018973,1.999748,-0.000933,0.036946,1.500264,-0.000033,50.000000,2.100000,-0.001757,,,,
1670040247.224279,,,,,,,,,,,,,,,2.000000,1.500000,3.000000,0.000000
1670040247.224316,,,,,,,,,,,,,,,2.000000,1.500000,3.000000,0.000000
1670040247.233367,,,,,3550.044000,-0.097895,1.999756,0.002369,0.002619,1.500244,0.001318,50.000000,2.100012,-0.001416,,,,
1670040247.233421,,,,,3550.044000,-0.097895,1.999756,0.002369,0.002619,1.500244,0.001318,50.000000,2.100012,-0.001416,,,,
1670040247.233584,,,,,,,,,,,,,,,2.000000,1.500000,3.000000,0.000000
1670040247.233606,,,,,,,,,,,,,,,2.000000,1.500000,3.000000,0.000000
1670040247.243294,,,,,3550.054000,0.043110,1.999751,-0.001199,-0.012012,1.500254,0.000013,50.000000,2.100000,-0.001672,,,,
1670040247.243339,,,,,3550.054000,0.043110,1.999751,-0.001199,-0.012012,1.500254,0.000013,50.000000,2.100000,-0.001672,,,,
1670040247.243572,,,,,,,,,,,,,,,2.000000,1.500000,3.000000,0.000000
1670040247.243588,,,,,,,,,,,,,,,2.000000,1.500000,3.000000,0.000000
1670040247.253958,,,,,3550.064000,-0.056393,1.999762,0.001786,-0.058360,1.500232,0.000836,50.000000,2.100010,-0.001541,,,,
1670040247.254019,,,,,3550.064000,-0.056393,1.999762,0.001786,-0.058360,1.500232,0.000836,50.000000,2.100010,-0.001541,,,,
1670040247.254443,,,,,,,,,,,,,,,2.000000,1.500000,3.000000,0.000000
1670040247.254477,,,,,,,,,,,,,,,2.000000,1.500000,3.000000,0.000000
1670040247.264283,,,,,3550.074000,0.050907,1.999735,-0.023007,-0.013163,1.500266,0.032473,50.000000,2.100080,0.059782,,,,
1670040247.264349,,,,,3550.074000,0.050907,1.999735,-0.023007,-0.013163,1.500266,0.032473,50.000000,2.100080,0.059782,,,,
1670040247.264626,-0.019284,-0.163753,81.089759,0.000000,,,,,,,,,,,,,,
1670040247.264668,,,,,,,,,,,,,,,2.000000,1.500000,3.000000,0.000000
1670040247.264685,,,,,,,,,,,,,,,2.000000,1.500000,3.000000,0.000000
1670040247.274621,,,,,3550.084000,-0.039299,1.999773,0.001339,-0.040896,1.500205,0.000176,50.000000,2.100007,-0.001697,,,,
1670040247.274721,,,,,3550.084000,-0.039299,1.999773,0.001339,-0.040896,1.500205,0.000176,50.000000,2.100007,-0.001697,,,,
1670040247.274914,0.058085,-0.090234,81.066645,0.000000,,,,,,,,,,,,,,
1670040247.274959,,,,,,,,,,,,,,,2.000000,1.500000,3.000000,0.000000
1670040247.274970,,,,,,,,,,,,,,,2.000000,1.500000,3.000000,0.000000
1670040247.283888,,,,,3550.094000,0.706108,1.999819,0.013895,-1.149869,1.500095,-0.029738,50.000000,2.100062,-0.013817,,,,
1670040247.283950,,,,,3550.094000,0.706108,1.999819,0.013895,-1.149869,1.500095,-0.029738,50.000000,2.100062,-0.013817,,,,
1670040247.284378,-0.117409,0.043556,81.070402,0.000000,,,,,,,,,,,,,,
1670040247.284437,,,,,,,,,,,,,,,2.000000,1.500000,3.000000,0.000000
1670040247.284456,,,,,,,,,,,,,,,2.000000,1.500000,3.000000,0.000000
1670040247.285689,0.018973,0.036946,81.070556,0.000000,,,,,,,,,,,,,,
1670040247.285831,-0.097895,0.002619,81.053345,0.000000,,,,,,,,,,,,,,
1670040247.285905,0.043110,-0.012012,81.061473,0.000000,,,,,,,,,,,,,,
1670040247.285953,-0.056393,-0.058360,81.048435,0.000000,,,,,,,,,,,,,,
1670040247.286000,0.050907,-0.013163,81.058539,0.000000,,,,,,,,,,,,,,
1670040247.286053,-0.039299,-0.040896,81.053071,0.000000,,,,,,,,,,,,,,
1670040247.286086,0.706108,-1.149869,78.900456,0.000000,,,,,,,,,,,,,,
1670040247.286192,-0.026564,-0.016381,81.058723,0.000000,,,,,,,,,,,,,,
1670040247.294350,,,,,3550.104000,-0.026564,1.999950,0.008683,-0.016381,1.499863,-0.017730,50.000000,2.100006,-0.003515,,,,
1670040247.294396,,,,,3550.104000,-0.026564,1.999950,0.008683,-0.016381,1.499863,-0.017730,50.000000,2.100006,-0.003515,,,,
1670040247.294799,0.018973,0.036946,81.070556,0.000000,,,,,,,,,,,,,,
1670040247.295156,,,,,,,,,,,,,,,2.000000,1.500000,3.000000,0.000000
1670040247.295171,,,,,,,,,,,,,,,2.000000,1.500000,3.000000,0.000000
1670040247.303938,,,,,3550.114000,-0.405990,1.999965,0.005293,1.036084,1.499772,-0.017482,50.000000,2.100039,-0.007675,,,,
1670040247.304036,,,,,3550.114000,-0.405990,1.999965,0.005293,1.036084,1.499772,-0.017482,50.000000,2.100039,-0.007675,,,,
1670040247.304228,,,,,,,,,,,,,,,2.000000,1.500000,3.000000,0.000000
1670040247.304268,,,,,,,,,,,,,,,2.000000,1.500000,3.000000,0.000000
1670040247.313816,,,,,3550.124000,-0.257501,1.999984,-0.001952,0.627407,1.499772,0.006067,50.000000,2.100003,-0.000860,,,,
1670040247.313919,,,,,3550.124000,-0.257501,1.999984,-0.001952,0.627407,1.499772,0.006067,50.000000,2.100003,-0.000860,,,,
1670040247.314049,,,,,,,,,,,,,,,2.000000,1.500000,3.000000,0.000000
1670040247.314085,,,,,,,,,,,,,,,2.000000,1.500000,3.000000,0.000000
1670040247.323587,,,,,3550.134000,-0.156697,1.999933,-0.000790,0.623280,1.499867,0.006423,50.000000,2.100032,-0.003221,,,,
1670040247.323686,,,,,3550.134000,-0.156697,1.999933,-0.000790,0.623280,1.499867,0.006423,50.000000,2.100032,-0.003221,,,,
1670040247.323859,,,,,,,,,,,,,,,2.000000,1.500000,3.000000,0.000000
1670040247.323932,,,,,,,,,,,,,,,2.000000,1.500000,3.000000,0.000000
1670040247.334045,,,,,3550.144000,0.059532,1.999897,-0.005588,-0.200936,1.499993,0.012275,50.000000,2.100002,-0.001456,,,,
1670040247.334184,,,,,3550.144000,0.059532,1.999897,-0.005588,-0.200936,1.499993,0.012275,50.000000,2.100002,-0.001456,,,,
1670040247.334412,,,,,,,,,,,,,,,2.000000,1.500000,3.000000,0.000000
1670040247.334466,,,,,,,,,,,,,,,2.000000,1.500000,3.000000,0.000000
1670040247.344010,,,,,3550.154000,0.027720,1.999846,0.000953,-0.218169,1.500078,0.004568,50.000000,2.100025,-0.002630,,,,
1670040247.344136,,,,,3550.154000,0.027720,1.999846,0.000953,-0.218169,1.500078,0.004568,50.000000,2.100025,-0.002630,,,,
1670040247.344284,,,,,,,,,,,,,,,2.000000,1.500000,3.000000,0.000000
1670040247.344327,,,,,,,,,,,,,,,2.000000,1.500000,3.000000,0.000000
1670040247.353933,,,,,3550.164000,0.173792,1.999836,-0.001607,-0.429272,1.500134,0.002387,50.000000,2.100001,-0.001908,,,,
1670040247.354089,,,,,3550.164000,0.173792,1.999836,-0.001607,-0.429272,1.500134,0.002387,50.000000,2.100001,-0.001908,,,,
1670040247.354496,,,,,,,,,,,,,,,2.000000,1.500000,3.000000,0.000000
1670040247.354674,,,,,,,,,,,,,,,2.000000,1.500000,3.000000,0.000000
1670040247.364104,,,,,3550.174000,-0.019383,1.999831,0.004251,-0.163780,1.500126,-0.001426,50.000000,2.100020,-0.002063,,,,
1670040247.364202,,,,,3550.174000,-0.019383,1.999831,0.004251,-0.163780,1.500126,-0.001426,50.000000,2.100020,-0.002063,,,,
1670040247.364418,,,,,,,,,,,,,,,2.000000,1.500000,3.000000,0.000000
1670040247.364458,,,,,,,,,,,,,,,2.000000,1.500000,3.000000,0.000000
1670040247.373919,,,,,3550.184000,0.058040,1.999840,-0.000316,-0.090218,1.500127,-0.001238,50.000000,2.100001,-0.002018,,,,
1670040247.373980,,,,,3550.184000,0.058040,1.999840,-0.000316,-0.090218,1.500127,-0.001238,50.000000,2.100001,-0.002018,,,,
1670040247.374127,-0.405990,1.036084,81.477979,0.000000,,,,,,,,,,,,,,
1670040247.374145,,,,,,,,,,,,,,,2.000000,1.500000,3.000000,0.000000
1670040247.374155,,,,,,,,,,,,,,,2.000000,1.500000,3.000000,0.000000
1670040247.384681,,,,,3550.194000,-0.117388,1.999847,0.003563,0.043613,1.500099,-0.000216,50.000000,2.100016,-0.001564,,,,
1670040247.384752,,,,,3550.194000,-0.117388,1.999847,0.003563,0.043613,1.500099,-0.000216,50.000000,2.100016,-0.001564,,,,
1670040247.384817,-0.257501,0.627407,81.122524,0.000000,,,,,,,,,,,,,,
1670040247.384840,,,,,,,,,,,,,,,2.000000,1.500000,3.000000,0.000000
1670040247.384858,,,,,,,,,,,,,,,2.000000,1.500000,3.000000,0.000000
1670040247.393908,,,,,3550.204000,0.019094,1.999849,-0.001143,0.036951,1.500107,0.000191,50.000000,2.100000,-0.001757,,,,
1670040247.394029,,,,,3550.204000,0.019094,1.999849,-0.001143,0.036951,1.500107,0.000191,50.000000,2.100000,-0.001757,,,,
1670040247.394179,-0.156697,0.623280,81.265083,0.000000,,,,,,,,,,,,,,
1670040247.394263,,,,,,,,,,,,,,,2.000000,1.500000,3.000000,0.000000
1670040247.394295,,,,,,,,,,,,,,,2.000000,1.500000,3.000000,0.000000
1670040247.395281,0.059532,-0.200936,81.029833,0.000000,,,,,,,,,,,,,,
1670040247.403675,,,,,3550.214000,-0.097719,1.999854,0.002162,0.002595,1.500090,0.001539,50.000000,2.100012,-0.001415,,,,
1670040247.403753,,,,,3550.214000,-0.097719,1.999854,0.002162,0.002595,1.500090,0.001539,50.000000,2.100012,-0.001415,,,,
1670040247.404091,,,,,,,,,,,,,,,2.000000,1.500000,3.000000,0.000000
1670040247.404129,,,,,,,,,,,,,,,2.000000,1.500000,3.000000,0.000000
1670040247.413374,,,,,3550.224000,0.043372,1.999848,-0.001404,-0.012026,1.500102,0.000228,50.000000,2.100000,-0.001672,,,,
1670040247.413431,,,,,3550.224000,0.043372,1.999848,-0.001404,-0.012026,1.500102,0.000228,50.000000,2.100000,-0.001672,,,,
1670040247.413596,,,,,,,,,,,,,,,2.000000,1.500000,3.000000,0.000000
1670040247.413612,,,,,,,,,,,,,,,2.000000,1.500000,3.000000,0.000000
1670040247.423659,,,,,3550.234000,-0.056115,1.999856,0.001586,-0.058361,1.500082,0.001049,50.000000,2.100010,-0.001540,,,,
1670040247.423710,,,,,3550.234000,-0.056115,1.999856,0.001586,-0.058361,1.500082,0.001049,50.000000,2.100010,-0.001540,,,,
1670040247.424085,,,,,,,,,,,,,,,2.000000,1.500000,3.000000,0.000000
1670040247.424110,,,,,,,,,,,,,,,2.000000,1.500000,3.000000,0.000000
1670040247.433892,,,,,3550.244000,0.051246,1.999828,-0.023206,-0.013086,1.500118,0.032681,50.000000,2.100080,0.059784,,,,
1670040247.433980,,,,,3550.244000,0.051246,1.999828,-0.023206,-0.013086,1.500118,0.032681,50.000000,2.100080,0.059784,,,,
1670040247.434274,,,,,,,,,,,,,,,2.000000,1.500000,3.000000,0.000000
1670040247.434317,,,,,,,,,,,,,,,2.000000,1.500000,3.000000,0.000000
1670040247.443450,,,,,3550.254000,-0.038957,1.999864,0.001144,-0.040809,1.500059,0.000381,50.000000,2.100007,-0.001696,,,,
1670040247.443499,,,,,3550.254000,-0.038957,1.999864,0.001144,-0.040809,1.500059,0.000381,50.000000,2.100007,-0.001696,,,,
1670040247.443721,,,,,,,,,,,,,,,2.000000,1.500000,3.000000,0.000000
1670040247.443740,,,,,,,,,,,,,,,2.000000,1.500000,3.000000,0.000000
1670040247.453545,,,,,3550.264000,0.706507,1.999907,0.013704,-1.149750,1.499951,-0.029542,50.000000,2.100062,-0.013818,,,,
1670040247.453588,,,,,3550.264000,0.706507,1.999907,0.013704,-1.149750,1.499951,-0.029542,50.000000,2.100062,-0.013818,,,,
1670040247.453597,,,,,,,,,,,,,,,2.000000,1.500000,3.000000,0.000000
1670040247.453623,,,,,,,,,,,,,,,2.000000,1.500000,3.000000,0.000000
1670040247.463405,,,,,3550.274000,-0.026154,2.000037,0.008495,-0.016254,1.499721,-0.017534,50.000000,2.100006,-0.003515,,,,
1670040247.463451,,,,,3550.274000,-0.026154,2.000037,0.008495,-0.016254,1.499721,-0.017534,50.000000,2.100006,-0.003515,,,,
1670040247.463606,0.019094,0.036951,81.070564,0.000000,,,,,,,,,,,,,,
1670040247.463628,,,,,,,,,,,,,,,2.000000,1.500000,3.000000,0.000000
1670040247.463638,,,,,,,,,,,,,,,2.000000,1.500000,3.000000,0.000000
1670040247.464092,-0.097719,0.002595,81.053323,0.000000,,,,,,,,,,,,,,
1670040247.464112,0.043372,-0.012026,81.061479,0.000000,,,,,,,,,,,,,,
1670040247.472793,,,,,3550.284000,-0.405574,2.000050,0.005105,1.036434,1.499632,-0.017286,50.000000,2.100039,-0.007676,,,,
1670040247.472850,,,,,3550.284000,-0.405574,2.000050,0.005105,1.036434,1.499632,-0.017286,50.000000,2.100039,-0.007676,,,,
1670040247.473192,,,,,,,,,,,,,,,2.000000,1.500000,3.000000,0.000000
1670040247.473218,,,,,,,,,,,,,,,2.000000,1.500000,3.000000,0.000000
1670040247.482333,,,,,3550.294000,-0.257053,2.000067,-0.002137,0.627648,1.499633,0.006264,50.000000,2.100003,-0.000859,,,,
1670040247.482375,,,,,3550.294000,-0.257053,2.000067,-0.002137,0.627648,1.499633,0.006264,50.000000,2.100003,-0.000859,,,,
1670040247.482480,0.043372,-0.012026,81.061479,0.000000,,,,,,,,,,,,,,
1670040247.482488,,,,,,,,,,,,,,,2.000000,1.500000,3.000000,0.000000
1670040247.482501,,,,,,,,,,,,,,,2.000000,1.500000,3.000000,0.000000
1670040247.483574,-0.056115,-0.058361,81.048411,0.000000,,,,,,,,,,,,,,
1670040247.492424,,,,,3550.304000,-0.156129,2.000014,-0.000973,0.623420,1.499731,0.006615,50.000000,2.100032,-0.003221,,,,
1670040247.492476,,,,,3550.304000,-0.156129,2.000014,-0.000973,0.623420,1.499731,0.006615,50.000000,2.100032,-0.003221,,,,
1670040247.492653,,,,,,,,,,,,,,,2.000000,1.500000,3.000000,0.000000
1670040247.492672,,,,,,,,,,,,,,,2.000000,1.500000,3.000000,0.000000
1670040247.502082,,,,,3550.314000,0.060109,1.999977,-0.005766,-0.200917,1.499859,0.012462,50.000000,2.100002,-0.001456,,,,
1670040247.502128,,,,,3550.314000,0.060109,1.999977,-0.005766,-0.200917,1.499859,0.012462,50.000000,2.100002,-0.001456,,,,
1670040247.502259,,,,,,,,,,,,,,,2.000000,1.500000,3.000000,0.000000
1670040247.502280,,,,,,,,,,,,,,,2.000000,1.500000,3.000000,0.000000
1670040247.511628,,,,,3550.324000,0.028327,1.999924,0.000780,-0.218086,1.499945,0.004749,50.000000,2.100025,-0.002630,,,,
1670040247.511686,,,,,3550.324000,0.028327,1.999924,0.000780,-0.218086,1.499945,0.004749,50.000000,2.100025,-0.002630,,,,
1670040247.511890,-0.038957,-0.040809,81.053052,0.000000,,,,,,,,,,,,,,
1670040247.511906,,,,,,,,,,,,,,,2.000000,1.500000,3.000000,0.000000
1670040247.511936,,,,,,,,,,,,,,,2.000000,1.500000,3.000000,0.000000
1670040247.512921,0.706507,-1.149750,78.900408,0.000000,,,,,,,,,,,,,,
1670040247.521285,,,,,3550.334000,0.174370,1.999912,-0.001777,-0.429131,1.500003,0.002565,50.000000,2.100001,-0.001908,,,,
1670040247.521383,,,,,3550.334000,0.174370,1.999912,-0.001777,-0.429131,1.500003,0.002565,50.000000,2.100001,-0.001908,,,,
1670040247.521727,,,,,,,,,,,,,,,2.000000,1.500000,3.000000,0.000000
1670040247.521773,,,,,,,,,,,,,,,2.000000,1.500000,3.000000,0.000000
1670040247.530926,,,,,3550.344000,-0.018826,1.999905,0.004085,-0.163496,1.499997,-0.001250,50.000000,2.100020,-0.002063,,,,
1670040247.531021,,,,,3550.344000,-0.018826,1.999905,0.004085,-0.163496,1.499997,-0.001250,50.000000,2.100020,-0.002063,,,,
1670040247.531355,,,,,,,,,,,,,,,2.000000,1.500000,3.000000,0.000000
1670040247.531412,,,,,,,,,,,,,,,2.000000,1.500000,3.000000,0.000000
1670040247.541160,,,,,3550.354000,0.058587,1.999912,-0.000481,-0.089919,1.500000,-0.001063,50.000000,2.100001,-0.002018,,,,
1670040247.541253,,,,,3550.354000,0.058587,1.999912,-0.000481,-0.089919,1.500000,-0.001063,50.000000,2.100001,-0.002018,,,,
1670040247.541355,,,,,,,,,,,,,,,2.000000,1.500000,3.000000,0.000000
1670040247.541385,,,,,,,,,,,,,,,2.000000,1.500000,3.000000,0.000000
1670040247.550591,,,,,3550.364000,-0.116834,1.999918,0.003401,0.043919,1.499974,-0.000042,50.000000,2.100016,-0.001563,,,,
1670040247.550646,,,,,3550.364000,-0.116834,1.999918,0.003401,0.043919,1.499974,-0.000042,50.000000,2.100016,-0.001563,,,,
1670040247.550713,,,,,,,,,,,,,,,2.000000,1.500000,3.000000,0.000000
1670040247.550731,,,,,,,,,,,,,,,2.000000,1.500000,3.000000,0.000000
1670040247.560290,-0.156129,0.623420,81.265124,0.000000,,,,,,,,,,,,,,
1670040247.560310,,,,,3550.374000,0.019679,1.999918,-0.001302,0.037198,1.499983,0.000362,50.000000,2.100000,-0.001757,,,,
1670040247.560333,,,,,3550.374000,0.019679,1.999918,-0.001302,0.037198,1.499983,0.000362,50.000000,2.100000,-0.001757,,,,
1670040247.560339,,,,,,,,,,,,,,,2.000000,1.500000,3.000000,0.000000
1670040247.560344,,,,,,,,,,,,,,,2.000000,1.500000,3.000000,0.000000
1670040247.561281,0.060109,-0.200917,81.029819,0.000000,,,,,,,,,,,,,,
1670040247.570328,,,,,3550.384000,-0.097129,1.999922,0.002007,0.002797,1.499968,0.001708,50.000000,2.100012,-0.001414,,,,
1670040247.570367,,,,,3550.384000,-0.097129,1.999922,0.002007,0.002797,1.499968,0.001708,50.000000,2.100012,-0.001414,,,,
1670040247.570647,,,,,,,,,,,,,,,2.000000,1.500000,3.000000,0.000000
1670040247.570667,,,,,,,,,,,,,,,2.000000,1.500000,3.000000,0.000000
1670040247.580086,,,,,3550.394000,0.043988,1.999914,-0.001556,-0.011835,1.499982,0.000394,50.000000,2.100000,-0.001672,,,,
1670040247.580153,,,,,3550.394000,0.043988,1.999914,-0.001556,-0.011835,1.499982,0.000394,50.000000,2.100000,-0.001672,,,,
1670040247.580464,,,,,,,,,,,,,,,2.000000,1.500000,3.000000,0.000000
1670040247.580506,,,,,,,,,,,,,,,2.000000,1.500000,3.000000,0.000000
1670040247.590908,,,,,3550.404000,-0.055519,1.999921,0.001437,-0.058177,1.499963,0.001212,50.000000,2.100010,-0.001540,,,,
1670040247.591004,,,,,3550.404000,-0.055519,1.999921,0.001437,-0.058177,1.499963,0.001212,50.000000,2.100010,-0.001540,,,,
1670040247.591336,,,,,,,,,,,,,,,2.000000,1.500000,3.000000,0.000000
1670040247.591369,,,,,,,,,,,,,,,2.000000,1.500000,3.000000,0.000000
1670040247.601141,,,,,3550.414000,0.051853,1.999891,-0.023352,-0.012858,1.500001,0.032842,50.000000,2.100080,0.059785,,,,
1670040247.601263,,,,,3550.414000,0.051853,1.999891,-0.023352,-0.012858,1.500001,0.032842,50.000000,2.100080,0.059785,,,,
1670040247.601707,,,,,,,,,,,,,,,2.000000,1.500000,3.000000,0.000000
1670040247.601793,,,,,,,,,,,,,,,2.000000,1.500000,3.000000,0.000000
1670040247.611275,,,,,3550.424000,-0.038378,1.999926,0.001002,-0.040588,1.499943,0.000539,50.000000,2.100007,-0.001696,,,,
1670040247.611333,,,,,3550.424000,-0.038378,1.999926,0.001002,-0.040588,1.499943,0.000539,50.000000,2.100007,-0.001696,,,,
1670040247.611530,0.058587,-0.089919,81.066663,0.000000,,,,,,,,,,,,,,
1670040247.611545,,,,,,,,,,,,,,,2.000000,1.500000,3.000000,0.000000
1670040247.611567,,,,,,,,,,,,,,,2.000000,1.500000,3.000000,0.000000
1670040247.612438,-0.116834,0.043919,81.070395,0.000000,,,,,,,,,,,,,,
1670040247.621423,,,,,3550.434000,0.707102,1.999968,0.013565,-1.149520,1.499837,-0.029390,50.000000,2.100062,-0.013818,,,,
1670040247.621477,,,,,3550.434000,0.707102,1.999968,0.013565,-1.149520,1.499837,-0.029390,50.000000,2.100062,-0.013818,,,,
1670040247.621547,,,,,,,,,,,,,,,2.000000,1.500000,3.000000,0.000000
1670040247.621557,,,,,,,,,,,,,,,2.000000,1.500000,3.000000,0.000000
1670040247.632162,,,,,3550.444000,-0.025579,2.000096,0.008358,-0.016027,1.499608,-0.017382,50.000000,2.100006,-0.003515,,,,
1670040247.632196,,,,,3550.444000,-0.025579,2.000096,0.008358,-0.016027,1.499608,-0.017382,50.000000,2.100006,-0.003515,,,,
1670040247.632381,,,,,,,,,,,,,,,2.000000,1.500000,3.000000,0.000000
1670040247.632396,,,,,,,,,,,,,,,2.000000,1.500000,3.000000,0.000000
1670040247.642482,,,,,3550.454000,-0.405024,2.000107,0.004969,1.036827,1.499521,-0.017133,50.000000,2.100039,-0.007677,,,,
1670040247.642577,,,,,3550.454000,-0.405024,2.000107,0.004969,1.036827,1.499521,-0.017133,50.000000,2.100039,-0.007677,,,,
1670040247.642773,,,,,,,,,,,,,,,2.000000,1.500000,3.000000,0.000000
1670040247.642810,,,,,,,,,,,,,,,2.000000,1.500000,3.000000,0.000000
1670040247.652629,,,,,3550.464000,-0.256499,2.000123,-0.002270,0.627941,1.499524,0.006418,50.000000,2.100003,-0.000859,,,,
1670040247.652754,,,,,3550.464000,-0.256499,2.000123,-0.002270,0.627941,1.499524,0.006418,50.000000,2.100003,-0.000859,,,,
1670040247.653211,,,,,,,,,,,,,,,2.000000,1.500000,3.000000,0.000000
1670040247.653359,,,,,,,,,,,,,,,2.000000,1.500000,3.000000,0.000000
1670040247.663058,,,,,3550.474000,-0.155505,2.000069,-0.001103,0.623610,1.499623,0.006766,50.000000,2.100032,-0.003221,,,,
1670040247.663128,,,,,3550.474000,-0.155505,2.000069,-0.001103,0.623610,1.499623,0.006766,50.000000,2.100032,-0.003221,,,,
1670040247.663499,-0.055519,-0.058177,81.048394,0.000000,,,,,,,,,,,,,,
1670040247.663535,,,,,,,,,,,,,,,2.000000,1.500000,3.000000,0.000000
1670040247.663546,,,,,,,,,,,,,,,2.000000,1.500000,3.000000,0.000000
1670040247.664133,0.051853,-0.012858,81.058554,0.000000,,,,,,,,,,,,,,
1670040247.673609,,,,,3550.484000,0.060723,2.000030,-0.005892,-0.200825,1.499752,0.012610,50.000000,2.100002,-0.001456,,,,
1670040247.673652,,,,,3550.484000,0.060723,2.000030,-0.005892,-0.200825,1.499752,0.012610,50.000000,2.100002,-0.001456,,,,
1670040247.673673,,,,,,,,,,,,,,,2.000000,1.500000,3.000000,0.000000
1670040247.673684,,,,,,,,,,,,,,,2.000000,1.500000,3.000000,0.000000
1670040247.683699,,,,,3550.494000,0.028943,1.999976,0.000657,-0.217958,1.499840,0.004892,50.000000,2.100025,-0.002630,,,,
1670040247.683744,,,,,3550.494000,0.028943,1.999976,0.000657,-0.217958,1.499840,0.004892,50.000000,2.100025,-0.002630,,,,
1670040247.683931,,,,,,,,,,,,,,,2.000000,1.500000,3.000000,0.000000
1670040247.683949,,,,,,,,,,,,,,,2.000000,1.500000,3.000000,0.000000
1670040247.693799,,,,,3550.504000,0.174945,1.999963,-0.001896,-0.428958,1.499899,0.002705,50.000000,2.100001,-0.001908,,,,
1670040247.693878,,,,,3550.504000,0.174945,1.999963,-0.001896,-0.428958,1.499899,0.002705,50.000000,2.100001,-0.001908,,,,
1670040247.694311,,,,,,,,,,,,,,,2.000000,1.500000,3.000000,0.000000
1670040247.694349,,,,,,,,,,,,,,,2.000000,1.500000,3.000000,0.000000
1670040247.703387,,,,,3550.514000,0.000000,2.000092,0.008623,0.000000,1.499819,0.004187,0.000000,2.099237,-0.104008,,,,
1670040247.703482,,,,,3550.514000,0.000000,2.000092,0.008623,0.000000,1.499819,0.004187,0.000000,2.099237,-0.104008,,,,
1670040247.704133,,,,,,,,,,,,,,,2.000000,1.500000,3.000000,0.000000
1670040247.704193,,,,,,,,,,,,,,,2.000000,1.500000,3.000000,0.000000
1670040247.713755,,,,,3550.524000,0.059105,1.999751,0.044182,-0.089634,1.499934,-0.067774,50.000000,2.100060,0.023588,,,,
1670040247.713853,,,,,3550.524000,0.059105,1.999751,0.044182,-0.089634,1.499934,-0.067774,50.000000,2.100060,0.023588,,,,
1670040247.714195,-0.405024,1.036827,81.478009,0.000000,,,,,,,,,,,,,,
1670040247.714228,,,,,,,,,,,,,,,2.000000,1.500000,3.000000,0.000000
1670040247.714245,,,,,,,,,,,,,,,2.000000,1.500000,3.000000,0.000000
1670040247.714717,-0.256499,0.627941,81.122525,0.000000,,,,,,,,,,,,,,
1670040247.723342,,,,,3550.534000,-0.264200,2.000058,0.007731,-0.137483,1.499860,0.007831,50.000000,2.100008,0.004195,,,,
1670040247.723434,,,,,3550.534000,-0.264200,2.000058,0.007731,-0.137483,1.499860,0.007831,50.000000,2.100008,0.004195,,,,
1670040247.723815,,,,,,,,,,,,,,,2.000000,1.500000,3.000000,0.000000
1670040247.723844,,,,,,,,,,,,,,,2.000000,1.500000,3.000000,0.000000
1670040247.733228,,,,,3550.544000,-1.310506,1.999814,-0.033138,2.375398,1.500217,0.031162,50.000000,2.100050,-0.023710,,,,
1670040247.733267,,,,,3550.544000,-1.310506,1.999814,-0.033138,2.375398,1.500217,0.031162,50.000000,2.100050,-0.023710,,,,
1670040247.733385,,,,,,,,,,,,,,,2.000000,1.500000,3.000000,0.000000
1670040247.733400,,,,,,,,,,,,,,,2.000000,1.500000,3.000000,0.000000
1670040247.742201,,,,,3550.554000,-0.235419,1.999582,-0.017229,-0.267098,1.500544,0.032836,50.000000,2.100004,0.001157,,,,
1670040247.742245,,,,,3550.554000,-0.235419,1.999582,-0.017229,-0.267098,1.500544,0.032836,50.000000,2.100004,0.001157,,,,
1670040247.742354,0.060723,-0.200825,81.029809,0.000000,,,,,,,,,,,,,,
1670040247.742363,0.060723,-0.200825,81.029809,0.000000,,,,,,,,,,,,,,
1670040247.742367,,,,,,,,,,,,,,,2.000000,1.500000,3.000000,0.000000
1670040247.742379,,,,,,,,,,,,,,,2.000000,1.500000,3.000000,0.000000
1670040247.743930,0.028943,-0.217958,81.109879,0.000000,,,,,,,,,,,,,,
1670040247.743954,0.028943,-0.217958,81.109879,0.000000,,,,,,,,,,,,,,
1670040247.743988,0.174945,-0.428958,81.050754,0.000000,,,,,,,,,,,,,,
1670040247.751808,,,,,3550.564000,1.005308,1.999486,-0.000227,-1.101532,1.500782,0.006585,50.000000,2.100064,-0.009754,,,,
1670040247.751859,,,,,3550.564000,1.005308,1.999486,-0.000227,-1.101532,1.500782,0.006585,50.000000,2.100064,-0.009754,,,,
1670040247.752157,,,,,,,,,,,,,,,2.000000,1.500000,3.000000,0.000000
1670040247.752182,,,,,,,,,,,,,,,2.000000,1.500000,3.000000,0.000000
1670040247.761476,,,,,3550.574000,0.541939,1.999503,-0.000561,-1.176422,1.500800,-0.000048,50.000000,2.100006,-0.003457,,,,
1670040247.761556,,,,,3550.574000,0.541939,1.999503,-0.000561,-1.176422,1.500800,-0.000048,50.000000,2.100006,-0.003457,,,,
1670040247.761791,,,,,,,,,,,,,,,2.000000,1.500000,3.000000,0.000000
1670040247.761837,,,,,,,,,,,,,,,2.000000,1.500000,3.000000,0.000000
1670040247.770744,,,,,3550.584000,0.037667,1.999460,0.003118,-0.269584,1.500789,-0.022265,50.000000,2.100049,-0.012037,,,,
1670040247.770798,,,,,3550.584000,0.037667,1.999460,0.003118,-0.269584,1.500789,-0.022265,50.000000,2.100049,-0.012037,,,,
1670040247.771115,-0.018284,-0.163222,81.089777,0.000000,,,,,,,,,,,,,,
1670040247.771148,,,,,,,,,,,,,,,2.000000,1.500000,3.000000,0.000000
1670040247.771161,,,,,,,,,,,,,,,2.000000,1.500000,3.000000,0.000000
1670040247.772412,0.059105,-0.089634,81.066668,0.000000,,,,,,,,,,,,,,
1670040247.781081,,,,,3550.594000,0.046627,1.999505,0.003185,-0.038338,1.500696,-0.006871,50.000000,2.100004,-0.001422,,,,
1670040247.781165,,,,,3550.594000,0.046627,1.999505,0.003185,-0.038338,1.500696,-0.006871,50.000000,2.100004,-0.001422,,,,
1670040247.781585,,,,,,,,,,,,,,,2.000000,1.500000,3.000000,0.000000
1670040247.781627,,,,,,,,,,,,,,,2.000000,1.500000,3.000000,0.000000
1670040247.790205,,,,,3550.604000,-0.061152,1.999493,0.003544,0.739808,1.500686,-0.010999,50.000000,2.100040,-0.005958,,,,
1670040247.790243,,,,,3550.604000,-0.061152,1.999493,0.003544,0.739808,1.500686,-0.010999,50.000000,2.100040,-0.005958,,,,
1670040247.790447,-0.264200,-0.137483,84.708948,0.000000,,,,,,,,,,,,,,
1670040247.790462,,,,,,,,,,,,,,,2.000000,1.500000,3.000000,0.000000
1670040247.790467,,,,,,,,,,,,,,,2.000000,1.500000,3.000000,0.000000
1670040247.792139,-1.310506,2.375398,80.169009,0.000000,,,,,,,,,,,,,,
1670040247.798788,0.000000,0.000000,0.000000,0.000000,,,,,,,,,,,,,,
1670040247.800351,,,,,3550.614000,-0.065826,1.999495,-0.003195,0.205697,1.500719,0.006602,50.000000,2.100003,-0.001591,,,,
1670040247.800387,,,,,3550.614000,-0.065826,1.999495,-0.003195,0.205697,1.500719,0.006602,50.000000,2.100003,-0.001591,,,,
1670040247.800554,,,,,,,,,,,,,,,2.000000,1.500000,3.000000,0.000000
1670040247.800570,,,,,,,,,,,,,,,2.000000,1.500000,3.000000,0.000000
1670040247.809998,,,,,3550.624000,-0.075887,1.999440,-0.000095,0.350662,1.500797,0.002494,50.000000,2.100032,-0.003876,,,,
1670040247.810040,,,,,3550.624000,-0.075887,1.999440,-0.000095,0.350662,1.500797,0.002494,50.000000,2.100032,-0.003876,,,,
1670040247.810200,,,,,,,,,,,,,,,2.000000,1.500000,3.000000,0.000000
1670040247.810221,,,,,,,,,,,,,,,2.000000,1.500000,3.000000,0.000000
1670040247.819599,,,,,3550.634000,0.126174,1.999420,-0.003365,-0.267023,1.500878,0.006942,50.000000,2.100002,-0.001406,,,,
1670040247.819662,,,,,3550.634000,0.126174,1.999420,-0.003365,-0.267023,1.500878,0.006942,50.000000,2.100002,-0.001406,,,,
1670040247.819881,,,,,,,,,,,,,,,2.000000,1.500000,3.000000,0.000000
1670040247.819901,,,,,,,,,,,,,,,2.000000,1.500000,3.000000,0.000000
1670040247.830637,,,,,3550.644000,0.036476,1.999388,0.002644,-0.127178,1.500918,0.000618,50.000000,2.100025,-0.002638,,,,
1670040247.830824,,,,,3550.644000,0.036476,1.999388,0.002644,-0.127178,1.500918,0.000618,50.000000,2.100025,-0.002638,,,,
1670040247.831539,,,,,,,,,,,,,,,2.000000,1.500000,3.000000,0.000000
1670040247.831614,,,,,,,,,,,,,,,2.000000,1.500000,3.000000,0.000000
1670040247.840581,,,,,3550.654000,0.135774,1.999388,-0.001027,-0.286869,1.500947,0.000566,50.000000,2.100001,-0.001996,,,,
1670040247.840662,,,,,3550.654000,0.135774,1.999388,-0.001027,-0.286869,1.500947,0.000566,50.000000,2.100001,-0.001996,,,,
1670040247.840918,0.037667,-0.269584,81.335637,0.000000,,,,,,,,,,,,,,
1670040247.840943,,,,,,,,,,,,,,,2.000000,1.500000,3.000000,0.000000
1670040247.840985,,,,,,,,,,,,,,,2.000000,1.500000,3.000000,0.000000
1670040247.841727,0.046627,-0.038338,81.120432,0.000000,,,,,,,,,,,,,,
1670040247.850442,,,,,3550.664000,-0.042603,1.999386,0.004346,-0.067537,1.500927,-0.001920,50.000000,2.100020,-0.001988,,,,
1670040247.850510,,,,,3550.664000,-0.042603,1.999386,0.004346,-0.067537,1.500927,-0.001920,50.000000,2.100020,-0.001988,,,,
1670040247.850888,,,,,,,,,,,,,,,2.000000,1.500000,3.000000,0.000000
1670040247.850922,,,,,,,,,,,,,,,2.000000,1.500000,3.000000,0.000000
1670040247.861050,,,,,3550.674000,0.067528,1.999397,-0.000239,-0.067128,1.500924,-0.001476,50.000000,2.100001,-0.001898,,,,
1670040247.861086,,,,,3550.674000,0.067528,1.999397,-0.000239,-0.067128,1.500924,-0.001476,50.000000,2.100001,-0.001898,,,,
1670040247.861093,,,,,,,,,,,,,,,2.000000,1.500000,3.000000,0.000000
1670040247.861116,,,,,,,,,,,,,,,2.000000,1.500000,3.000000,0.000000
1670040247.870972,,,,,3550.684000,-0.093572,1.999406,0.003778,0.020845,1.500891,-0.000836,50.000000,2.100016,-0.001544,,,,
1670040247.871028,,,,,3550.684000,-0.093572,1.999406,0.003778,0.020845,1.500891,-0.000836,50.000000,2.100016,-0.001544,,,,
1670040247.871153,,,,,,,,,,,,,,,2.000000,1.500000,3.000000,0.000000
1670040247.871166,,,,,,,,,,,,,,,2.000000,1.500000,3.000000,0.000000
1670040247.881665,,,,,3550.694000,0.043374,1.999410,-0.000690,0.005436,1.500890,-0.000961,50.000000,2.100000,-0.001785,,,,
1670040247.881750,,,,,3550.694000,0.043374,1.999410,-0.000690,0.005436,1.500890,-0.000961,50.000000,2.100000,-0.001785,,,,
1670040247.882159,,,,,,,,,,,,,,,2.000000,1.500000,3.000000,0.000000
1670040247.882208,,,,,,,,,,,,,,,2.000000,1.500000,3.000000,0.000000
1670040247.891940,,,,,3550.704000,-0.077674,1.999421,0.002816,-0.015314,1.500860,0.000047,50.000000,2.100012,-0.001440,,,,
1670040247.892043,,,,,3550.704000,-0.077674,1.999421,0.002816,-0.015314,1.500860,0.000047,50.000000,2.100012,-0.001440,,,,
1670040247.892621,0.126174,-0.267023,81.055427,0.000000,,,,,,,,,,,,,,
1670040247.892692,0.126174,-0.267023,81.055427,0.000000,,,,,,,,,,,,,,
1670040247.892729,,,,,,,,,,,,,,,2.000000,1.500000,3.000000,0.000000
1670040247.892766,,,,,,,,,,,,,,,2.000000,1.500000,3.000000,0.000000
1670040247.902154,,,,,3550.714000,0.056062,1.999422,-0.000685,-0.010880,1.500857,-0.001295,50.000000,2.100000,-0.001685,,,,
1670040247.902253,,,,,3550.714000,0.056062,1.999422,-0.000685,-0.010880,1.500857,-0.001295,50.000000,2.100000,-0.001685,,,,
1670040247.902328,,,,,,,,,,,,,,,2.000000,1.500000,3.000000,0.000000
1670040247.902358,,,,,,,,,,,,,,,2.000000,1.500000,3.000000,0.000000
1670040247.912031,,,,,3550.724000,-0.049773,1.999437,0.002255,-0.044627,1.500823,-0.000315,50.000000,2.100010,-0.001552,,,,
1670040247.912168,,,,,3550.724000,-0.049773,1.999437,0.002255,-0.044627,1.500823,-0.000315,50.000000,2.100010,-0.001552,,,,
1670040247.912388,,,,,,,,,,,,,,,2.000000,1.500000,3.000000,0.000000
1670040247.912441,,,,,,,,,,,,,,,2.000000,1.500000,3.000000,0.000000
1670040247.922464,,,,,3550.734000,0.055229,1.999415,-0.022592,0.002463,1.500847,0.031513,50.000000,2.100080,0.059777,,,,
1670040247.922547,,,,,3550.734000,0.055229,1.999415,-0.022592,0.002463,1.500847,0.031513,50.000000,2.100080,0.059777,,,,
1670040247.922655,-0.042603,-0.067537,81.090035,0.000000,,,,,,,,,,,,,,
1670040247.922765,,,,,,,,,,,,,,,2.000000,1.500000,3.000000,0.000000
1670040247.922932,0.067528,-0.067128,81.069741,0.000000,,,,,,,,,,,,,,
1670040247.922952,,,,,,,,,,,,,,,2.000000,1.500000,3.000000,0.000000
1670040247.931747,,,,,3550.744000,-0.033898,1.999457,0.001721,-0.030126,1.500776,-0.000662,50.000000,2.100007,-0.001690,,,,
1670040247.931790,,,,,3550.744000,-0.033898,1.999457,0.001721,-0.030126,1.500776,-0.000662,50.000000,2.100007,-0.001690,,,,
1670040247.932106,,,,,,,,,,,,,,,2.000000,1.500000,3.000000,0.000000
1670040247.932116,,,,,,,,,,,,,,,2.000000,1.500000,3.000000,0.000000
1670040247.941798,,,,,3550.754000,0.712857,1.999507,0.014277,-1.145274,1.500658,-0.030517,50.000000,2.100062,-0.013810,,,,
1670040247.941868,,,,,3550.754000,0.712857,1.999507,0.014277,-1.145274,1.500658,-0.030517,50.000000,2.100062,-0.013810,,,,
1670040247.942206,,,,,,,,,,,,,,,2.000000,1.500000,3.000000,0.000000
1670040247.942241,,,,,,,,,,,,,,,2.000000,1.500000,3.000000,0.000000
1670040247.952435,,,,,3550.764000,-0.019077,1.999642,0.009091,-0.015614,1.500418,-0.018542,50.000000,2.100006,-0.003514,,,,
1670040247.952555,,,,,3550.764000,-0.019077,1.999642,0.009091,-0.015614,1.500418,-0.018542,50.000000,2.100006,-0.003514,,,,
1670040247.953025,0.043374,0.005436,81.066387,0.000000,,,,,,,,,,,,,,
1670040247.953117,,,,,,,,,,,,,,,2.000000,1.500000,3.000000,0.000000
1670040247.953148,,,,,,,,,,,,,,,2.000000,1.500000,3.000000,0.000000
1670040247.962089,,,,,3550.774000,-0.398715,1.999661,0.005743,1.035210,1.500318,-0.018337,50.000000,2.100039,-0.007671,,,,
1670040247.962152,,,,,3550.774000,-0.398715,1.999661,0.005743,1.035210,1.500318,-0.018337,50.000000,2.100039,-0.007671,,,,
1670040247.962353,-0.077674,-0.015314,81.052631,0.000000,,,,,,,,,,,,,,
1670040247.962373,,,,,,,,,,,,,,,2.000000,1.500000,3.000000,0.000000
1670040247.962406,,,,,,,,,,,,,,,2.000000,1.500000,3.000000,0.000000
1670040247.963803,0.056062,-0.010880,81.062467,0.000000,,,,,,,,,,,,,,
1670040247.972725,,,,,3550.784000,-0.251233,1.999684,-0.001483,0.628083,1.500310,0.005189,50.000000,2.100003,-0.000863,,,,
1670040247.972793,,,,,3550.784000,-0.251233,1.999684,-0.001483,0.628083,1.500310,0.005189,50.000000,2.100003,-0.000863,,,,
1670040247.973046,,,,,,,,,,,,,,,2.000000,1.500000,3.000000,0.000000
1670040247.973085,,,,,,,,,,,,,,,2.000000,1.500000,3.000000,0.000000
1670040247.983155,,,,,3550.794000,-0.151954,1.999639,-0.000312,0.625867,1.500397,0.005566,50.000000,2.100032,-0.003222,,,,
1670040247.983214,,,,,3550.794000,-0.151954,1.999639,-0.000312,0.625867,1.500397,0.005566,50.000000,2.100032,-0.003222,,,,
1670040247.983561,-0.049773,-0.044627,81.049286,0.000000,,,,,,,,,,,,,,
1670040247.983592,,,,,,,,,,,,,,,2.000000,1.500000,3.000000,0.000000
1670040247.983602,,,,,,,,,,,,,,,2.000000,1.500000,3.000000,0.000000
1670040247.992772,,,,,3550.804000,0.063410,1.999608,-0.005115,-0.197104,1.500514,0.011454,50.000000,2.100002,-0.001456,,,,
1670040247.992851,,,,,3550.804000,0.063410,1.999608,-0.005115,-0.197104,1.500514,0.011454,50.000000,2.100002,-0.001456,,,,
1670040247.993169,,,,,,,,,,,,,,,2.000000,1.500000,3.000000,0.000000
1670040247.993224,,,,,,,,,,,,,,,2.000000,1.500000,3.000000,0.000000
1670040248.002510,,,,,3550.814000,0.031036,1.999561,0.001420,-0.214655,1.500591,0.003793,50.000000,2.100025,-0.002629,,,,
1670040248.002572,,,,,3550.814000,0.031036,1.999561,0.001420,-0.214655,1.500591,0.003793,50.000000,2.100025,-0.002629,,,,
1670040248.002693,,,,,,,,,,,,,,,2.000000,1.500000,3.000000,0.000000
1670040248.002715,,,,,,,,,,,,,,,2.000000,1.500000,3.000000,0.000000
1670040248.012120,,,,,3550.824000,0.176999,1.999555,-0.001143,-0.426600,1.500639,0.001637,50.000000,2.100001,-0.001906,,,,
1670040248.012244,,,,,3550.824000,0.176999,1.999555,-0.001143,-0.426600,1.500639,0.001637,50.000000,2.100001,-0.001906,,,,
1670040248.012589,0.712857,-1.145274,78.900634,0.000000,,,,,,,,,,,,,,
1670040248.012650,,,,,,,,,,,,,,,2.000000,1.500000,3.000000,0.000000
1670040248.012690,,,,,,,,,,,,,,,2.000000,1.500000,3.000000,0.000000
1670040248.013689,-0.019077,-0.015614,81.058474,0.000000,,,,,,,,,,,,,,
1670040248.022224,,,,,3550.834000,-0.016266,1.999555,0.004716,-0.162311,1.500624,-0.002159,50.000000,2.100020,-0.002062,,,,
1670040248.022375,,,,,3550.834000,-0.016266,1.999555,0.004716,-0.162311,1.500624,-0.002159,50.000000,2.100020,-0.002062,,,,
1670040248.022971,,,,,,,,,,,,,,,2.000000,1.500000,3.000000,0.000000
1670040248.023062,,,,,,,,,,,,,,,2.000000,1.500000,3.000000,0.000000
1670040248.032757,,,,,3550.844000,0.060974,1.999569,0.000154,-0.089248,1.500618,-0.001967,50.000000,2.100001,-0.002017,,,,
1670040248.033004,,,,,3550.844000,0.060974,1.999569,0.000154,-0.089248,1.500618,-0.001967,50.000000,2.100001,-0.002017,,,,
1670040248.033474,,,,,,,,,,,,,,,2.000000,1.500000,3.000000,0.000000
1670040248.033541,,,,,,,,,,,,,,,2.000000,1.500000,3.000000,0.000000
1670040248.043035,,,,,3550.854000,-0.114771,1.999581,0.004035,0.044397,1.500582,-0.000940,50.000000,2.100016,-0.001566,,,,
1670040248.043113,,,,,3550.854000,-0.114771,1.999581,0.004035,0.044397,1.500582,-0.000940,50.000000,2.100016,-0.001566,,,,
1670040248.043372,,,,,,,,,,,,,,,2.000000,1.500000,3.000000,0.000000
1670040248.043419,,,,,,,,,,,,,,,2.000000,1.500000,3.000000,0.000000
1670040248.052473,,,,,3550.864000,0.021254,1.999587,-0.000667,0.037952,1.500583,-0.000523,50.000000,2.100000,-0.001757,,,,
1670040248.052514,,,,,3550.864000,0.021254,1.999587,-0.000667,0.037952,1.500583,-0.000523,50.000000,2.100000,-0.001757,,,,
1670040248.052660,-0.151954,0.625867,81.264975,0.000000,,,,,,,,,,,,,,
1670040248.052678,,,,,,,,,,,,,,,2.000000,1.500000,3.000000,0.000000
1670040248.052684,,,,,,,,,,,,,,,2.000000,1.500000,3.000000,0.000000
1670040248.062057,,,,,3550.874000,-0.095902,1.999597,0.002634,0.003782,1.500559,0.000838,50.000000,2.100012,-0.001417,,,,
1670040248.062105,,,,,3550.874000,-0.095902,1.999597,0.002634,0.003782,1.500559,0.000838,50.000000,2.100012,-0.001417,,,,
1670040248.062328,0.063410,-0.197104,81.029954,0.000000,,,,,,,,,,,,,,
1670040248.062345,,,,,,,,,,,,,,,2.000000,1.500000,3.000000,0.000000
1670040248.062351,,,,,,,,,,,,,,,2.000000,1.500000,3.000000,0.000000
1670040248.063185,0.031036,-0.214655,81.109894,0.000000,,,,,,,,,,,,,,
1670040248.071620,,,,,3550.884000,0.044801,1.999595,-0.000933,-0.010847,1.500564,-0.000454,50.000000,2.100000,-0.001671,,,,
1670040248.071665,,,,,3550.884000,0.044801,1.999595,-0.000933,-0.010847,1.500564,-0.000454,50.000000,2.100000,-0.001671,,,,
1670040248.071819,0.031036,-0.214655,81.109894,0.000000,,,,,,,,,,,,,,
1670040248.071842,,,,,,,,,,,,,,,2.000000,1.500000,3.000000,0.000000
1670040248.071852,,,,,,,,,,,,,,,2.000000,1.500000,3.000000,0.000000
1670040248.072933,0.176999,-0.426600,81.050777,0.000000,,,,,,,,,,,,,,
1670040248.081876,,,,,3550.894000,-0.054851,1.999609,0.002051,-0.057269,1.500538,0.000379,50.000000,2.100010,-0.001542,,,,
1670040248.081971,,,,,3550.894000,-0.054851,1.999609,0.002051,-0.057269,1.500538,0.000379,50.000000,2.100010,-0.001542,,,,
1670040248.082257,,,,,,,,,,,,,,,2.000000,1.500000,3.000000,0.000000
1670040248.082315,,,,,,,,,,,,,,,2.000000,1.500000,3.000000,0.000000
1670040248.092626,,,,,3550.904000,0.052251,1.999585,-0.022742,-0.012310,1.500567,0.032026,50.000000,2.100080,0.059780,,,,
1670040248.092731,,,,,3550.904000,0.052251,1.999585,-0.022742,-0.012310,1.500567,0.032026,50.000000,2.100080,0.059780,,,,
1670040248.093554,,,,,,,,,,,,,,,2.000000,1.500000,3.000000,0.000000
1670040248.093617,,,,,,,,,,,,,,,2.000000,1.500000,3.000000,0.000000
1670040248.104325,,,,,3550.914000,-0.038048,1.999625,0.001603,-0.040154,1.500501,-0.000264,50.000000,2.100007,-0.001697,,,,
1670040248.104464,,,,,3550.914000,-0.038048,1.999625,0.001603,-0.040154,1.500501,-0.000264,50.000000,2.100007,-0.001697,,,,
1670040248.104721,0.060974,-0.089248,81.066602,0.000000,,,,,,,,,,,,,,
1670040248.104739,,,,,,,,,,,,,,,2.000000,1.500000,3.000000,0.000000
1670040248.104770,,,,,,,,,,,,,,,2.000000,1.500000,3.000000,0.000000
1670040248.111023,0.000000,0.000000,0.000000,0.000000,,,,,,,,,,,,,,
1670040248.114527,-0.114771,0.044397,81.070390,0.000000,,,,,,,,,,,,,,
1670040248.114594,,,,,3550.924000,0.707165,1.999674,0.014157,-1.149248,1.500387,-0.030157,50.000000,2.100062,-0.013816,,,,
1670040248.114630,,,,,3550.924000,0.707165,1.999674,0.014157,-1.149248,1.500387,-0.030157,50.000000,2.100062,-0.013816,,,,
1670040248.114659,,,,,,,,,,,,,,,2.000000,1.500000,3.000000,0.000000
1670040248.114670,,,,,,,,,,,,,,,2.000000,1.500000,3.000000,0.000000
1670040248.124063,,,,,3550.934000,-0.025609,1.999808,0.008944,-0.015824,1.500151,-0.018149,50.000000,2.100006,-0.003515,,,,
1670040248.124105,,,,,3550.934000,-0.025609,1.999808,0.008944,-0.015824,1.500151,-0.018149,50.000000,2.100006,-0.003515,,,,
1670040248.124307,,,,,,,,,,,,,,,2.000000,1.500000,3.000000,0.000000
1670040248.124328,,,,,,,,,,,,,,,2.000000,1.500000,3.000000,0.000000
1670040248.133769,,,,,3550.944000,-0.405118,1.999825,0.005560,1.036156,1.500055,-0.017901,50.000000,2.100039,-0.007672,,,,
1670040248.133857,,,,,3550.944000,-0.405118,1.999825,0.005560,1.036156,1.500055,-0.017901,50.000000,2.100039,-0.007672,,,,
1670040248.134118,,,,,,,,,,,,,,,2.000000,1.500000,3.000000,0.000000
1670040248.134164,,,,,,,,,,,,,,,2.000000,1.500000,3.000000,0.000000
1670040248.143431,,,,,3550.954000,-0.256783,1.999847,-0.001688,0.627684,1.500051,0.005649,50.000000,2.100003,-0.000860,,,,
1670040248.143542,,,,,3550.954000,-0.256783,1.999847,-0.001688,0.627684,1.500051,0.005649,50.000000,2.100003,-0.000860,,,,
1670040248.143842,0.044801,-0.010847,81.061471,0.000000,,,,,,,,,,,,,,
1670040248.143904,,,,,,,,,,,,,,,2.000000,1.500000,3.000000,0.000000
1670040248.143941,,,,,,,,,,,,,,,2.000000,1.500000,3.000000,0.000000
1670040248.144935,-0.054851,-0.057269,81.048480,0.000000,,,,,,,,,,,,,,
1670040248.153631,,,,,3550.964000,-0.156292,1.999798,-0.000527,0.623773,1.500142,0.006015,50.000000,2.100032,-0.003221,,,,
1670040248.153749,,,,,3550.964000,-0.156292,1.999798,-0.000527,0.623773,1.500142,0.006015,50.000000,2.100032,-0.003221,,,,
1670040248.154122,,,,,,,,,,,,,,,2.000000,1.500000,3.000000,0.000000
1670040248.154177,,,,,,,,,,,,,,,2.000000,1.500000,3.000000,0.000000
1670040248.163162,,,,,3550.974000,0.059839,1.999765,-0.005330,-0.200259,1.500264,0.011877,50.000000,2.100002,-0.001456,,,,
1670040248.163275,,,,,3550.974000,0.059839,1.999765,-0.005330,-0.200259,1.500264,0.011877,50.000000,2.100002,-0.001456,,,,
1670040248.163444,0.052251,-0.012310,81.058525,0.000000,,,,,,,,,,,,,,
1670040248.163483,,,,,,,,,,,,,,,2.000000,1.500000,3.000000,0.000000
1670040248.163513,,,,,,,,,,,,,,,2.000000,1.500000,3.000000,0.000000
1670040248.165075,-0.038048,-0.040154,81.053102,0.000000,,,,,,,,,,,,,,
1670040248.173374,,,,,3550.984000,0.027912,1.999717,0.001206,-0.217641,1.500345,0.004185,50.000000,2.100025,-0.002629,,,,
1670040248.173423,,,,,3550.984000,0.027912,1.999717,0.001206,-0.217641,1.500345,0.004185,50.000000,2.100025,-0.002629,,,,
1670040248.173453,,,,,,,,,,,,,,,2.000000,1.500000,3.000000,0.000000
1670040248.173466,,,,,,,,,,,,,,,2.000000,1.500000,3.000000,0.000000
1670040248.182878,,,,,3550.994000,0.173982,1.999709,-0.001357,-0.428921,1.500397,0.002011,50.000000,2.100001,-0.001907,,,,
1670040248.182923,,,,,3550.994000,0.173982,1.999709,-0.001357,-0.428921,1.500397,0.002011,50.000000,2.100001,-0.001907,,,,
1670040248.183078,,,,,,,,,,,,,,,2.000000,1.500000,3.000000,0.000000
1670040248.183095,,,,,,,,,,,,,,,2.000000,1.500000,3.000000,0.000000
1670040248.192400,,,,,3551.004000,-0.019210,1.999706,0.004498,-0.163734,1.500385,-0.001795,50.000000,2.100020,-0.002063,,,,
1670040248.192441,,,,,3551.004000,-0.019210,1.999706,0.004498,-0.163734,1.500385,-0.001795,50.000000,2.100020,-0.002063,,,,
1670040248.192824,,,,,,,,,,,,,,,2.000000,1.500000,3.000000,0.000000
1670040248.192838,,,,,,,,,,,,,,,2.000000,1.500000,3.000000,0.000000
1670040248.202094,,,,,3551.014000,0.058178,1.999718,-0.000071,-0.090248,1.500383,-0.001604,50.000000,2.100001,-0.002017,,,,
1670040248.202178,,,,,3551.014000,0.058178,1.999718,-0.000071,-0.090248,1.500383,-0.001604,50.000000,2.100001,-0.002017,,,,
1670040248.202481,,,,,,,,,,,,,,,2.000000,1.500000,3.000000,0.000000
1670040248.202511,,,,,,,,,,,,,,,2.000000,1.500000,3.000000,0.000000
1670040248.211711,,,,,3551.024000,-0.117320,1.999728,0.003805,0.043555,1.500351,-0.000579,50.000000,2.100016,-0.001565,,,,
1670040248.211753,,,,,3551.024000,-0.117320,1.999728,0.003805,0.043555,1.500351,-0.000579,50.000000,2.100016,-0.001565,,,,
1670040248.212345,-0.256783,0.627684,81.122523,0.000000,,,,,,,,,,,,,,
1670040248.212409,,,,,,,,,,,,,,,2.000000,1.500000,3.000000,0.000000
1670040248.212443,,,,,,,,,,,,,,,2.000000,1.500000,3.000000,0.000000
1670040248.213390,-0.156292,0.623773,81.265006,0.000000,,,,,,,,,,,,,,
1670040248.221817,,,,,3551.034000,0.019048,1.999732,-0.000902,0.036983,1.500356,-0.000167,50.000000,2.100000,-0.001757,,,,
1670040248.221852,,,,,3551.034000,0.019048,1.999732,-0.000902,0.036983,1.500356,-0.000167,50.000000,2.100000,-0.001757,,,,
1670040248.222399,,,,,,,,,,,,,,,2.000000,1.500000,3.000000,0.000000
1670040248.222464,,,,,,,,,,,,,,,2.000000,1.500000,3.000000,0.000000
1670040248.231937,,,,,3551.044000,-0.097829,1.999739,0.002399,0.002700,1.500335,0.001186,50.000000,2.100012,-0.001416,,,,
1670040248.232012,,,,,3551.044000,-0.097829,1.999739,0.002399,0.002700,1.500335,0.001186,50.000000,2.100012,-0.001416,,,,
1670040248.232101,,,,,,,,,,,,,,,2.000000,1.500000,3.000000,0.000000
1670040248.232128,,,,,,,,,,,,,,,2.000000,1.500000,3.000000,0.000000
1670040248.242869,,,,,3551.054000,0.043168,1.999735,-0.001170,-0.011923,1.500344,-0.000117,50.000000,2.100000,-0.001672,,,,
1670040248.242929,,,,,3551.054000,0.043168,1.999735,-0.001170,-0.011923,1.500344,-0.000117,50.000000,2.100000,-0.001672,,,,
1670040248.243081,,,,,,,,,,,,,,,2.000000,1.500000,3.000000,0.000000
1670040248.243106,,,,,,,,,,,,,,,2.000000,1.500000,3.000000,0.000000
1670040248.252516,,,,,3551.064000,-0.056328,1.999746,0.001815,-0.058266,1.500320,0.000709,50.000000,2.100010,-0.001541,,,,
1670040248.252634,,,,,3551.064000,-0.056328,1.999746,0.001815,-0.058266,1.500320,0.000709,50.000000,2.100010,-0.001541,,,,
1670040248.253093,,,,,,,,,,,,,,,2.000000,1.500000,3.000000,0.000000
1670040248.253148,,,,,,,,,,,,,,,2.000000,1.500000,3.000000,0.000000
1670040248.263342,,,,,3551.074000,0.050973,1.999720,-0.022979,-0.013096,1.500353,0.032347,50.000000,2.100080,0.059782,,,,
1670040248.263452,,,,,3551.074000,0.050973,1.999720,-0.022979,-0.013096,1.500353,0.032347,50.000000,2.100080,0.059782,,,,
1670040248.264315,-0.019210,-0.163734,81.089752,0.000000,,,,,,,,,,,,,,
1670040248.264355,,,,,,,,,,,,,,,2.000000,1.500000,3.000000,0.000000
1670040248.264373,,,,,,,,,,,,,,,2.000000,1.500000,3.000000,0.000000
1670040248.273607,,,,,3551.084000,-0.039222,1.999758,0.001366,-0.040831,1.500290,0.000051,50.000000,2.100007,-0.001697,,,,
1670040248.273722,,,,,3551.084000,-0.039222,1.999758,0.001366,-0.040831,1.500290,0.000051,50.000000,2.100007,-0.001697,,,,
1670040248.274218,,,,,,,,,,,,,,,2.000000,1.500000,3.000000,0.000000
1670040248.274250,,,,,,,,,,,,,,,2.000000,1.500000,3.000000,0.000000
1670040248.283414,,,,,3551.094000,0.706175,1.999804,0.013921,-1.149804,1.500179,-0.029856,50.000000,2.100062,-0.013817,,,,
1670040248.283489,,,,,3551.094000,0.706175,1.999804,0.013921,-1.149804,1.500179,-0.029856,50.000000,2.100062,-0.013817,,,,
1670040248.284125,,,,,,,,,,,,,,,2.000000,1.500000,3.000000,0.000000
1670040248.284148,,,,,,,,,,,,,,,2.000000,1.500000,3.000000,0.000000
1670040248.294159,,,,,3551.104000,-0.026484,1.999936,0.008709,-0.016320,1.499946,-0.017849,50.000000,2.100006,-0.003515,,,,
1670040248.294201,,,,,3551.104000,-0.026484,1.999936,0.008709,-0.016320,1.499946,-0.017849,50.000000,2.100006,-0.003515,,,,
1670040248.294335,,,,,,,,,,,,,,,2.000000,1.500000,3.000000,0.000000
1670040248.294347,,,,,,,,,,,,,,,2.000000,1.500000,3.000000,0.000000
1670040248.304656,,,,,3551.114000,-0.405882,1.999951,0.005320,1.036014,1.499854,-0.017603,50.000000,2.100039,-0.007674,,,,
1670040248.304698,,,,,3551.114000,-0.405882,1.999951,0.005320,1.036014,1.499854,-0.017603,50.000000,2.100039,-0.007674,,,,
1670040248.304848,,,,,,,,,,,,,,,2.000000,1.500000,3.000000,0.000000
1670040248.304871,,,,,,,,,,,,,,,2.000000,1.500000,3.000000,0.000000
1670040248.314696,,,,,3551.124000,-0.257407,1.999970,-0.001925,0.627418,1.499852,0.005947,50.000000,2.100003,-0.000860,,,,
1670040248.314765,,,,,3551.124000,-0.257407,1.999970,-0.001925,0.627418,1.499852,0.005947,50.000000,2.100003,-0.000860,,,,
1670040248.315003,0.043168,-0.011923,81.061473,0.000000,,,,,,,,,,,,,,
1670040248.315062,,,,,,,,,,,,,,,2.000000,1.500000,3.000000,0.000000
1670040248.315093,,,,,,,,,,,,,,,2.000000,1.500000,3.000000,0.000000
1670040248.315321,-0.056328,-0.058266,81.048441,0.000000,,,,,,,,,,,,,,
1670040248.324599,,,,,3551.134000,-0.156655,1.999919,-0.000764,0.623401,1.499947,0.006305,50.000000,2.100032,-0.003221,,,,
1670040248.324713,,,,,3551.134000,-0.156655,1.999919,-0.000764,0.623401,1.499947,0.006305,50.000000,2.100032,-0.003221,,,,
1670040248.325301,,,,,,,,,,,,,,,2.000000,1.500000,3.000000,0.000000
1670040248.325367,,,,,,,,,,,,,,,2.000000,1.500000,3.000000,0.000000
1670040248.334877,,,,,3551.144000,0.059569,1.999884,-0.005563,-0.200768,1.500072,0.012160,50.000000,2.100002,-0.001456,,,,
