SumeetShanbhag/Controller-Design-for-SCARA/rrbot_work/Results/info_1.csv
__time,/forward_effort_controller/commands/data.0,/forward_effort_controller/commands/data.1,/forward_effort_controller/commands/data.2,/forward_effort_controller/commands/layout/data_offset,/joint_states/header/stamp,/joint_states/joint1/effort,/joint_states/joint1/position,/joint_states/joint1/velocity,/joint_states/joint2/effort,/joint_states/joint2/position,/joint_states/joint2/velocity,/joint_states/joint3/effort,/joint_states/joint3/position,/joint_states/joint3/velocity,/reference_joint/commands/data.0,/reference_joint/commands/data.1,/reference_joint/commands/data.2,/reference_joint/commands/layout/data_offset
1670038909.851025,,,,,2216.864000,-0.012464,2.999983,0.000050,0.034487,1.000000,-0.000113,9.795463,0.888952,0.005821,,,,
1670038909.851068,,,,,,,,,,,,,,,3.000000,1.000000,1.000000,0.000000
1670038909.860786,,,,,2216.874000,-0.013962,2.999981,-0.000439,0.037952,1.000005,0.000943,9.792843,0.889009,0.005709,,,,
1670038909.860834,,,,,2216.874000,-0.013962,2.999981,-0.000439,0.037952,1.000005,0.000943,9.792843,0.889009,0.005709,,,,
1670038909.861008,,,,,,,,,,,,,,,3.000000,1.000000,1.000000,0.000000
1670038909.861030,,,,,,,,,,,,,,,3.000000,1.000000,1.000000,0.000000
1670038909.870442,,,,,2216.884000,-0.000501,2.999976,-0.000489,0.003957,1.000015,0.001050,9.790603,0.889066,0.005575,,,,
1670038909.870502,,,,,2216.884000,-0.000501,2.999976,-0.000489,0.003957,1.000015,0.001050,9.790603,0.889066,0.005575,,,,
1670038909.870736,,,,,,,,,,,,,,,3.000000,1.000000,1.000000,0.000000
1670038909.870755,,,,,,,,,,,,,,,3.000000,1.000000,1.000000,0.000000
1670038909.880395,,,,,2216.894000,0.014325,2.999974,-0.000066,-0.033237,1.000020,0.000139,9.789344,0.889121,0.005430,,,,
1670038909.880490,,,,,2216.894000,0.014325,2.999974,-0.000066,-0.033237,1.000020,0.000139,9.789344,0.889121,0.005430,,,,
1670038909.880989,,,,,,,,,,,,,,,3.000000,1.000000,1.000000,0.000000
1670038909.881049,,,,,,,,,,,,,,,3.000000,1.000000,1.000000,0.000000
1670038909.890489,,,,,2216.904000,0.016096,2.999976,0.000404,-0.037499,1.000016,-0.000872,9.788950,0.889174,0.005282,,,,
1670038909.890558,,,,,2216.904000,0.016096,2.999976,0.000404,-0.037499,1.000016,-0.000872,9.788950,0.889174,0.005282,,,,
1670038909.891008,0.016503,-0.038340,9.774182,0.000000,,,,,,,,,,,,,,
1670038909.891049,,,,,,,,,,,,,,,3.000000,1.000000,1.000000,0.000000
1670038909.891064,,,,,,,,,,,,,,,3.000000,1.000000,1.000000,0.000000
1670038909.891791,0.017618,-0.040891,9.791448,0.000000,,,,,,,,,,,,,,
1670038909.900592,,,,,2216.914000,0.003557,2.999980,0.000463,-0.005880,1.000007,-0.001001,9.789087,0.889226,0.005136,,,,
1670038909.900687,,,,,2216.914000,0.003557,2.999980,0.000463,-0.005880,1.000007,-0.001001,9.789087,0.889226,0.005136,,,,
1670038909.901029,,,,,,,,,,,,,,,3.000000,1.000000,1.000000,0.000000
1670038909.901073,,,,,,,,,,,,,,,3.000000,1.000000,1.000000,0.000000
1670038909.910859,,,,,2216.924000,-0.010642,2.999982,0.000070,0.029724,1.000001,-0.000154,9.789454,0.889277,0.004996,,,,
1670038909.910921,,,,,2216.924000,-0.010642,2.999982,0.000070,0.029724,1.000001,-0.000154,9.789454,0.889277,0.004996,,,,
1670038909.911413,0.003081,-0.004355,9.796407,0.000000,,,,,,,,,,,,,,
1670038909.911446,,,,,,,,,,,,,,,3.000000,1.000000,1.000000,0.000000
1670038909.911459,,,,,,,,,,,,,,,3.000000,1.000000,1.000000,0.000000
1670038909.911816,-0.012464,0.034487,9.795463,0.000000,,,,,,,,,,,,,,
1670038909.921215,,,,,2216.934000,-0.012694,2.999981,-0.000379,0.034695,1.000005,0.000814,9.789865,0.889326,0.004860,,,,
1670038909.921255,,,,,2216.934000,-0.012694,2.999981,-0.000379,0.034695,1.000005,0.000814,9.789865,0.889326,0.004860,,,,
1670038909.921480,,,,,,,,,,,,,,,3.000000,1.000000,1.000000,0.000000
1670038909.921496,,,,,,,,,,,,,,,3.000000,1.000000,1.000000,0.000000
1670038909.931179,,,,,2216.944000,-0.001047,2.999976,-0.000447,0.005313,1.000014,0.000961,9.790241,0.889374,0.004728,,,,
1670038909.931232,,,,,2216.944000,-0.001047,2.999976,-0.000447,0.005313,1.000014,0.000961,9.790241,0.889374,0.004728,,,,
1670038909.931462,,,,,,,,,,,,,,,3.000000,1.000000,1.000000,0.000000
1670038909.931474,,,,,,,,,,,,,,,3.000000,1.000000,1.000000,0.000000
1670038909.941574,,,,,2216.954000,0.012532,2.999974,-0.000082,-0.028747,1.000019,0.000174,9.790568,0.889420,0.004601,,,,
1670038909.941654,,,,,2216.954000,0.012532,2.999974,-0.000082,-0.028747,1.000019,0.000174,9.790568,0.889420,0.004601,,,,
1670038909.942155,,,,,,,,,,,,,,,3.000000,1.000000,1.000000,0.000000
1670038909.942196,,,,,,,,,,,,,,,3.000000,1.000000,1.000000,0.000000
1670038909.951863,,,,,2216.964000,0.014825,2.999976,0.000348,-0.034341,1.000016,-0.000751,9.790855,0.889466,0.004478,,,,
1670038909.951985,,,,,2216.964000,0.014825,2.999976,0.000348,-0.034341,1.000016,-0.000751,9.790855,0.889466,0.004478,,,,
1670038909.952548,0.014325,-0.033237,9.789344,0.000000,,,,,,,,,,,,,,
1670038909.952693,,,,,,,,,,,,,,,3.000000,1.000000,1.000000,0.000000
1670038909.952724,,,,,,,,,,,,,,,3.000000,1.000000,1.000000,0.000000
1670038909.962051,,,,,2216.974000,0.004013,2.999979,0.000424,-0.007070,1.000008,-0.000914,9.791111,0.889510,0.004358,,,,
1670038909.962145,,,,,2216.974000,0.004013,2.999979,0.000424,-0.007070,1.000008,-0.000914,9.791111,0.889510,0.004358,,,,
1670038909.962650,,,,,,,,,,,,,,,3.000000,1.000000,1.000000,0.000000
1670038909.962723,,,,,,,,,,,,,,,3.000000,1.000000,1.000000,0.000000
1670038909.972298,,,,,2216.984000,-0.008968,2.999982,0.000085,0.025485,1.000003,-0.000184,9.791345,0.889553,0.004242,,,,
1670038909.972384,,,,,2216.984000,-0.008968,2.999982,0.000085,0.025485,1.000003,-0.000184,9.791345,0.889553,0.004242,,,,
1670038909.972550,0.003557,-0.005880,9.789087,0.000000,,,,,,,,,,,,,,
1670038909.972581,,,,,,,,,,,,,,,3.000000,1.000000,1.000000,0.000000
1670038909.972605,,,,,,,,,,,,,,,3.000000,1.000000,1.000000,0.000000
1670038909.973263,-0.010642,0.029724,9.789454,0.000000,,,,,,,,,,,,,,
1670038909.981956,,,,,2216.994000,-0.011475,2.999980,-0.000326,0.031614,1.000006,0.000700,9.791566,0.889595,0.004128,,,,
1670038909.982020,,,,,2216.994000,-0.011475,2.999980,-0.000326,0.031614,1.000006,0.000700,9.791566,0.889595,0.004128,,,,
1670038909.982306,,,,,,,,,,,,,,,3.000000,1.000000,1.000000,0.000000
1670038909.982349,,,,,,,,,,,,,,,3.000000,1.000000,1.000000,0.000000
1670038909.992110,,,,,2217.004000,-0.001455,2.999977,-0.000408,0.006326,1.000014,0.000877,9.791782,0.889635,0.004017,,,,
1670038909.992211,,,,,2217.004000,-0.001455,2.999977,-0.000408,0.006326,1.000014,0.000877,9.791782,0.889635,0.004017,,,,
1670038909.992335,-0.012694,0.034695,9.789865,0.000000,,,,,,,,,,,,,,
1670038909.992360,,,,,,,,,,,,,,,3.000000,1.000000,1.000000,0.000000
1670038909.992373,,,,,,,,,,,,,,,3.000000,1.000000,1.000000,0.000000
1670038909.992917,-0.001047,0.005313,9.790241,0.000000,,,,,,,,,,,,,,
1670038910.001769,,,,,2217.014000,0.010940,2.999974,-0.000093,-0.024773,1.000019,0.000200,9.791999,0.889675,0.003909,,,,
1670038910.001876,,,,,2217.014000,0.010940,2.999974,-0.000093,-0.024773,1.000019,0.000200,9.791999,0.889675,0.003909,,,,
1670038910.002275,,,,,,,,,,,,,,,3.000000,1.000000,1.000000,0.000000
1670038910.002327,,,,,,,,,,,,,,,3.000000,1.000000,1.000000,0.000000
1670038910.012162,,,,,2217.024000,0.013623,2.999976,0.000299,-0.031364,1.000016,-0.000644,9.792217,0.889713,0.003804,,,,
1670038910.012230,,,,,2217.024000,0.013623,2.999976,0.000299,-0.031364,1.000016,-0.000644,9.792217,0.889713,0.003804,,,,
1670038910.012565,0.012532,-0.028747,9.790568,0.000000,,,,,,,,,,,,,,
1670038910.012604,,,,,,,,,,,,,,,3.000000,1.000000,1.000000,0.000000
1670038910.012618,,,,,,,,,,,,,,,3.000000,1.000000,1.000000,0.000000
1670038910.012949,0.014825,-0.034341,9.790855,0.000000,,,,,,,,,,,,,,
1670038910.022377,,,,,2217.034000,0.004341,2.999979,0.000386,-0.007942,1.000008,-0.000833,9.792431,0.889751,0.003702,,,,
1670038910.022422,,,,,2217.034000,0.004341,2.999979,0.000386,-0.007942,1.000008,-0.000833,9.792431,0.889751,0.003702,,,,
1670038910.022478,,,,,,,,,,,,,,,3.000000,1.000000,1.000000,0.000000
1670038910.022488,,,,,,,,,,,,,,,3.000000,1.000000,1.000000,0.000000
1670038910.032517,,,,,2217.044000,-0.007492,2.999981,0.000096,0.021742,1.000004,-0.000207,9.792635,0.889787,0.003603,,,,
1670038910.032580,,,,,2217.044000,-0.007492,2.999981,0.000096,0.021742,1.000004,-0.000207,9.792635,0.889787,0.003603,,,,
1670038910.032873,0.004013,-0.007070,9.791111,0.000000,,,,,,,,,,,,,,
1670038910.032901,,,,,,,,,,,,,,,3.000000,1.000000,1.000000,0.000000
1670038910.032910,,,,,,,,,,,,,,,3.000000,1.000000,1.000000,0.000000
1670038910.033115,-0.008968,0.025485,9.791345,0.000000,,,,,,,,,,,,,,
1670038910.042700,,,,,2217.054000,-0.010329,2.999980,-0.000278,0.028722,1.000006,0.000599,9.792828,0.889823,0.003507,,,,
1670038910.042807,,,,,2217.054000,-0.010329,2.999980,-0.000278,0.028722,1.000006,0.000599,9.792828,0.889823,0.003507,,,,
1670038910.043194,,,,,,,,,,,,,,,3.000000,1.000000,1.000000,0.000000
1670038910.043266,,,,,,,,,,,,,,,3.000000,1.000000,1.000000,0.000000
1670038910.052568,,,,,2217.064000,-0.001746,2.999977,-0.000371,0.007051,1.000013,0.000798,9.793016,0.889857,0.003412,,,,
1670038910.052654,,,,,2217.064000,-0.001746,2.999977,-0.000371,0.007051,1.000013,0.000798,9.793016,0.889857,0.003412,,,,
1670038910.052846,,,,,,,,,,,,,,,3.000000,1.000000,1.000000,0.000000
1670038910.052924,,,,,,,,,,,,,,,3.000000,1.000000,1.000000,0.000000
1670038910.062657,,,,,2217.074000,0.009538,2.999975,-0.000102,-0.021267,1.000018,0.000219,9.793202,0.889891,0.003321,,,,
1670038910.062760,,,,,2217.074000,0.009538,2.999975,-0.000102,-0.021267,1.000018,0.000219,9.793202,0.889891,0.003321,,,,
1670038910.063095,-0.001455,0.006326,9.791782,0.000000,,,,,,,,,,,,,,
1670038910.063150,,,,,,,,,,,,,,,3.000000,1.000000,1.000000,0.000000
1670038910.063168,,,,,,,,,,,,,,,3.000000,1.000000,1.000000,0.000000
1670038910.063617,0.010940,-0.024773,9.791999,0.000000,,,,,,,,,,,,,,
1670038910.073171,,,,,2217.084000,0.012499,2.999976,0.000255,-0.028574,1.000016,-0.000550,9.793389,0.889924,0.003232,,,,
1670038910.073233,,,,,2217.084000,0.012499,2.999976,0.000255,-0.028574,1.000016,-0.000550,9.793389,0.889924,0.003232,,,,
1670038910.073656,,,,,,,,,,,,,,,3.000000,1.000000,1.000000,0.000000
1670038910.073693,,,,,,,,,,,,,,,3.000000,1.000000,1.000000,0.000000
1670038910.082843,,,,,2217.094000,0.004567,2.999979,0.000351,-0.008548,1.000009,-0.000757,9.793571,0.889956,0.003145,,,,
1670038910.082880,,,,,2217.094000,0.004567,2.999979,0.000351,-0.008548,1.000009,-0.000757,9.793571,0.889956,0.003145,,,,
1670038910.083100,,,,,,,,,,,,,,,3.000000,1.000000,1.000000,0.000000
1670038910.083120,,,,,,,,,,,,,,,3.000000,1.000000,1.000000,0.000000
1670038910.092556,,,,,2217.104000,-0.006191,2.999981,0.000103,0.018444,1.000005,-0.000222,9.793744,0.889987,0.003061,,,,
1670038910.092601,,,,,2217.104000,-0.006191,2.999981,0.000103,0.018444,1.000005,-0.000222,9.793744,0.889987,0.003061,,,,
1670038910.092763,0.004341,-0.007942,9.792431,0.000000,,,,,,,,,,,,,,
1670038910.092787,,,,,,,,,,,,,,,3.000000,1.000000,1.000000,0.000000
1670038910.092794,,,,,,,,,,,,,,,3.000000,1.000000,1.000000,0.000000
1670038910.094094,-0.007492,0.021742,9.792635,0.000000,,,,,,,,,,,,,,
1670038910.102925,,,,,2217.114000,-0.009257,2.999980,-0.000237,0.026019,1.000006,0.000510,9.793908,0.890017,0.002979,,,,
1670038910.102977,,,,,2217.114000,-0.009257,2.999980,-0.000237,0.026019,1.000006,0.000510,9.793908,0.890017,0.002979,,,,
1670038910.103285,,,,,,,,,,,,,,,3.000000,1.000000,1.000000,0.000000
1670038910.103315,,,,,,,,,,,,,,,3.000000,1.000000,1.000000,0.000000
1670038910.113431,,,,,2217.124000,-0.001940,2.999977,-0.000336,0.007535,1.000013,0.000724,9.794067,0.890046,0.002899,,,,
1670038910.113523,,,,,2217.124000,-0.001940,2.999977,-0.000336,0.007535,1.000013,0.000724,9.794067,0.890046,0.002899,,,,
1670038910.113797,,,,,,,,,,,,,,,3.000000,1.000000,1.000000,0.000000
1670038910.113847,,,,,,,,,,,,,,,3.000000,1.000000,1.000000,0.000000
1670038910.113940,-0.010329,0.028722,9.792828,0.000000,,,,,,,,,,,,,,
1670038910.123793,,,,,2217.134000,0.008304,2.999975,-0.000107,-0.018181,1.000017,0.000231,9.794225,0.890075,0.002821,,,,
1670038910.123862,,,,,2217.134000,0.008304,2.999975,-0.000107,-0.018181,1.000017,0.000231,9.794225,0.890075,0.002821,,,,
1670038910.124095,,,,,,,,,,,,,,,3.000000,1.000000,1.000000,0.000000
1670038910.124136,,,,,,,,,,,,,,,3.000000,1.000000,1.000000,0.000000
1670038910.133994,,,,,2217.144000,0.011452,2.999976,0.000217,-0.025971,1.000016,-0.000467,9.794384,0.890103,0.002745,,,,
1670038910.134129,,,,,2217.144000,0.011452,2.999976,0.000217,-0.025971,1.000016,-0.000467,9.794384,0.890103,0.002745,,,,
1670038910.134843,,,,,,,,,,,,,,,3.000000,1.000000,1.000000,0.000000
1670038910.134905,,,,,,,,,,,,,,,3.000000,1.000000,1.000000,0.000000
1670038910.143549,,,,,2217.154000,0.004707,2.999978,0.000318,-0.008933,1.000010,-0.000685,9.794539,0.890130,0.002672,,,,
1670038910.143592,,,,,2217.154000,0.004707,2.999978,0.000318,-0.008933,1.000010,-0.000685,9.794539,0.890130,0.002672,,,,
1670038910.143819,,,,,,,,,,,,,,,3.000000,1.000000,1.000000,0.000000
1670038910.143837,,,,,,,,,,,,,,,3.000000,1.000000,1.000000,0.000000
1670038910.153354,,,,,2217.164000,-0.005047,2.999980,0.000107,0.015548,1.000005,-0.000231,9.794686,0.890156,0.002600,,,,
1670038910.153413,,,,,2217.164000,-0.005047,2.999980,0.000107,0.015548,1.000005,-0.000231,9.794686,0.890156,0.002600,,,,
1670038910.153682,0.004567,-0.008548,9.793571,0.000000,,,,,,,,,,,,,,
1670038910.153706,,,,,,,,,,,,,,,3.000000,1.000000,1.000000,0.000000
1670038910.153715,,,,,,,,,,,,,,,3.000000,1.000000,1.000000,0.000000
1670038910.154396,-0.006191,0.018444,9.793744,0.000000,,,,,,,,,,,,,,
1670038910.163213,,,,,2217.174000,-0.008259,2.999980,-0.000201,0.023502,1.000007,0.000432,9.794825,0.890182,0.002531,,,,
1670038910.163299,,,,,2217.174000,-0.008259,2.999980,-0.000201,0.023502,1.000007,0.000432,9.794825,0.890182,0.002531,,,,
1670038910.163686,,,,,,,,,,,,,,,3.000000,1.000000,1.000000,0.000000
1670038910.163733,,,,,,,,,,,,,,,3.000000,1.000000,1.000000,0.000000
1670038910.174106,,,,,2217.184000,-0.002053,2.999977,-0.000304,0.007819,1.000012,0.000655,9.794960,0.890206,0.002463,,,,
1670038910.174270,,,,,2217.184000,-0.002053,2.999977,-0.000304,0.007819,1.000012,0.000655,9.794960,0.890206,0.002463,,,,
1670038910.174986,,,,,,,,,,,,,,,3.000000,1.000000,1.000000,0.000000
1670038910.175043,,,,,,,,,,,,,,,3.000000,1.000000,1.000000,0.000000
1670038910.183741,,,,,2217.194000,0.007224,2.999975,-0.000110,-0.015474,1.000017,0.000237,9.795094,0.890231,0.002396,,,,
1670038910.183798,,,,,2217.194000,0.007224,2.999975,-0.000110,-0.015474,1.000017,0.000237,9.795094,0.890231,0.002396,,,,
1670038910.184013,,,,,,,,,,,,,,,3.000000,1.000000,1.000000,0.000000
1670038910.184035,,,,,,,,,,,,,,,3.000000,1.000000,1.000000,0.000000
1670038910.193558,,,,,2217.204000,0.010480,2.999976,0.000183,-0.023551,1.000015,-0.000394,9.795229,0.890254,0.002332,,,,
1670038910.193621,,,,,2217.204000,0.010480,2.999976,0.000183,-0.023551,1.000015,-0.000394,9.795229,0.890254,0.002332,,,,
1670038910.193836,0.008304,-0.018181,9.794225,0.000000,,,,,,,,,,,,,,
1670038910.193854,,,,,,,,,,,,,,,3.000000,1.000000,1.000000,0.000000
1670038910.193884,,,,,,,,,,,,,,,3.000000,1.000000,1.000000,0.000000
1670038910.194657,0.011452,-0.025971,9.794384,0.000000,,,,,,,,,,,,,,
1670038910.203522,,,,,2217.214000,0.004776,2.999978,0.000288,-0.009136,1.000010,-0.000619,9.795361,0.890277,0.002270,,,,
1670038910.203563,,,,,2217.214000,0.004776,2.999978,0.000288,-0.009136,1.000010,-0.000619,9.795361,0.890277,0.002270,,,,
1670038910.203776,,,,,,,,,,,,,,,3.000000,1.000000,1.000000,0.000000
1670038910.203795,,,,,,,,,,,,,,,3.000000,1.000000,1.000000,0.000000
1670038910.213944,,,,,2217.224000,-0.004045,2.999980,0.000110,0.013010,1.000006,-0.000236,9.795486,0.890300,0.002209,,,,
1670038910.214005,,,,,2217.224000,-0.004045,2.999980,0.000110,0.013010,1.000006,-0.000236,9.795486,0.890300,0.002209,,,,
1670038910.214175,,,,,,,,,,,,,,,3.000000,1.000000,1.000000,0.000000
1670038910.214187,,,,,,,,,,,,,,,3.000000,1.000000,1.000000,0.000000
1670038910.223374,,,,,2217.234000,-0.007332,2.999980,-0.000169,0.021168,1.000007,0.000364,9.795604,0.890321,0.002150,,,,
1670038910.223387,,,,,2217.234000,-0.007332,2.999980,-0.000169,0.021168,1.000007,0.000364,9.795604,0.890321,0.002150,,,,
1670038910.223582,-0.005047,0.015548,9.794686,0.000000,,,,,,,,,,,,,,
1670038910.223587,,,,,,,,,,,,,,,3.000000,1.000000,1.000000,0.000000
1670038910.223600,,,,,,,,,,,,,,,3.000000,1.000000,1.000000,0.000000
1670038910.224793,-0.008259,0.023502,9.794825,0.000000,,,,,,,,,,,,,,
1670038910.233561,,,,,2217.244000,-0.002100,2.999977,-0.000274,0.007938,1.000012,0.000592,9.795718,0.890343,0.002092,,,,
1670038910.233582,,,,,2217.244000,-0.002100,2.999977,-0.000274,0.007938,1.000012,0.000592,9.795718,0.890343,0.002092,,,,
1670038910.233852,,,,,,,,,,,,,,,3.000000,1.000000,1.000000,0.000000
1670038910.233862,,,,,,,,,,,,,,,3.000000,1.000000,1.000000,0.000000
1670038910.243900,,,,,2217.254000,0.006279,2.999976,-0.000111,-0.013105,1.000016,0.000240,9.795832,0.890363,0.002036,,,,
1670038910.243943,,,,,2217.254000,0.006279,2.999976,-0.000111,-0.013105,1.000016,0.000240,9.795832,0.890363,0.002036,,,,
1670038910.244430,-0.002053,0.007819,9.794960,0.000000,,,,,,,,,,,,,,
1670038910.244448,0.007224,-0.015474,9.795094,0.000000,,,,,,,,,,,,,,
1670038910.244481,,,,,,,,,,,,,,,3.000000,1.000000,1.000000,0.000000
1670038910.244658,0.010480,-0.023551,9.795229,0.000000,,,,,,,,,,,,,,
1670038910.244684,,,,,,,,,,,,,,,3.000000,1.000000,1.000000,0.000000
1670038910.254056,,,,,2217.264000,0.009580,2.999976,0.000154,-0.021309,1.000015,-0.000330,9.795947,0.890383,0.001981,,,,
1670038910.254153,,,,,2217.264000,0.009580,2.999976,0.000154,-0.021309,1.000015,-0.000330,9.795947,0.890383,0.001981,,,,
1670038910.254283,,,,,,,,,,,,,,,3.000000,1.000000,1.000000,0.000000
1670038910.254317,,,,,,,,,,,,,,,3.000000,1.000000,1.000000,0.000000
1670038910.264506,,,,,2217.274000,0.004788,2.999978,0.000260,-0.009188,1.000011,-0.000558,9.796059,0.890403,0.001928,,,,
1670038910.264547,,,,,2217.274000,0.004788,2.999978,0.000260,-0.009188,1.000011,-0.000558,9.796059,0.890403,0.001928,,,,
1670038910.264780,,,,,,,,,,,,,,,3.000000,1.000000,1.000000,0.000000
1670038910.264794,,,,,,,,,,,,,,,3.000000,1.000000,1.000000,0.000000
1670038910.274586,,,,,2217.284000,-0.003169,2.999980,0.000110,0.010795,1.000007,-0.000236,9.796166,0.890422,0.001876,,,,
1670038910.274655,,,,,2217.284000,-0.003169,2.999980,0.000110,0.010795,1.000007,-0.000236,9.796166,0.890422,0.001876,,,,
1670038910.274734,,,,,,,,,,,,,,,3.000000,1.000000,1.000000,0.000000
1670038910.274768,,,,,,,,,,,,,,,3.000000,1.000000,1.000000,0.000000
1670038910.285679,,,,,2217.294000,-0.006474,2.999980,-0.000141,0.019010,1.000008,0.000305,9.796266,0.890440,0.001826,,,,
1670038910.285743,,,,,2217.294000,-0.006474,2.999980,-0.000141,0.019010,1.000008,0.000305,9.796266,0.890440,0.001826,,,,
1670038910.285797,-0.004045,0.013010,9.795486,0.000000,,,,,,,,,,,,,,
1670038910.285818,,,,,,,,,,,,,,,3.000000,1.000000,1.000000,0.000000
1670038910.285831,,,,,,,,,,,,,,,3.000000,1.000000,1.000000,0.000000
1670038910.295959,,,,,2217.304000,-0.002094,2.999978,-0.000247,0.007924,1.000012,0.000533,9.796363,0.890458,0.001777,,,,
1670038910.296041,,,,,2217.304000,-0.002094,2.999978,-0.000247,0.007924,1.000012,0.000533,9.796363,0.890458,0.001777,,,,
1670038910.296393,-0.007332,0.021168,9.795604,0.000000,,,,,,,,,,,,,,
1670038910.296777,,,,,,,,,,,,,,,3.000000,1.000000,1.000000,0.000000
1670038910.296822,,,,,,,,,,,,,,,3.000000,1.000000,1.000000,0.000000
1670038910.305598,,,,,2217.314000,0.005456,2.999976,-0.000110,-0.011040,1.000016,0.000238,9.796459,0.890476,0.001729,,,,
1670038910.305696,,,,,2217.314000,0.005456,2.999976,-0.000110,-0.011040,1.000016,0.000238,9.796459,0.890476,0.001729,,,,
1670038910.305811,,,,,,,,,,,,,,,3.000000,1.000000,1.000000,0.000000
1670038910.305845,,,,,,,,,,,,,,,3.000000,1.000000,1.000000,0.000000
1670038910.315275,,,,,2217.324000,0.008752,2.999976,0.000128,-0.019240,1.000015,-0.000275,9.796556,0.890493,0.001683,,,,
1670038910.315335,,,,,2217.324000,0.008752,2.999976,0.000128,-0.019240,1.000015,-0.000275,9.796556,0.890493,0.001683,,,,
1670038910.315590,0.006279,-0.013105,9.795832,0.000000,,,,,,,,,,,,,,
1670038910.315625,,,,,,,,,,,,,,,3.000000,1.000000,1.000000,0.000000
1670038910.315638,,,,,,,,,,,,,,,3.000000,1.000000,1.000000,0.000000
1670038910.316707,0.009580,-0.021309,9.795947,0.000000,,,,,,,,,,,,,,
1670038910.325494,,,,,2217.334000,0.004753,2.999978,0.000234,-0.009120,1.000011,-0.000502,9.796652,0.890509,0.001638,,,,
1670038910.325550,,,,,2217.334000,0.004753,2.999978,0.000234,-0.009120,1.000011,-0.000502,9.796652,0.890509,0.001638,,,,
1670038910.325653,,,,,,,,,,,,,,,3.000000,1.000000,1.000000,0.000000
1670038910.325669,,,,,,,,,,,,,,,3.000000,1.000000,1.000000,0.000000
1670038910.335797,,,,,2217.344000,-0.002407,2.999980,0.000109,0.008866,1.000008,-0.000234,9.796743,0.890526,0.001594,,,,
1670038910.335850,,,,,2217.344000,-0.002407,2.999980,0.000109,0.008866,1.000008,-0.000234,9.796743,0.890526,0.001594,,,,
1670038910.336249,0.004788,-0.009188,9.796059,0.000000,,,,,,,,,,,,,,
1670038910.336284,,,,,,,,,,,,,,,3.000000,1.000000,1.000000,0.000000
1670038910.336292,,,,,,,,,,,,,,,3.000000,1.000000,1.000000,0.000000
1670038910.345337,,,,,2217.354000,-0.005684,2.999979,-0.000117,0.017022,1.000008,0.000253,9.796828,0.890541,0.001551,,,,
1670038910.345385,,,,,2217.354000,-0.005684,2.999979,-0.000117,0.017022,1.000008,0.000253,9.796828,0.890541,0.001551,,,,
1670038910.345417,,,,,,,,,,,,,,,3.000000,1.000000,1.000000,0.000000
1670038910.345430,,,,,,,,,,,,,,,3.000000,1.000000,1.000000,0.000000
1670038910.356812,,,,,2217.364000,-0.002044,2.999978,-0.000222,0.007802,1.000012,0.000479,9.796910,0.890557,0.001510,,,,
1670038910.356885,,,,,2217.364000,-0.002044,2.999978,-0.000222,0.007802,1.000012,0.000479,9.796910,0.890557,0.001510,,,,
1670038910.356906,,,,,,,,,,,,,,,3.000000,1.000000,1.000000,0.000000
1670038910.356926,,,,,,,,,,,,,,,3.000000,1.000000,1.000000,0.000000
1670038910.366472,,,,,2217.374000,0.004742,2.999976,-0.000108,-0.009246,1.000015,0.000234,9.796992,0.890571,0.001469,,,,
1670038910.366587,,,,,2217.374000,0.004742,2.999976,-0.000108,-0.009246,1.000015,0.000234,9.796992,0.890571,0.001469,,,,
1670038910.366761,,,,,,,,,,,,,,,3.000000,1.000000,1.000000,0.000000
1670038910.366788,,,,,,,,,,,,,,,3.000000,1.000000,1.000000,0.000000
1670038910.376746,,,,,2217.384000,0.007990,2.999976,0.000106,-0.017336,1.000015,-0.000227,9.797074,0.890586,0.001430,,,,
1670038910.376859,,,,,2217.384000,0.007990,2.999976,0.000106,-0.017336,1.000015,-0.000227,9.797074,0.890586,0.001430,,,,
1670038910.377336,,,,,,,,,,,,,,,3.000000,1.000000,1.000000,0.000000
1670038910.377389,,,,,,,,,,,,,,,3.000000,1.000000,1.000000,0.000000
1670038910.386442,,,,,2217.394000,0.004681,2.999978,0.000210,-0.008955,1.000011,-0.000450,9.797156,0.890600,0.001391,,,,
1670038910.386531,,,,,2217.394000,0.004681,2.999978,0.000210,-0.008955,1.000011,-0.000450,9.797156,0.890600,0.001391,,,,
1670038910.386795,,,,,,,,,,,,,,,3.000000,1.000000,1.000000,0.000000
1670038910.386820,,,,,,,,,,,,,,,3.000000,1.000000,1.000000,0.000000
1670038910.396130,,,,,2217.404000,-0.001746,2.999979,0.000107,0.007193,1.000008,-0.000229,9.797233,0.890614,0.001354,,,,
1670038910.396171,,,,,2217.404000,-0.001746,2.999979,0.000107,0.007193,1.000008,-0.000229,9.797233,0.890614,0.001354,,,,
1670038910.396213,0.004753,-0.009120,9.796652,0.000000,,,,,,,,,,,,,,
1670038910.396222,,,,,,,,,,,,,,,3.000000,1.000000,1.000000,0.000000
1670038910.396234,,,,,,,,,,,,,,,3.000000,1.000000,1.000000,0.000000
1670038910.397258,-0.002407,0.008866,9.796743,0.000000,,,,,,,,,,,,,,
1670038910.405733,,,,,2217.414000,-0.004958,2.999979,-0.000096,0.015197,1.000008,0.000208,9.797306,0.890627,0.001318,,,,
1670038910.405797,,,,,2217.414000,-0.004958,2.999979,-0.000096,0.015197,1.000008,0.000208,9.797306,0.890627,0.001318,,,,
1670038910.406046,,,,,,,,,,,,,,,3.000000,1.000000,1.000000,0.000000
1670038910.406063,,,,,,,,,,,,,,,3.000000,1.000000,1.000000,0.000000
1670038910.415210,,,,,2217.424000,-0.001960,2.999978,-0.000199,0.007596,1.000012,0.000429,9.797375,0.890640,0.001282,,,,
1670038910.415302,,,,,2217.424000,-0.001960,2.999978,-0.000199,0.007596,1.000012,0.000429,9.797375,0.890640,0.001282,,,,
1670038910.415449,-0.005684,0.017022,9.796828,0.000000,,,,,,,,,,,,,,
1670038910.415478,,,,,,,,,,,,,,,3.000000,1.000000,1.000000,0.000000
1670038910.415503,,,,,,,,,,,,,,,3.000000,1.000000,1.000000,0.000000
1670038910.417097,-0.002044,0.007802,9.796910,0.000000,,,,,,,,,,,,,,
1670038910.425640,,,,,2217.434000,0.004124,2.999976,-0.000105,-0.007692,1.000015,0.000228,9.797444,0.890653,0.001248,,,,
1670038910.425747,,,,,2217.434000,0.004124,2.999976,-0.000105,-0.007692,1.000015,0.000228,9.797444,0.890653,0.001248,,,,
1670038910.426300,,,,,,,,,,,,,,,3.000000,1.000000,1.000000,0.000000
1670038910.426367,,,,,,,,,,,,,,,3.000000,1.000000,1.000000,0.000000
1670038910.435454,,,,,2217.444000,0.007292,2.999976,0.000087,-0.015590,1.000015,-0.000185,9.797515,0.890665,0.001214,,,,
1670038910.435518,,,,,2217.444000,0.007292,2.999976,0.000087,-0.015590,1.000015,-0.000185,9.797515,0.890665,0.001214,,,,
1670038910.435751,,,,,,,,,,,,,,,3.000000,1.000000,1.000000,0.000000
1670038910.435781,,,,,,,,,,,,,,,3.000000,1.000000,1.000000,0.000000
1670038910.445408,,,,,2217.454000,0.004581,2.999978,0.000188,-0.008715,1.000012,-0.000403,9.797584,0.890677,0.001182,,,,
1670038910.445454,,,,,2217.454000,0.004581,2.999978,0.000188,-0.008715,1.000012,-0.000403,9.797584,0.890677,0.001182,,,,
1670038910.445676,,,,,,,,,,,,,,,3.000000,1.000000,1.000000,0.000000
1670038910.445697,,,,,,,,,,,,,,,3.000000,1.000000,1.000000,0.000000
1670038910.456007,,,,,2217.464000,-0.001174,2.999979,0.000103,0.005748,1.000009,-0.000222,9.797650,0.890689,0.001150,,,,
1670038910.456055,,,,,2217.464000,-0.001174,2.999979,0.000103,0.005748,1.000009,-0.000222,9.797650,0.890689,0.001150,,,,
1670038910.456318,,,,,,,,,,,,,,,3.000000,1.000000,1.000000,0.000000
1670038910.456334,,,,,,,,,,,,,,,3.000000,1.000000,1.000000,0.000000
1670038910.466561,,,,,2217.474000,-0.004293,2.999979,-0.000078,0.013525,1.000009,0.000169,9.797711,0.890700,0.001119,,,,
1670038910.466616,,,,,2217.474000,-0.004293,2.999979,-0.000078,0.013525,1.000009,0.000169,9.797711,0.890700,0.001119,,,,
1670038910.467164,,,,,,,,,,,,,,,3.000000,1.000000,1.000000,0.000000
1670038910.467191,,,,,,,,,,,,,,,3.000000,1.000000,1.000000,0.000000
1670038910.476721,,,,,2217.484000,-0.001849,2.999978,-0.000177,0.007324,1.000011,0.000383,9.797770,0.890711,0.001089,,,,
1670038910.476787,,,,,2217.484000,-0.001849,2.999978,-0.000177,0.007324,1.000011,0.000383,9.797770,0.890711,0.001089,,,,
1670038910.476858,,,,,,,,,,,,,,,3.000000,1.000000,1.000000,0.000000
1670038910.476897,,,,,,,,,,,,,,,3.000000,1.000000,1.000000,0.000000
1670038910.487043,,,,,2217.494000,0.003591,2.999976,-0.000102,-0.006351,1.000014,0.000220,9.797829,0.890722,0.001060,,,,
1670038910.487119,,,,,2217.494000,0.003591,2.999976,-0.000102,-0.006351,1.000014,0.000220,9.797829,0.890722,0.001060,,,,
1670038910.487137,,,,,,,,,,,,,,,3.000000,1.000000,1.000000,0.000000
1670038910.487190,,,,,,,,,,,,,,,3.000000,1.000000,1.000000,0.000000
1670038910.496634,,,,,2217.504000,0.006654,2.999976,0.000070,-0.013993,1.000015,-0.000149,9.797888,0.890732,0.001032,,,,
1670038910.496678,,,,,2217.504000,0.006654,2.999976,0.000070,-0.013993,1.000015,-0.000149,9.797888,0.890732,0.001032,,,,
1670038910.496740,0.004124,-0.007692,9.797444,0.000000,,,,,,,,,,,,,,
1670038910.496751,,,,,,,,,,,,,,,3.000000,1.000000,1.000000,0.000000
1670038910.496765,0.004124,-0.007692,9.797444,0.000000,,,,,,,,,,,,,,
1670038910.496769,,,,,,,,,,,,,,,3.000000,1.000000,1.000000,0.000000
1670038910.497722,0.007292,-0.015590,9.797515,0.000000,,,,,,,,,,,,,,
1670038910.497744,0.007292,-0.015590,9.797515,0.000000,,,,,,,,,,,,,,
1670038910.506694,,,,,2217.514000,0.004458,2.999978,0.000168,-0.008418,1.000012,-0.000360,9.797947,0.890742,0.001004,,,,
1670038910.506753,,,,,2217.514000,0.004458,2.999978,0.000168,-0.008418,1.000012,-0.000360,9.797947,0.890742,0.001004,,,,
1670038910.506978,,,,,,,,,,,,,,,3.000000,1.000000,1.000000,0.000000
1670038910.506994,,,,,,,,,,,,,,,3.000000,1.000000,1.000000,0.000000
1670038910.516447,,,,,2217.524000,-0.000682,2.999979,0.000099,0.004504,1.000009,-0.000213,9.798004,0.890752,0.000977,,,,
1670038910.516504,,,,,2217.524000,-0.000682,2.999979,0.000099,0.004504,1.000009,-0.000213,9.798004,0.890752,0.000977,,,,
1670038910.516705,,,,,,,,,,,,,,,3.000000,1.000000,1.000000,0.000000
1670038910.516736,,,,,,,,,,,,,,,3.000000,1.000000,1.000000,0.000000
1670038910.526896,,,,,2217.534000,-0.003685,2.999979,-0.000063,0.011998,1.000009,0.000136,9.798056,0.890762,0.000951,,,,
1670038910.527000,,,,,2217.534000,-0.003685,2.999979,-0.000063,0.011998,1.000009,0.000136,9.798056,0.890762,0.000951,,,,
1670038910.527162,,,,,,,,,,,,,,,3.000000,1.000000,1.000000,0.000000
1670038910.527193,,,,,,,,,,,,,,,3.000000,1.000000,1.000000,0.000000
1670038910.536889,,,,,2217.544000,-0.001719,2.999978,-0.000158,0.007003,1.000011,0.000342,9.798106,0.890771,0.000925,,,,
1670038910.536951,,,,,2217.544000,-0.001719,2.999978,-0.000158,0.007003,1.000011,0.000342,9.798106,0.890771,0.000925,,,,
1670038910.537174,,,,,,,,,,,,,,,3.000000,1.000000,1.000000,0.000000
1670038910.537212,,,,,,,,,,,,,,,3.000000,1.000000,1.000000,0.000000
1670038910.547504,,,,,2217.554000,0.003134,2.999977,-0.000097,-0.005199,1.000014,0.000211,9.798156,0.890780,0.000901,,,,
1670038910.547576,,,,,2217.554000,0.003134,2.999977,-0.000097,-0.005199,1.000014,0.000211,9.798156,0.890780,0.000901,,,,
1670038910.547942,,,,,,,,,,,,,,,3.000000,1.000000,1.000000,0.000000
1670038910.547973,,,,,,,,,,,,,,,3.000000,1.000000,1.000000,0.000000
1670038910.557354,,,,,2217.564000,0.006073,2.999977,0.000056,-0.012537,1.000014,-0.000119,9.798206,0.890789,0.000876,,,,
1670038910.557393,,,,,2217.564000,0.006073,2.999977,0.000056,-0.012537,1.000014,-0.000119,9.798206,0.890789,0.000876,,,,
1670038910.557420,,,,,,,,,,,,,,,3.000000,1.000000,1.000000,0.000000
1670038910.557428,,,,,,,,,,,,,,,3.000000,1.000000,1.000000,0.000000
1670038910.567563,,,,,2217.574000,0.004319,2.999978,0.000149,-0.008078,1.000012,-0.000320,9.798256,0.890798,0.000853,,,,
1670038910.567603,,,,,2217.574000,0.004319,2.999978,0.000149,-0.008078,1.000012,-0.000320,9.798256,0.890798,0.000853,,,,
1670038910.567634,,,,,,,,,,,,,,,3.000000,1.000000,1.000000,0.000000
1670038910.567643,,,,,,,,,,,,,,,3.000000,1.000000,1.000000,0.000000
1670038910.576866,,,,,2217.584000,-0.000260,2.999979,0.000095,0.003437,1.000010,-0.000204,9.798304,0.890806,0.000830,,,,
1670038910.576924,,,,,2217.584000,-0.000260,2.999979,0.000095,0.003437,1.000010,-0.000204,9.798304,0.890806,0.000830,,,,
1670038910.577241,,,,,,,,,,,,,,,3.000000,1.000000,1.000000,0.000000
1670038910.577268,,,,,,,,,,,,,,,3.000000,1.000000,1.000000,0.000000
1670038910.587365,,,,,2217.594000,-0.003132,2.999979,-0.000049,0.010608,1.000009,0.000107,9.798349,0.890814,0.000808,,,,
1670038910.587476,,,,,2217.594000,-0.003132,2.999979,-0.000049,0.010608,1.000009,0.000107,9.798349,0.890814,0.000808,,,,
1670038910.587571,,,,,,,,,,,,,,,3.000000,1.000000,1.000000,0.000000
1670038910.587603,,,,,,,,,,,,,,,3.000000,1.000000,1.000000,0.000000
1670038910.597780,,,,,2217.604000,-0.001575,2.999978,-0.000141,0.006647,1.000011,0.000304,9.798391,0.890822,0.000786,,,,
1670038910.597892,,,,,2217.604000,-0.001575,2.999978,-0.000141,0.006647,1.000011,0.000304,9.798391,0.890822,0.000786,,,,
1670038910.598290,-0.003685,0.011998,9.798056,0.000000,,,,,,,,,,,,,,
1670038910.598379,-0.003685,0.011998,9.798056,0.000000,,,,,,,,,,,,,,
1670038910.598396,-0.001719,0.007003,9.798106,0.000000,,,,,,,,,,,,,,
1670038910.598410,,,,,,,,,,,,,,,3.000000,1.000000,1.000000,0.000000
1670038910.598431,,,,,,,,,,,,,,,3.000000,1.000000,1.000000,0.000000
1670038910.598503,0.003134,-0.005199,9.798156,0.000000,,,,,,,,,,,,,,
1670038910.598520,-0.001719,0.007003,9.798106,0.000000,,,,,,,,,,,,,,
1670038910.606971,,,,,2217.614000,0.002743,2.999977,-0.000093,-0.004214,1.000014,0.000200,9.798433,0.890830,0.000765,,,,
1670038910.607062,,,,,2217.614000,0.002743,2.999977,-0.000093,-0.004214,1.000014,0.000200,9.798433,0.890830,0.000765,,,,
1670038910.607330,,,,,,,,,,,,,,,3.000000,1.000000,1.000000,0.000000
1670038910.607372,,,,,,,,,,,,,,,3.000000,1.000000,1.000000,0.000000
1670038910.616799,,,,,2217.624000,0.005544,2.999977,0.000043,-0.011212,1.000014,-0.000093,9.798476,0.890838,0.000744,,,,
1670038910.616883,,,,,2217.624000,0.005544,2.999977,0.000043,-0.011212,1.000014,-0.000093,9.798476,0.890838,0.000744,,,,
1670038910.617063,,,,,,,,,,,,,,,3.000000,1.000000,1.000000,0.000000
1670038910.617099,,,,,,,,,,,,,,,3.000000,1.000000,1.000000,0.000000
1670038910.626290,,,,,2217.634000,0.004170,2.999978,0.000133,-0.007709,1.000012,-0.000285,9.798519,0.890845,0.000725,,,,
1670038910.626355,,,,,2217.634000,0.004170,2.999978,0.000133,-0.007709,1.000012,-0.000285,9.798519,0.890845,0.000725,,,,
1670038910.626611,,,,,,,,,,,,,,,3.000000,1.000000,1.000000,0.000000
1670038910.626629,,,,,,,,,,,,,,,3.000000,1.000000,1.000000,0.000000
1670038910.636251,,,,,2217.644000,0.000099,2.999979,0.000090,0.002528,1.000010,-0.000193,9.798560,0.890852,0.000705,,,,
1670038910.636322,,,,,2217.644000,0.000099,2.999979,0.000090,0.002528,1.000010,-0.000193,9.798560,0.890852,0.000705,,,,
1670038910.636489,,,,,,,,,,,,,,,3.000000,1.000000,1.000000,0.000000
1670038910.636520,,,,,,,,,,,,,,,3.000000,1.000000,1.000000,0.000000
1670038910.646504,,,,,2217.654000,-0.002629,2.999979,-0.000038,0.009346,1.000009,0.000083,9.798597,0.890859,0.000686,,,,
1670038910.646646,,,,,2217.654000,-0.002629,2.999979,-0.000038,0.009346,1.000009,0.000083,9.798597,0.890859,0.000686,,,,
1670038910.646838,,,,,,,,,,,,,,,3.000000,1.000000,1.000000,0.000000
1670038910.646886,,,,,,,,,,,,,,,3.000000,1.000000,1.000000,0.000000
1670038910.656734,,,,,2217.664000,-0.001422,2.999978,-0.000125,0.006266,1.000011,0.000270,9.798633,0.890866,0.000668,,,,
1670038910.656967,,,,,2217.664000,-0.001422,2.999978,-0.000125,0.006266,1.000011,0.000270,9.798633,0.890866,0.000668,,,,
1670038910.657083,-0.003132,0.010608,9.798349,0.000000,,,,,,,,,,,,,,
1670038910.657121,,,,,,,,,,,,,,,3.000000,1.000000,1.000000,0.000000
1670038910.657153,,,,,,,,,,,,,,,3.000000,1.000000,1.000000,0.000000
1670038910.657395,-0.001575,0.006647,9.798391,0.000000,,,,,,,,,,,,,,
1670038910.666974,,,,,2217.674000,0.002411,2.999977,-0.000088,-0.003376,1.000014,0.000190,9.798669,0.890872,0.000650,,,,
1670038910.667083,,,,,2217.674000,0.002411,2.999977,-0.000088,-0.003376,1.000014,0.000190,9.798669,0.890872,0.000650,,,,
1670038910.667426,-0.001575,0.006647,9.798391,0.000000,,,,,,,,,,,,,,
1670038910.667483,,,,,,,,,,,,,,,3.000000,1.000000,1.000000,0.000000
1670038910.667500,,,,,,,,,,,,,,,3.000000,1.000000,1.000000,0.000000
1670038910.667777,0.002743,-0.004214,9.798433,0.000000,,,,,,,,,,,,,,
1670038910.676515,,,,,2217.684000,0.005065,2.999977,0.000033,-0.010011,1.000014,-0.000070,9.798705,0.890879,0.000632,,,,
1670038910.676571,,,,,2217.684000,0.005065,2.999977,0.000033,-0.010011,1.000014,-0.000070,9.798705,0.890879,0.000632,,,,
1670038910.676877,,,,,,,,,,,,,,,3.000000,1.000000,1.000000,0.000000
1670038910.676904,,,,,,,,,,,,,,,3.000000,1.000000,1.000000,0.000000
1670038910.686690,,,,,2217.694000,0.004013,2.999978,0.000117,-0.007321,1.000012,-0.000252,9.798742,0.890885,0.000615,,,,
1670038910.686751,,,,,2217.694000,0.004013,2.999978,0.000117,-0.007321,1.000012,-0.000252,9.798742,0.890885,0.000615,,,,
1670038910.687032,0.005544,-0.011212,9.798476,0.000000,,,,,,,,,,,,,,
1670038910.687055,,,,,,,,,,,,,,,3.000000,1.000000,1.000000,0.000000
1670038910.687075,,,,,,,,,,,,,,,3.000000,1.000000,1.000000,0.000000
1670038910.687576,0.004170,-0.007709,9.798519,0.000000,,,,,,,,,,,,,,
1670038910.696260,0.000000,0.000000,0.000000,0.000000,,,,,,,,,,,,,,
1670038910.696333,,,,,2217.704000,0.000000,2.999983,0.000245,0.000000,1.000018,0.000783,0.000000,0.890260,-0.097455,,,,
1670038910.696384,,,,,2217.704000,0.000000,2.999983,0.000245,0.000000,1.000018,0.000783,0.000000,0.890260,-0.097455,,,,
1670038910.696593,,,,,,,,,,,,,,,3.000000,1.000000,1.000000,0.000000
1670038910.696619,,,,,,,,,,,,,,,3.000000,1.000000,1.000000,0.000000
1670038910.706599,,,,,2217.714000,-0.002174,2.999980,-0.000097,0.008203,1.000013,-0.000903,9.798809,0.889383,-0.096027,,,,
1670038910.706738,,,,,2217.714000,-0.002174,2.999980,-0.000097,0.008203,1.000013,-0.000903,9.798809,0.889383,-0.096027,,,,
1670038910.706914,,,,,,,,,,,,,,,3.000000,1.000000,1.000000,0.000000
1670038910.706959,,,,,,,,,,,,,,,3.000000,1.000000,1.000000,0.000000
1670038910.717058,,,,,2217.724000,-0.006353,2.999979,0.000163,-0.028292,1.000003,-0.001062,13.287580,0.888651,-0.060809,,,,
1670038910.717212,,,,,2217.724000,-0.006353,2.999979,0.000163,-0.028292,1.000003,-0.001062,13.287580,0.888651,-0.060809,,,,
1670038910.717647,,,,,,,,,,,,,,,3.000000,1.000000,1.000000,0.000000
1670038910.717716,,,,,,,,,,,,,,,3.000000,1.000000,1.000000,0.000000
1670038910.726337,,,,,2217.734000,0.004102,2.999979,-0.000099,0.030977,1.000000,0.000110,13.316488,0.888238,-0.025499,,,,
1670038910.726415,,,,,2217.734000,0.004102,2.999979,-0.000099,0.030977,1.000000,0.000110,13.316488,0.888238,-0.025499,,,,
1670038910.726547,,,,,,,,,,,,,,,3.000000,1.000000,1.000000,0.000000
1670038910.726584,,,,,,,,,,,,,,,3.000000,1.000000,1.000000,0.000000
1670038910.736661,,,,,2217.744000,-0.003649,2.999977,-0.000492,0.036999,1.000007,0.001232,12.149702,0.888102,-0.001958,,,,
1670038910.736698,,,,,2217.744000,-0.003649,2.999977,-0.000492,0.036999,1.000007,0.001232,12.149702,0.888102,-0.001958,,,,
1670038910.736769,0.002411,-0.003376,9.798669,0.000000,,,,,,,,,,,,,,
1670038910.736776,,,,,,,,,,,,,,,3.000000,1.000000,1.000000,0.000000
1670038910.736789,,,,,,,,,,,,,,,3.000000,1.000000,1.000000,0.000000
1670038910.736833,0.005065,-0.010011,9.798705,0.000000,,,,,,,,,,,,,,
1670038910.746310,,,,,2217.754000,0.004217,2.999973,-0.000430,-0.003816,1.000019,0.001140,10.950986,0.888134,0.009528,,,,
1670038910.746337,,,,,2217.754000,0.004217,2.999973,-0.000430,-0.003816,1.000019,0.001140,10.950986,0.888134,0.009528,,,,
1670038910.746596,,,,,,,,,,,,,,,3.000000,1.000000,1.000000,0.000000
1670038910.746607,,,,,,,,,,,,,,,3.000000,1.000000,1.000000,0.000000
1670038910.756734,,,,,2217.764000,0.016154,2.999971,0.000103,-0.043493,1.000024,-0.000066,10.139340,0.888240,0.012865,,,,
1670038910.756906,,,,,2217.764000,0.016154,2.999971,0.000103,-0.043493,1.000024,-0.000066,10.139340,0.888240,0.012865,,,,
1670038910.757553,,,,,,,,,,,,,,,3.000000,1.000000,1.000000,0.000000
1670038910.757628,,,,,,,,,,,,,,,3.000000,1.000000,1.000000,0.000000
1670038910.766989,,,,,2217.774000,0.014536,2.999975,0.000587,-0.040857,1.000017,-0.001184,9.734436,0.888361,0.012143,,,,
1670038910.767140,,,,,2217.774000,0.014536,2.999975,0.000587,-0.040857,1.000017,-0.001184,9.734436,0.888361,0.012143,,,,
1670038910.767383,,,,,,,,,,,,,,,3.000000,1.000000,1.000000,0.000000
1670038910.767476,,,,,,,,,,,,,,,3.000000,1.000000,1.000000,0.000000
1670038910.777104,,,,,2217.784000,-0.001377,2.999981,0.000537,0.001105,1.000006,-0.001131,9.608146,0.888470,0.010160,,,,
1670038910.777237,,,,,2217.784000,-0.001377,2.999981,0.000537,0.001105,1.000006,-0.001131,9.608146,0.888470,0.010160,,,,
1670038910.777555,-0.002174,0.008203,9.798809,0.000000,,,,,,,,,,,,,,
1670038910.777601,,,,,,,,,,,,,,,3.000000,1.000000,1.000000,0.000000
1670038910.777695,,,,,,,,,,,,,,,3.000000,1.000000,1.000000,0.000000
1670038910.786902,,,,,2217.794000,-0.016138,2.999983,-0.000005,0.040582,1.000000,0.000007,9.622564,0.888561,0.008327,,,,
1670038910.786958,,,,,2217.794000,-0.016138,2.999983,-0.000005,0.040582,1.000000,0.000007,9.622564,0.888561,0.008327,,,,
1670038910.787114,-0.006353,-0.028292,13.287580,0.000000,,,,,,,,,,,,,,
1670038910.787141,,,,,,,,,,,,,,,3.000000,1.000000,1.000000,0.000000
1670038910.787181,,,,,,,,,,,,,,,3.000000,1.000000,1.000000,0.000000
1670038910.788403,0.004102,0.030977,13.316488,0.000000,,,,,,,,,,,,,,
1670038910.796497,,,,,2217.804000,-0.014961,2.999980,-0.000515,0.039301,1.000006,0.001094,9.682129,0.888638,0.007097,,,,
1670038910.796559,,,,,2217.804000,-0.014961,2.999980,-0.000515,0.039301,1.000006,0.001094,9.682129,0.888638,0.007097,,,,
1670038910.796613,0.004102,0.030977,13.316488,0.000000,,,,,,,,,,,,,,
1670038910.796628,,,,,,,,,,,,,,,3.000000,1.000000,1.000000,0.000000
1670038910.796639,,,,,,,,,,,,,,,3.000000,1.000000,1.000000,0.000000
1670038910.797704,-0.003649,0.036999,12.149702,0.000000,,,,,,,,,,,,,,
1670038910.803494,0.000000,0.000000,0.000000,0.000000,,,,,,,,,,,,,,
1670038910.806651,,,,,2217.814000,0.001159,2.999975,-0.000510,-0.000261,1.000017,0.001082,9.738016,0.888706,0.006429,,,,
1670038910.806724,,,,,2217.814000,0.001159,2.999975,-0.000510,-0.000261,1.000017,0.001082,9.738016,0.888706,0.006429,,,,
1670038910.806900,,,,,,,,,,,,,,,3.000000,1.000000,1.000000,0.000000
1670038910.806929,,,,,,,,,,,,,,,3.000000,1.000000,1.000000,0.000000
1670038910.816750,,,,,2217.824000,0.016621,2.999973,-0.000017,-0.038607,1.000022,0.000024,9.774160,0.888769,0.006125,,,,
1670038910.816869,,,,,2217.824000,0.016621,2.999973,-0.000017,-0.038607,1.000022,0.000024,9.774160,0.888769,0.006125,,,,
1670038910.817124,,,,,,,,,,,,,,,3.000000,1.000000,1.000000,0.000000
1670038910.817177,,,,,,,,,,,,,,,3.000000,1.000000,1.000000,0.000000
1670038910.827149,,,,,2217.834000,0.016777,2.999975,0.000469,-0.038753,1.000017,-0.001019,9.791427,0.888830,0.005996,,,,
1670038910.827284,,,,,2217.834000,0.016777,2.999975,0.000469,-0.038753,1.000017,-0.001019,9.791427,0.888830,0.005996,,,,
1670038910.828327,,,,,,,,,,,,,,,3.000000,1.000000,1.000000,0.000000
1670038910.828391,,,,,,,,,,,,,,,3.000000,1.000000,1.000000,0.000000
1670038910.836777,,,,,2217.844000,0.002134,2.999980,0.000479,-0.001967,1.000007,-0.001037,9.796385,0.888890,0.005918,,,,
1670038910.836867,,,,,2217.844000,0.002134,2.999980,0.000479,-0.001967,1.000007,-0.001037,9.796385,0.888890,0.005918,,,,
1670038910.837034,,,,,,,,,,,,,,,3.000000,1.000000,1.000000,0.000000
1670038910.837068,,,,,,,,,,,,,,,3.000000,1.000000,1.000000,0.000000
1670038910.846562,,,,,2217.854000,-0.012591,2.999982,0.000021,0.034806,1.000002,-0.000050,9.795442,0.888948,0.005831,,,,
1670038910.846615,,,,,2217.854000,-0.012591,2.999982,0.000021,0.034806,1.000002,-0.000050,9.795442,0.888948,0.005831,,,,
1670038910.846759,,,,,,,,,,,,,,,3.000000,1.000000,1.000000,0.000000
1670038910.846775,,,,,,,,,,,,,,,3.000000,1.000000,1.000000,0.000000
1670038910.856879,,,,,2217.864000,-0.013172,2.999980,-0.000443,0.035969,1.000007,0.000950,9.792823,0.889006,0.005718,,,,
1670038910.856934,,,,,2217.864000,-0.013172,2.999980,-0.000443,0.035969,1.000007,0.000950,9.792823,0.889006,0.005718,,,,
1670038910.857374,,,,,,,,,,,,,,,3.000000,1.000000,1.000000,0.000000
1670038910.857420,,,,,,,,,,,,,,,3.000000,1.000000,1.000000,0.000000
1670038910.866225,,,,,2217.874000,0.000413,2.999976,-0.000463,0.001676,1.000016,0.000995,9.790583,0.889062,0.005585,,,,
1670038910.866264,,,,,2217.874000,0.000413,2.999976,-0.000463,0.001676,1.000016,0.000995,9.790583,0.889062,0.005585,,,,
1670038910.866317,,,,,,,,,,,,,,,3.000000,1.000000,1.000000,0.000000
1670038910.866339,,,,,,,,,,,,,,,3.000000,1.000000,1.000000,0.000000
1670038910.876399,,,,,2217.884000,0.014476,2.999973,-0.000036,-0.033596,1.000021,0.000075,9.789325,0.889117,0.005439,,,,
1670038910.876455,,,,,2217.884000,0.014476,2.999973,-0.000036,-0.033596,1.000021,0.000075,9.789325,0.889117,0.005439,,,,
1670038910.876793,,,,,,,,,,,,,,,3.000000,1.000000,1.000000,0.000000
1670038910.876849,,,,,,,,,,,,,,,3.000000,1.000000,1.000000,0.000000
1670038910.886528,,,,,2217.894000,0.015368,2.999975,0.000409,-0.035656,1.000017,-0.000885,9.788932,0.889171,0.005291,,,,
1670038910.886617,,,,,2217.894000,0.015368,2.999975,0.000409,-0.035656,1.000017,-0.000885,9.788932,0.889171,0.005291,,,,
1670038910.887003,0.016621,-0.038607,9.774160,0.000000,,,,,,,,,,,,,,
1670038910.887064,,,,,,,,,,,,,,,3.000000,1.000000,1.000000,0.000000
1670038910.887086,,,,,,,,,,,,,,,3.000000,1.000000,1.000000,0.000000
1670038910.887457,0.016777,-0.038753,9.791427,0.000000,,,,,,,,,,,,,,
1670038910.896598,,,,,2217.904000,0.002689,2.999980,0.000441,-0.003697,1.000008,-0.000953,9.789069,0.889223,0.005145,,,,
1670038910.896679,,,,,2217.904000,0.002689,2.999980,0.000441,-0.003697,1.000008,-0.000953,9.789069,0.889223,0.005145,,,,
1670038910.896813,0.016777,-0.038753,9.791427,0.000000,,,,,,,,,,,,,,
1670038910.896839,,,,,,,,,,,,,,,3.000000,1.000000,1.000000,0.000000
1670038910.896854,,,,,,,,,,,,,,,3.000000,1.000000,1.000000,0.000000
1670038910.897859,0.002134,-0.001967,9.796385,0.000000,,,,,,,,,,,,,,
1670038910.906450,,,,,2217.914000,-0.010802,2.999982,0.000044,0.030121,1.000003,-0.000096,9.789436,0.889274,0.005004,,,,
1670038910.906526,,,,,2217.914000,-0.010802,2.999982,0.000044,0.030121,1.000003,-0.000096,9.789436,0.889274,0.005004,,,,
1670038910.906758,,,,,,,,,,,,,,,3.000000,1.000000,1.000000,0.000000
1670038910.906796,,,,,,,,,,,,,,,3.000000,1.000000,1.000000,0.000000
1670038910.916892,,,,,2217.924000,-0.012016,2.999980,-0.000383,0.032986,1.000007,0.000824,9.789847,0.889323,0.004868,,,,
1670038910.916952,,,,,2217.924000,-0.012016,2.999980,-0.000383,0.032986,1.000007,0.000824,9.789847,0.889323,0.004868,,,,
1670038910.917255,,,,,,,,,,,,,,,3.000000,1.000000,1.000000,0.000000
1670038910.917277,,,,,,,,,,,,,,,3.000000,1.000000,1.000000,0.000000
1670038910.926286,,,,,2217.934000,-0.000215,2.999976,-0.000425,0.003228,1.000016,0.000914,9.790225,0.889371,0.004736,,,,
1670038910.926358,,,,,2217.934000,-0.000215,2.999976,-0.000425,0.003228,1.000016,0.000914,9.790225,0.889371,0.004736,,,,
1670038910.926572,,,,,,,,,,,,,,,3.000000,1.000000,1.000000,0.000000
1670038910.926600,,,,,,,,,,,,,,,3.000000,1.000000,1.000000,0.000000
1670038910.936825,,,,,2217.944000,0.012707,2.999974,-0.000055,-0.029176,1.000020,0.000116,9.790553,0.889418,0.004609,,,,
1670038910.936947,,,,,2217.944000,0.012707,2.999974,-0.000055,-0.029176,1.000020,0.000116,9.790553,0.889418,0.004609,,,,
1670038910.937297,,,,,,,,,,,,,,,3.000000,1.000000,1.000000,0.000000
1670038910.937361,,,,,,,,,,,,,,,3.000000,1.000000,1.000000,0.000000
1670038910.946759,,,,,2217.954000,0.014198,2.999975,0.000354,-0.032757,1.000017,-0.000765,9.790840,0.889463,0.004486,,,,
1670038910.946842,,,,,2217.954000,0.014198,2.999975,0.000354,-0.032757,1.000017,-0.000765,9.790840,0.889463,0.004486,,,,
1670038910.947216,0.014476,-0.033596,9.789325,0.000000,,,,,,,,,,,,,,
1670038910.947264,,,,,,,,,,,,,,,3.000000,1.000000,1.000000,0.000000
1670038910.947288,,,,,,,,,,,,,,,3.000000,1.000000,1.000000,0.000000
1670038910.948172,0.015368,-0.035656,9.788932,0.000000,,,,,,,,,,,,,,
1670038910.956424,,,,,2217.964000,0.003220,2.999979,0.000405,-0.005080,1.000008,-0.000873,9.791096,0.889507,0.004366,,,,
1670038910.956553,,,,,2217.964000,0.003220,2.999979,0.000405,-0.005080,1.000008,-0.000873,9.791096,0.889507,0.004366,,,,
1670038910.957190,,,,,,,,,,,,,,,3.000000,1.000000,1.000000,0.000000
1670038910.957251,,,,,,,,,,,,,,,3.000000,1.000000,1.000000,0.000000
1670038910.966825,,,,,2217.974000,-0.009154,2.999981,0.000061,0.025940,1.000004,-0.000132,9.791330,0.889550,0.004249,,,,
1670038910.966895,,,,,2217.974000,-0.009154,2.999981,0.000061,0.025940,1.000004,-0.000132,9.791330,0.889550,0.004249,,,,
1670038910.967269,0.002689,-0.003697,9.789069,0.000000,,,,,,,,,,,,,,
1670038910.967301,,,,,,,,,,,,,,,3.000000,1.000000,1.000000,0.000000
1670038910.967314,,,,,,,,,,,,,,,3.000000,1.000000,1.000000,0.000000
1670038910.967756,-0.010802,0.030121,9.789436,0.000000,,,,,,,,,,,,,,
1670038910.976730,,,,,2217.984000,-0.010895,2.999980,-0.000331,0.030148,1.000007,0.000711,9.791551,0.889592,0.004135,,,,
1670038910.976800,,,,,2217.984000,-0.010895,2.999980,-0.000331,0.030148,1.000007,0.000711,9.791551,0.889592,0.004135,,,,
1670038910.977137,,,,,,,,,,,,,,,3.000000,1.000000,1.000000,0.000000
1670038910.977173,,,,,,,,,,,,,,,3.000000,1.000000,1.000000,0.000000
1670038910.986104,,,,,2217.994000,-0.000699,2.999976,-0.000388,0.004426,1.000015,0.000836,9.791768,0.889633,0.004024,,,,
1670038910.986210,,,,,2217.994000,-0.000699,2.999976,-0.000388,0.004426,1.000015,0.000836,9.791768,0.889633,0.004024,,,,
1670038910.986531,,,,,,,,,,,,,,,3.000000,1.000000,1.000000,0.000000
1670038910.986569,,,,,,,,,,,,,,,3.000000,1.000000,1.000000,0.000000
1670038910.995960,,,,,2218.004000,0.011133,2.999974,-0.000069,-0.025252,1.000019,0.000147,9.791985,0.889672,0.003916,,,,
1670038910.996078,,,,,2218.004000,0.011133,2.999974,-0.000069,-0.025252,1.000019,0.000147,9.791985,0.889672,0.003916,,,,
1670038910.996338,-0.000215,0.003228,9.790225,0.000000,,,,,,,,,,,,,,
1670038910.996439,,,,,,,,,,,,,,,3.000000,1.000000,1.000000,0.000000
1670038910.996524,,,,,,,,,,,,,,,3.000000,1.000000,1.000000,0.000000
1670038910.997478,0.012707,-0.029176,9.790553,0.000000,,,,,,,,,,,,,,
1670038911.005533,,,,,2218.014000,0.013085,2.999975,0.000306,-0.030010,1.000016,-0.000659,9.792204,0.889711,0.003811,,,,
1670038911.005595,,,,,2218.014000,0.013085,2.999975,0.000306,-0.030010,1.000016,-0.000659,9.792204,0.889711,0.003811,,,,
1670038911.005965,,,,,,,,,,,,,,,3.000000,1.000000,1.000000,0.000000
1670038911.006015,,,,,,,,,,,,,,,3.000000,1.000000,1.000000,0.000000
1670038911.015094,,,,,2218.024000,0.003618,2.999979,0.000370,-0.006132,1.000009,-0.000798,9.792418,0.889749,0.003709,,,,
1670038911.015150,,,,,2218.024000,0.003618,2.999979,0.000370,-0.006132,1.000009,-0.000798,9.792418,0.889749,0.003709,,,,
1670038911.015336,,,,,,,,,,,,,,,3.000000,1.000000,1.000000,0.000000
1670038911.015358,,,,,,,,,,,,,,,3.000000,1.000000,1.000000,0.000000
1670038911.025795,,,,,2218.034000,-0.007695,2.999981,0.000074,0.022238,1.000005,-0.000159,9.792622,0.889785,0.003609,,,,
1670038911.025861,,,,,2218.034000,-0.007695,2.999981,0.000074,0.022238,1.000005,-0.000159,9.792622,0.889785,0.003609,,,,
1670038911.026298,0.003220,-0.005080,9.791096,0.000000,,,,,,,,,,,,,,
1670038911.026328,,,,,,,,,,,,,,,3.000000,1.000000,1.000000,0.000000
1670038911.026344,,,,,,,,,,,,,,,3.000000,1.000000,1.000000,0.000000
1670038911.035517,,,,,2218.044000,-0.009835,2.999980,-0.000284,0.027470,1.000007,0.000612,9.792816,0.889821,0.003513,,,,
1670038911.035605,,,,,2218.044000,-0.009835,2.999980,-0.000284,0.027470,1.000007,0.000612,9.792816,0.889821,0.003513,,,,
1670038911.035822,-0.009154,0.025940,9.791330,0.000000,,,,,,,,,,,,,,
1670038911.035865,,,,,,,,,,,,,,,3.000000,1.000000,1.000000,0.000000
1670038911.035893,,,,,,,,,,,,,,,3.000000,1.000000,1.000000,0.000000
1670038911.036664,-0.010895,0.030148,9.791551,0.000000,,,,,,,,,,,,,,
1670038911.044667,,,,,2218.054000,-0.001061,2.999976,-0.000354,0.005325,1.000014,0.000763,9.793004,0.889855,0.003418,,,,
1670038911.044805,,,,,2218.054000,-0.001061,2.999976,-0.000354,0.005325,1.000014,0.000763,9.793004,0.889855,0.003418,,,,
1670038911.045215,,,,,,,,,,,,,,,3.000000,1.000000,1.000000,0.000000
1670038911.045300,,,,,,,,,,,,,,,3.000000,1.000000,1.000000,0.000000
1670038911.054654,,,,,2218.064000,0.009743,2.999974,-0.000079,-0.021779,1.000019,0.000171,9.793191,0.889889,0.003327,,,,
1670038911.054739,,,,,2218.064000,0.009743,2.999974,-0.000079,-0.021779,1.000019,0.000171,9.793191,0.889889,0.003327,,,,
1670038911.055153,,,,,,,,,,,,,,,3.000000,1.000000,1.000000,0.000000
1670038911.055197,,,,,,,,,,,,,,,3.000000,1.000000,1.000000,0.000000
1670038911.064925,,,,,2218.074000,0.012040,2.999975,0.000263,-0.027422,1.000016,-0.000565,9.793378,0.889922,0.003237,,,,
1670038911.065017,,,,,2218.074000,0.012040,2.999975,0.000263,-0.027422,1.000016,-0.000565,9.793378,0.889922,0.003237,,,,
1670038911.065331,,,,,,,,,,,,,,,3.000000,1.000000,1.000000,0.000000
1670038911.065375,,,,,,,,,,,,,,,3.000000,1.000000,1.000000,0.000000
1670038911.075042,,,,,2218.084000,0.003910,2.999979,0.000338,-0.006907,1.000010,-0.000727,9.793560,0.889954,0.003151,,,,
1670038911.075110,,,,,2218.084000,0.003910,2.999979,0.000338,-0.006907,1.000010,-0.000727,9.793560,0.889954,0.003151,,,,
1670038911.075184,0.013085,-0.030010,9.792204,0.000000,,,,,,,,,,,,,,
1670038911.075208,,,,,,,,,,,,,,,3.000000,1.000000,1.000000,0.000000
1670038911.075247,,,,,,,,,,,,,,,3.000000,1.000000,1.000000,0.000000
1670038911.075958,0.003618,-0.006132,9.792418,0.000000,,,,,,,,,,,,,,
1670038911.084974,,,,,2218.094000,-0.006404,2.999980,0.000083,0.018967,1.000005,-0.000178,9.793733,0.889985,0.003066,,,,
1670038911.085043,,,,,2218.094000,-0.006404,2.999980,0.000083,0.018967,1.000005,-0.000178,9.793733,0.889985,0.003066,,,,
1670038911.085352,,,,,,,,,,,,,,,3.000000,1.000000,1.000000,0.000000
1670038911.085378,,,,,,,,,,,,,,,3.000000,1.000000,1.000000,0.000000
1670038911.094903,,,,,2218.104000,-0.008839,2.999980,-0.000243,0.024955,1.000008,0.000524,9.793898,0.890015,0.002984,,,,
1670038911.094957,,,,,2218.104000,-0.008839,2.999980,-0.000243,0.024955,1.000008,0.000524,9.793898,0.890015,0.002984,,,,
1670038911.095001,,,,,,,,,,,,,,,3.000000,1.000000,1.000000,0.000000
1670038911.095026,,,,,,,,,,,,,,,3.000000,1.000000,1.000000,0.000000
1670038911.105196,,,,,2218.114000,-0.001320,2.999977,-0.000322,0.005970,1.000014,0.000695,9.794057,0.890044,0.002904,,,,
1670038911.105287,,,,,2218.114000,-0.001320,2.999977,-0.000322,0.005970,1.000014,0.000695,9.794057,0.890044,0.002904,,,,
1670038911.105335,,,,,,,,,,,,,,,3.000000,1.000000,1.000000,0.000000
1670038911.105372,,,,,,,,,,,,,,,3.000000,1.000000,1.000000,0.000000
1670038911.115569,,,,,2218.124000,0.008517,2.999975,-0.000087,-0.018715,1.000018,0.000187,9.794216,0.890073,0.002826,,,,
1670038911.115670,,,,,2218.124000,0.008517,2.999975,-0.000087,-0.018715,1.000018,0.000187,9.794216,0.890073,0.002826,,,,
1670038911.116145,,,,,,,,,,,,,,,3.000000,1.000000,1.000000,0.000000
1670038911.116202,,,,,,,,,,,,,,,3.000000,1.000000,1.000000,0.000000
1670038911.125650,,,,,2218.134000,0.011063,2.999976,0.000224,-0.024995,1.000016,-0.000483,9.794374,0.890101,0.002750,,,,
1670038911.125726,,,,,2218.134000,0.011063,2.999976,0.000224,-0.024995,1.000016,-0.000483,9.794374,0.890101,0.002750,,,,
1670038911.126128,0.009743,-0.021779,9.793191,0.000000,,,,,,,,,,,,,,
1670038911.126173,,,,,,,,,,,,,,,3.000000,1.000000,1.000000,0.000000
1670038911.126200,,,,,,,,,,,,,,,3.000000,1.000000,1.000000,0.000000
1670038911.126596,0.012040,-0.027422,9.793378,0.000000,,,,,,,,,,,,,,
1670038911.135713,,,,,2218.144000,0.004112,2.999978,0.000307,-0.007448,1.000010,-0.000660,9.794529,0.890128,0.002676,,,,
1670038911.135775,,,,,2218.144000,0.004112,2.999978,0.000307,-0.007448,1.000010,-0.000660,9.794529,0.890128,0.002676,,,,
1670038911.136077,,,,,,,,,,,,,,,3.000000,1.000000,1.000000,0.000000
1670038911.136108,,,,,,,,,,,,,,,3.000000,1.000000,1.000000,0.000000
1670038911.146389,,,,,2218.154000,-0.005266,2.999980,0.000089,0.016085,1.000006,-0.000192,9.794677,0.890154,0.002605,,,,
1670038911.146461,,,,,2218.154000,-0.005266,2.999980,0.000089,0.016085,1.000006,-0.000192,9.794677,0.890154,0.002605,,,,
1670038911.146936,,,,,,,,,,,,,,,3.000000,1.000000,1.000000,0.000000
1670038911.146976,,,,,,,,,,,,,,,3.000000,1.000000,1.000000,0.000000
1670038911.156428,,,,,2218.164000,-0.007907,2.999979,-0.000207,0.022604,1.000008,0.000446,9.794816,0.890180,0.002535,,,,
1670038911.156504,,,,,2218.164000,-0.007907,2.999979,-0.000207,0.022604,1.000008,0.000446,9.794816,0.890180,0.002535,,,,
1670038911.156754,,,,,,,,,,,,,,,3.000000,1.000000,1.000000,0.000000
1670038911.156798,,,,,,,,,,,,,,,3.000000,1.000000,1.000000,0.000000
1670038911.167085,,,,,2218.174000,-0.001494,2.999977,-0.000292,0.006405,1.000013,0.000630,9.794951,0.890205,0.002467,,,,
1670038911.167262,,,,,2218.174000,-0.001494,2.999977,-0.000292,0.006405,1.000013,0.000630,9.794951,0.890205,0.002467,,,,
1670038911.167575,-0.008839,0.024955,9.793898,0.000000,,,,,,,,,,,,,,
1670038911.167626,,,,,,,,,,,,,,,3.000000,1.000000,1.000000,0.000000
1670038911.167662,,,,,,,,,,,,,,,3.000000,1.000000,1.000000,0.000000
1670038911.176936,,,,,2218.184000,0.007439,2.999975,-0.000091,-0.016017,1.000017,0.000198,9.795086,0.890229,0.002401,,,,
1670038911.177030,,,,,2218.184000,0.007439,2.999975,-0.000091,-0.016017,1.000017,0.000198,9.795086,0.890229,0.002401,,,,
1670038911.177431,-0.001320,0.005970,9.794057,0.000000,,,,,,,,,,,,,,
1670038911.177488,,,,,,,,,,,,,,,3.000000,1.000000,1.000000,0.000000
1670038911.177510,,,,,,,,,,,,,,,3.000000,1.000000,1.000000,0.000000
1670038911.187028,,,,,2218.194000,0.010152,2.999976,0.000191,-0.022730,1.000016,-0.000410,9.795221,0.890253,0.002336,,,,
1670038911.187122,,,,,2218.194000,0.010152,2.999976,0.000191,-0.022730,1.000016,-0.000410,9.795221,0.890253,0.002336,,,,
1670038911.187516,0.008517,-0.018715,9.794216,0.000000,,,,,,,,,,,,,,
1670038911.187580,,,,,,,,,,,,,,,3.000000,1.000000,1.000000,0.000000
1670038911.187612,,,,,,,,,,,,,,,3.000000,1.000000,1.000000,0.000000
1670038911.188008,0.011063,-0.024995,9.794374,0.000000,,,,,,,,,,,,,,
1670038911.197114,,,,,2218.204000,0.004239,2.999978,0.000278,-0.007795,1.000011,-0.000599,9.795353,0.890276,0.002274,,,,
1670038911.197183,,,,,2218.204000,0.004239,2.999978,0.000278,-0.007795,1.000011,-0.000599,9.795353,0.890276,0.002274,,,,
1670038911.197485,0.011063,-0.024995,9.794374,0.000000,,,,,,,,,,,,,,
1670038911.197516,,,,,,,,,,,,,,,3.000000,1.000000,1.000000,0.000000
1670038911.197537,,,,,,,,,,,,,,,3.000000,1.000000,1.000000,0.000000
1670038911.198139,0.004112,-0.007448,9.794529,0.000000,,,,,,,,,,,,,,
1670038911.207436,,,,,2218.214000,-0.004266,2.999980,0.000093,0.013552,1.000007,-0.000200,9.795478,0.890298,0.002213,,,,
1670038911.207502,,,,,2218.214000,-0.004266,2.999980,0.000093,0.013552,1.000007,-0.000200,9.795478,0.890298,0.002213,,,,
1670038911.207815,,,,,,,,,,,,,,,3.000000,1.000000,1.000000,0.000000
1670038911.207841,,,,,,,,,,,,,,,3.000000,1.000000,1.000000,0.000000
1670038911.217678,,,,,2218.224000,-0.007037,2.999979,-0.000175,0.020414,1.000008,0.000378,9.795597,0.890320,0.002153,,,,
1670038911.217744,,,,,2218.224000,-0.007037,2.999979,-0.000175,0.020414,1.000008,0.000378,9.795597,0.890320,0.002153,,,,
1670038911.217917,,,,,,,,,,,,,,,3.000000,1.000000,1.000000,0.000000
1670038911.217952,,,,,,,,,,,,,,,3.000000,1.000000,1.000000,0.000000
1670038911.226446,,,,,2218.234000,-0.001596,2.999977,-0.000264,0.006663,1.000013,0.000571,9.795711,0.890341,0.002095,,,,
1670038911.226505,,,,,2218.234000,-0.001596,2.999977,-0.000264,0.006663,1.000013,0.000571,9.795711,0.890341,0.002095,,,,
1670038911.226824,,,,,,,,,,,,,,,3.000000,1.000000,1.000000,0.000000
1670038911.226847,,,,,,,,,,,,,,,3.000000,1.000000,1.000000,0.000000
1670038911.237134,,,,,2218.244000,0.006495,2.999975,-0.000094,-0.013650,1.000017,0.000204,9.795825,0.890362,0.002039,,,,
1670038911.237187,,,,,2218.244000,0.006495,2.999975,-0.000094,-0.013650,1.000017,0.000204,9.795825,0.890362,0.002039,,,,
1670038911.237722,-0.001494,0.006405,9.794951,0.000000,,,,,,,,,,,,,,
1670038911.237757,,,,,,,,,,,,,,,3.000000,1.000000,1.000000,0.000000
1670038911.237769,,,,,,,,,,,,,,,3.000000,1.000000,1.000000,0.000000
1670038911.247383,,,,,2218.254000,0.009306,2.999976,0.000161,-0.020623,1.000016,-0.000346,9.795940,0.890382,0.001984,,,,
1670038911.247450,,,,,2218.254000,0.009306,2.999976,0.000161,-0.020623,1.000016,-0.000346,9.795940,0.890382,0.001984,,,,
1670038911.247866,,,,,,,,,,,,,,,3.000000,1.000000,1.000000,0.000000
1670038911.247915,,,,,,,,,,,,,,,3.000000,1.000000,1.000000,0.000000
1670038911.257226,,,,,2218.264000,0.004304,2.999978,0.000252,-0.007982,1.000011,-0.000541,9.796052,0.890402,0.001931,,,,
1670038911.257264,,,,,2218.264000,0.004304,2.999978,0.000252,-0.007982,1.000011,-0.000541,9.796052,0.890402,0.001931,,,,
1670038911.257499,,,,,,,,,,,,,,,3.000000,1.000000,1.000000,0.000000
1670038911.257518,,,,,,,,,,,,,,,3.000000,1.000000,1.000000,0.000000
1670038911.267419,,,,,2218.274000,-0.003389,2.999980,0.000095,0.011334,1.000008,-0.000204,9.796159,0.890421,0.001880,,,,
1670038911.267441,,,,,2218.274000,-0.003389,2.999980,0.000095,0.011334,1.000008,-0.000204,9.796159,0.890421,0.001880,,,,
1670038911.267587,,,,,,,,,,,,,,,3.000000,1.000000,1.000000,0.000000
1670038911.267601,,,,,,,,,,,,,,,3.000000,1.000000,1.000000,0.000000
1670038911.277477,,,,,2218.284000,-0.006230,2.999979,-0.000147,0.018382,1.000008,0.000319,9.796260,0.890439,0.001829,,,,
1670038911.277498,,,,,2218.284000,-0.006230,2.999979,-0.000147,0.018382,1.000008,0.000319,9.796260,0.890439,0.001829,,,,
1670038911.277739,-0.004266,0.013552,9.795478,0.000000,,,,,,,,,,,,,,
1670038911.277773,,,,,,,,,,,,,,,3.000000,1.000000,1.000000,0.000000
1670038911.277781,,,,,,,,,,,,,,,3.000000,1.000000,1.000000,0.000000
1670038911.278260,-0.007037,0.020414,9.795597,0.000000,,,,,,,,,,,,,,
1670038911.287323,,,,,2218.294000,-0.001640,2.999977,-0.000239,0.006778,1.000013,0.000515,9.796357,0.890457,0.001780,,,,
1670038911.287506,,,,,2218.294000,-0.001640,2.999977,-0.000239,0.006778,1.000013,0.000515,9.796357,0.890457,0.001780,,,,
1670038911.287536,,,,,,,,,,,,,,,3.000000,1.000000,1.000000,0.000000
1670038911.287543,,,,,,,,,,,,,,,3.000000,1.000000,1.000000,0.000000
1670038911.297576,,,,,2218.304000,0.005669,2.999976,-0.000095,-0.011578,1.000016,0.000207,9.796453,0.890475,0.001732,,,,
1670038911.297629,,,,,2218.304000,0.005669,2.999976,-0.000095,-0.011578,1.000016,0.000207,9.796453,0.890475,0.001732,,,,
1670038911.297892,,,,,,,,,,,,,,,3.000000,1.000000,1.000000,0.000000
1670038911.297909,,,,,,,,,,,,,,,3.000000,1.000000,1.000000,0.000000
1670038911.307829,,,,,2218.314000,0.008524,2.999976,0.000136,-0.018671,1.000015,-0.000291,9.796551,0.890492,0.001686,,,,
1670038911.307889,,,,,2218.314000,0.008524,2.999976,0.000136,-0.018671,1.000015,-0.000291,9.796551,0.890492,0.001686,,,,
1670038911.307940,,,,,,,,,,,,,,,3.000000,1.000000,1.000000,0.000000
1670038911.307952,,,,,,,,,,,,,,,3.000000,1.000000,1.000000,0.000000
1670038911.317549,,,,,2218.324000,0.004319,2.999978,0.000227,-0.008036,1.000011,-0.000488,9.796646,0.890508,0.001641,,,,
1670038911.317569,,,,,2218.324000,0.004319,2.999978,0.000227,-0.008036,1.000011,-0.000488,9.796646,0.890508,0.001641,,,,
1670038911.318035,,,,,,,,,,,,,,,3.000000,1.000000,1.000000,0.000000
1670038911.318058,,,,,,,,,,,,,,,3.000000,1.000000,1.000000,0.000000
1670038911.326756,,,,,2218.334000,-0.002623,2.999979,0.000096,0.009396,1.000008,-0.000205,9.796737,0.890525,0.001597,,,,
1670038911.326778,,,,,2218.334000,-0.002623,2.999979,0.000096,0.009396,1.000008,-0.000205,9.796737,0.890525,0.001597,,,,
1670038911.326797,,,,,,,,,,,,,,,3.000000,1.000000,1.000000,0.000000
1670038911.326808,,,,,,,,,,,,,,,3.000000,1.000000,1.000000,0.000000
1670038911.337454,-0.003389,0.011334,9.796159,0.000000,,,,,,,,,,,,,,
1670038911.337491,,,,,2218.344000,-0.005482,2.999979,-0.000123,0.016504,1.000009,0.000267,9.796823,0.890540,0.001554,,,,
1670038911.337540,,,,,2218.344000,-0.005482,2.999979,-0.000123,0.016504,1.000009,0.000267,9.796823,0.890540,0.001554,,,,
1670038911.337562,,,,,,,,,,,,,,,3.000000,1.000000,1.000000,0.000000
1670038911.337575,,,,,,,,,,,,,,,3.000000,1.000000,1.000000,0.000000
1670038911.346317,,,,,2218.354000,-0.001637,2.999977,-0.000215,0.006774,1.000012,0.000464,9.796905,0.890556,0.001512,,,,
1670038911.346366,,,,,2218.354000,-0.001637,2.999977,-0.000215,0.006774,1.000012,0.000464,9.796905,0.890556,0.001512,,,,
1670038911.346573,,,,,,,,,,,,,,,3.000000,1.000000,1.000000,0.000000
1670038911.346594,,,,,,,,,,,,,,,3.000000,1.000000,1.000000,0.000000
1670038911.356779,,,,,2218.364000,0.004950,2.999976,-0.000095,-0.009772,1.000016,0.000206,9.796987,0.890570,0.001472,,,,
1670038911.356809,,,,,2218.364000,0.004950,2.999976,-0.000095,-0.009772,1.000016,0.000206,9.796987,0.890570,0.001472,,,,
1670038911.357125,,,,,,,,,,,,,,,3.000000,1.000000,1.000000,0.000000
1670038911.357148,,,,,,,,,,,,,,,3.000000,1.000000,1.000000,0.000000
1670038911.366840,,,,,2218.374000,0.007803,2.999976,0.000113,-0.016869,1.000015,-0.000242,9.797070,0.890585,0.001432,,,,
1670038911.366922,,,,,2218.374000,0.007803,2.999976,0.000113,-0.016869,1.000015,-0.000242,9.797070,0.890585,0.001432,,,,
1670038911.367210,,,,,,,,,,,,,,,3.000000,1.000000,1.000000,0.000000
1670038911.367230,,,,,,,,,,,,,,,3.000000,1.000000,1.000000,0.000000
1670038911.376410,,,,,2218.384000,0.004292,2.999978,0.000204,-0.007985,1.000012,-0.000439,9.797151,0.890599,0.001394,,,,
1670038911.376442,,,,,2218.384000,0.004292,2.999978,0.000204,-0.007985,1.000012,-0.000439,9.797151,0.890599,0.001394,,,,
1670038911.376477,0.008524,-0.018671,9.796551,0.000000,,,,,,,,,,,,,,
1670038911.376487,,,,,,,,,,,,,,,3.000000,1.000000,1.000000,0.000000
1670038911.376493,,,,,,,,,,,,,,,3.000000,1.000000,1.000000,0.000000
1670038911.378095,0.004319,-0.008036,9.796646,0.000000,,,,,,,,,,,,,,
1670038911.386736,,,,,2218.394000,-0.001955,2.999979,0.000095,0.007709,1.000009,-0.000203,9.797229,0.890613,0.001356,,,,
1670038911.386782,,,,,2218.394000,-0.001955,2.999979,0.000095,0.007709,1.000009,-0.000203,9.797229,0.890613,0.001356,,,,
1670038911.386822,,,,,,,,,,,,,,,3.000000,1.000000,1.000000,0.000000
1670038911.386831,,,,,,,,,,,,,,,3.000000,1.000000,1.000000,0.000000
1670038911.396955,,,,,2218.404000,-0.004793,2.999979,-0.000102,0.014773,1.000009,0.000221,9.797301,0.890626,0.001320,,,,
1670038911.397021,,,,,2218.404000,-0.004793,2.999979,-0.000102,0.014773,1.000009,0.000221,9.797301,0.890626,0.001320,,,,
1670038911.397372,,,,,,,,,,,,,,,3.000000,1.000000,1.000000,0.000000
1670038911.397394,,,,,,,,,,,,,,,3.000000,1.000000,1.000000,0.000000
1670038911.406638,,,,,2218.414000,-0.001596,2.999978,-0.000193,0.006676,1.000012,0.000417,9.797371,0.890639,0.001285,,,,
1670038911.406705,,,,,2218.414000,-0.001596,2.999978,-0.000193,0.006676,1.000012,0.000417,9.797371,0.890639,0.001285,,,,
1670038911.407049,,,,,,,,,,,,,,,3.000000,1.000000,1.000000,0.000000
1670038911.407072,,,,,,,,,,,,,,,3.000000,1.000000,1.000000,0.000000
1670038911.416480,,,,,2218.424000,0.004325,2.999976,-0.000093,-0.008201,1.000015,0.000202,9.797440,0.890652,0.001250,,,,
1670038911.416561,,,,,2218.424000,0.004325,2.999976,-0.000093,-0.008201,1.000015,0.000202,9.797440,0.890652,0.001250,,,,
1670038911.416581,,,,,,,,,,,,,,,3.000000,1.000000,1.000000,0.000000
1670038911.416642,,,,,,,,,,,,,,,3.000000,1.000000,1.000000,0.000000
1670038911.426221,,,,,2218.434000,0.007140,2.999976,0.000093,-0.015211,1.000015,-0.000200,9.797510,0.890664,0.001217,,,,
1670038911.426305,,,,,2218.434000,0.007140,2.999976,0.000093,-0.015211,1.000015,-0.000200,9.797510,0.890664,0.001217,,,,
1670038911.426457,,,,,,,,,,,,,,,3.000000,1.000000,1.000000,0.000000
1670038911.426469,,,,,,,,,,,,,,,3.000000,1.000000,1.000000,0.000000
1670038911.436781,,,,,2218.444000,0.004233,2.999978,0.000183,-0.007848,1.000012,-0.000394,9.797580,0.890676,0.001184,,,,
1670038911.436828,,,,,2218.444000,0.004233,2.999978,0.000183,-0.007848,1.000012,-0.000394,9.797580,0.890676,0.001184,,,,
1670038911.437253,0.007803,-0.016869,9.797070,0.000000,,,,,,,,,,,,,,
1670038911.437278,,,,,,,,,,,,,,,3.000000,1.000000,1.000000,0.000000
1670038911.437292,,,,,,,,,,,,,,,3.000000,1.000000,1.000000,0.000000
1670038911.445185,0.004292,-0.007985,9.797151,0.000000,,,,,,,,,,,,,,
1670038911.446890,,,,,2218.454000,-0.001376,2.999979,0.000093,0.006245,1.000009,-0.000199,9.797646,0.890688,0.001152,,,,
1670038911.446946,,,,,2218.454000,-0.001376,2.999979,0.000093,0.006245,1.000009,-0.000199,9.797646,0.890688,0.001152,,,,
1670038911.447165,,,,,,,,,,,,,,,3.000000,1.000000,1.000000,0.000000
1670038911.447180,,,,,,,,,,,,,,,3.000000,1.000000,1.000000,0.000000
1670038911.456645,,,,,2218.464000,-0.004160,2.999979,-0.000084,0.013183,1.000009,0.000182,9.797707,0.890699,0.001121,,,,
1670038911.456920,,,,,2218.464000,-0.004160,2.999979,-0.000084,0.013183,1.000009,0.000182,9.797707,0.890699,0.001121,,,,
1670038911.457003,,,,,,,,,,,,,,,3.000000,1.000000,1.000000,0.000000
1670038911.457020,,,,,,,,,,,,,,,3.000000,1.000000,1.000000,0.000000
1670038911.466498,,,,,2218.474000,-0.001525,2.999978,-0.000173,0.006503,1.000012,0.000374,9.797766,0.890710,0.001091,,,,
1670038911.466551,,,,,2218.474000,-0.001525,2.999978,-0.000173,0.006503,1.000012,0.000374,9.797766,0.890710,0.001091,,,,
1670038911.466729,,,,,,,,,,,,,,,3.000000,1.000000,1.000000,0.000000
1670038911.466743,,,,,,,,,,,,,,,3.000000,1.000000,1.000000,0.000000
1670038911.476434,,,,,2218.484000,0.003785,2.999976,-0.000091,-0.006840,1.000015,0.000197,9.797825,0.890721,0.001062,,,,
1670038911.476509,,,,,2218.484000,0.003785,2.999976,-0.000091,-0.006840,1.000015,0.000197,9.797825,0.890721,0.001062,,,,
1670038911.476831,-0.001596,0.006676,9.797371,0.000000,,,,,,,,,,,,,,
1670038911.476866,,,,,,,,,,,,,,,3.000000,1.000000,1.000000,0.000000
1670038911.476876,,,,,,,,,,,,,,,3.000000,1.000000,1.000000,0.000000
1670038911.477433,0.004325,-0.008201,9.797440,0.000000,,,,,,,,,,,,,,
1670038911.486840,,,,,2218.494000,0.006532,2.999976,0.000076,-0.013689,1.000015,-0.000164,9.797885,0.890731,0.001033,,,,
1670038911.487068,,,,,2218.494000,0.006532,2.999976,0.000076,-0.013689,1.000015,-0.000164,9.797885,0.890731,0.001033,,,,
1670038911.487132,,,,,,,,,,,,,,,3.000000,1.000000,1.000000,0.000000
1670038911.487144,,,,,,,,,,,,,,,3.000000,1.000000,1.000000,0.000000
1670038911.497309,,,,,2218.504000,0.004148,2.999978,0.000164,-0.007644,1.000012,-0.000352,9.797944,0.890742,0.001006,,,,
1670038911.497375,,,,,2218.504000,0.004148,2.999978,0.000164,-0.007644,1.000012,-0.000352,9.797944,0.890742,0.001006,,,,
1670038911.497646,,,,,,,,,,,,,,,3.000000,1.000000,1.000000,0.000000
1670038911.497677,,,,,,,,,,,,,,,3.000000,1.000000,1.000000,0.000000
1670038911.506929,,,,,2218.514000,-0.000875,2.999979,0.000090,0.004980,1.000010,-0.000193,9.798000,0.890752,0.000979,,,,
1670038911.506991,,,,,2218.514000,-0.000875,2.999979,0.000090,0.004980,1.000010,-0.000193,9.798000,0.890752,0.000979,,,,
1670038911.507239,,,,,,,,,,,,,,,3.000000,1.000000,1.000000,0.000000
1670038911.507258,,,,,,,,,,,,,,,3.000000,1.000000,1.000000,0.000000
1670038911.516940,,,,,2218.524000,-0.003580,2.999979,-0.000068,0.011726,1.000009,0.000148,9.798053,0.890761,0.000953,,,,
1670038911.516980,,,,,2218.524000,-0.003580,2.999979,-0.000068,0.011726,1.000009,0.000148,9.798053,0.890761,0.000953,,,,
1670038911.517167,,,,,,,,,,,,,,,3.000000,1.000000,1.000000,0.000000
1670038911.517184,,,,,,,,,,,,,,,3.000000,1.000000,1.000000,0.000000
1670038911.527233,,,,,2218.534000,-0.001431,2.999978,-0.000155,0.006272,1.000012,0.000334,9.798103,0.890771,0.000927,,,,
1670038911.527277,,,,,2218.534000,-0.001431,2.999978,-0.000155,0.006272,1.000012,0.000334,9.798103,0.890771,0.000927,,,,
1670038911.527637,,,,,,,,,,,,,,,3.000000,1.000000,1.000000,0.000000
1670038911.527664,,,,,,,,,,,,,,,3.000000,1.000000,1.000000,0.000000
1670038911.536997,,,,,2218.544000,0.003319,2.999977,-0.000088,-0.005666,1.000015,0.000190,9.798152,0.890780,0.000902,,,,
1670038911.537053,,,,,2218.544000,0.003319,2.999977,-0.000088,-0.005666,1.000015,0.000190,9.798152,0.890780,0.000902,,,,
1670038911.537284,-0.001525,0.006503,9.797766,0.000000,,,,,,,,,,,,,,
1670038911.537310,,,,,,,,,,,,,,,3.000000,1.000000,1.000000,0.000000
1670038911.537322,,,,,,,,,,,,,,,3.000000,1.000000,1.000000,0.000000
1670038911.538212,0.003785,-0.006840,9.797825,0.000000,,,,,,,,,,,,,,
1670038911.547313,,,,,2218.554000,0.005977,2.999976,0.000062,-0.012297,1.000015,-0.000132,9.798203,0.890789,0.000878,,,,
1670038911.547387,,,,,2218.554000,0.005977,2.999976,0.000062,-0.012297,1.000015,-0.000132,9.798203,0.890789,0.000878,,,,
1670038911.547653,,,,,,,,,,,,,,,3.000000,1.000000,1.000000,0.000000
1670038911.547674,,,,,,,,,,,,,,,3.000000,1.000000,1.000000,0.000000
1670038911.557100,,,,,2218.564000,0.004044,2.999978,0.000147,-0.007390,1.000012,-0.000315,9.798253,0.890797,0.000854,,,,
1670038911.557148,,,,,2218.564000,0.004044,2.999978,0.000147,-0.007390,1.000012,-0.000315,9.798253,0.890797,0.000854,,,,
1670038911.557566,,,,,,,,,,,,,,,3.000000,1.000000,1.000000,0.000000
1670038911.557588,,,,,,,,,,,,,,,3.000000,1.000000,1.000000,0.000000
1670038911.567722,,,,,2218.574000,-0.000444,2.999979,0.000087,0.003891,1.000010,-0.000186,9.798301,0.890806,0.000831,,,,
1670038911.567776,,,,,2218.574000,-0.000444,2.999979,0.000087,0.003891,1.000010,-0.000186,9.798301,0.890806,0.000831,,,,
1670038911.568034,,,,,,,,,,,,,,,3.000000,1.000000,1.000000,0.000000
1670038911.568057,,,,,,,,,,,,,,,3.000000,1.000000,1.000000,0.000000
1670038911.577538,,,,,2218.584000,-0.003050,2.999979,-0.000055,0.010396,1.000010,0.000119,9.798346,0.890814,0.000809,,,,
1670038911.577573,,,,,2218.584000,-0.003050,2.999979,-0.000055,0.010396,1.000010,0.000119,9.798346,0.890814,0.000809,,,,
1670038911.577822,-0.000875,0.004980,9.798000,0.000000,,,,,,,,,,,,,,
1670038911.577846,,,,,,,,,,,,,,,3.000000,1.000000,1.000000,0.000000
1670038911.577851,,,,,,,,,,,,,,,3.000000,1.000000,1.000000,0.000000
1670038911.578557,-0.003580,0.011726,9.798053,0.000000,,,,,,,,,,,,,,
1670038911.587687,,,,,2218.594000,-0.001319,2.999978,-0.000138,0.005997,1.000012,0.000298,9.798388,0.890822,0.000787,,,,
1670038911.587735,,,,,2218.594000,-0.001319,2.999978,-0.000138,0.005997,1.000012,0.000298,9.798388,0.890822,0.000787,,,,
1670038911.587999,,,,,,,,,,,,,,,3.000000,1.000000,1.000000,0.000000
1670038911.588027,,,,,,,,,,,,,,,3.000000,1.000000,1.000000,0.000000
1670038911.597403,,,,,2218.604000,0.002919,2.999977,-0.000084,-0.004657,1.000014,0.000182,9.798430,0.890830,0.000766,,,,
1670038911.597510,,,,,2218.604000,0.002919,2.999977,-0.000084,-0.004657,1.000014,0.000182,9.798430,0.890830,0.000766,,,,
1670038911.597775,,,,,,,,,,,,,,,3.000000,1.000000,1.000000,0.000000
1670038911.597835,,,,,,,,,,,,,,,3.000000,1.000000,1.000000,0.000000
1670038911.607613,,,,,2218.614000,0.005470,2.999977,0.000049,-0.011028,1.000015,-0.000105,9.798473,0.890837,0.000746,,,,
1670038911.607671,,,,,2218.614000,0.005470,2.999977,0.000049,-0.011028,1.000015,-0.000105,9.798473,0.890837,0.000746,,,,
1670038911.607894,,,,,,,,,,,,,,,3.000000,1.000000,1.000000,0.000000
1670038911.607920,,,,,,,,,,,,,,,3.000000,1.000000,1.000000,0.000000
1670038911.617940,,,,,2218.624000,0.003925,2.999978,0.000131,-0.007099,1.000012,-0.000280,9.798516,0.890844,0.000726,,,,
1670038911.617983,,,,,2218.624000,0.003925,2.999978,0.000131,-0.007099,1.000012,-0.000280,9.798516,0.890844,0.000726,,,,
1670038911.618141,0.005977,-0.012297,9.798203,0.000000,,,,,,,,,,,,,,
1670038911.618154,,,,,,,,,,,,,,,3.000000,1.000000,1.000000,0.000000
1670038911.618168,,,,,,,,,,,,,,,3.000000,1.000000,1.000000,0.000000
1670038911.618381,0.004044,-0.007390,9.798253,0.000000,,,,,,,,,,,,,,
1670038911.618402,-0.000444,0.003891,9.798301,0.000000,,,,,,,,,,,,,,
1670038911.618420,-0.003050,0.010396,9.798346,0.000000,,,,,,,,,,,,,,
1670038911.618440,-0.001319,0.005997,9.798388,0.000000,,,,,,,,,,,,,,
1670038911.618469,0.002919,-0.004657,9.798430,0.000000,,,,,,,,,,,,,,
1670038911.627729,,,,,2218.634000,-0.000074,2.999979,0.000083,0.002957,1.000010,-0.000177,9.798557,0.890852,0.000706,,,,
1670038911.627754,,,,,2218.634000,-0.000074,2.999979,0.000083,0.002957,1.000010,-0.000177,9.798557,0.890852,0.000706,,,,
1670038911.628147,,,,,,,,,,,,,,,3.000000,1.000000,1.000000,0.000000
1670038911.628159,,,,,,,,,,,,,,,3.000000,1.000000,1.000000,0.000000
1670038911.637852,,,,,2218.644000,-0.002567,2.999979,-0.000043,0.009185,1.000010,0.000094,9.798595,0.890859,0.000687,,,,
1670038911.637927,,,,,2218.644000,-0.002567,2.999979,-0.000043,0.009185,1.000010,0.000094,9.798595,0.890859,0.000687,,,,
1670038911.638378,,,,,,,,,,,,,,,3.000000,1.000000,1.000000,0.000000
1670038911.638420,,,,,,,,,,,,,,,3.000000,1.000000,1.000000,0.000000
1670038911.647598,,,,,2218.654000,-0.001195,2.999978,-0.000123,0.005691,1.000012,0.000265,9.798631,0.890865,0.000669,,,,
1670038911.647704,,,,,2218.654000,-0.001195,2.999978,-0.000123,0.005691,1.000012,0.000265,9.798631,0.890865,0.000669,,,,
1670038911.648084,,,,,,,,,,,,,,,3.000000,1.000000,1.000000,0.000000
1670038911.648191,,,,,,,,,,,,,,,3.000000,1.000000,1.000000,0.000000
1670038911.657552,,,,,2218.664000,0.002577,2.999977,-0.000080,-0.003794,1.000014,0.000174,9.798667,0.890872,0.000651,,,,
1670038911.657646,,,,,2218.664000,0.002577,2.999977,-0.000080,-0.003794,1.000014,0.000174,9.798667,0.890872,0.000651,,,,
1670038911.657894,,,,,,,,,,,,,,,3.000000,1.000000,1.000000,0.000000
1670038911.657963,,,,,,,,,,,,,,,3.000000,1.000000,1.000000,0.000000
1670038911.666798,,,,,2218.674000,0.005010,2.999977,0.000039,-0.009873,1.000014,-0.000082,9.798703,0.890878,0.000634,,,,
1670038911.666874,,,,,2218.674000,0.005010,2.999977,0.000039,-0.009873,1.000014,-0.000082,9.798703,0.890878,0.000634,,,,
1670038911.666957,,,,,,,,,,,,,,,3.000000,1.000000,1.000000,0.000000
1670038911.666988,,,,,,,,,,,,,,,3.000000,1.000000,1.000000,0.000000
1670038911.677378,,,,,2218.684000,0.003797,2.999977,0.000116,-0.006781,1.000013,-0.000249,9.798740,0.890885,0.000617,,,,
1670038911.677448,,,,,2218.684000,0.003797,2.999977,0.000116,-0.006781,1.000013,-0.000249,9.798740,0.890885,0.000617,,,,
1670038911.677781,0.005470,-0.011028,9.798473,0.000000,,,,,,,,,,,,,,
1670038911.677801,,,,,,,,,,,,,,,3.000000,1.000000,1.000000,0.000000
1670038911.677813,,,,,,,,,,,,,,,3.000000,1.000000,1.000000,0.000000
1670038911.685808,0.000000,0.000000,0.000000,0.000000,,,,,,,,,,,,,,
1670038911.686384,0.003925,-0.007099,9.798516,0.000000,,,,,,,,,,,,,,
1670038911.686428,,,,,2218.694000,0.000242,2.999978,0.000079,0.002160,1.000011,-0.000168,9.798774,0.890891,0.000600,,,,
1670038911.686490,,,,,2218.694000,0.000242,2.999978,0.000079,0.002160,1.000011,-0.000168,9.798774,0.890891,0.000600,,,,
1670038911.686520,,,,,,,,,,,,,,,3.000000,1.000000,1.000000,0.000000
1670038911.686540,,,,,,,,,,,,,,,3.000000,1.000000,1.000000,0.000000
1670038911.688190,-0.000074,0.002957,9.798557,0.000000,,,,,,,,,,,,,,
1670038911.696303,0.000000,0.000000,0.000000,0.000000,,,,,,,,,,,,,,
1670038911.696401,,,,,2218.704000,-0.002129,2.999979,-0.000033,0.008084,1.000010,0.000073,9.798806,0.890897,0.000584,,,,
1670038911.696474,,,,,2218.704000,-0.002129,2.999979,-0.000033,0.008084,1.000010,0.000073,9.798806,0.890897,0.000584,,,,
1670038911.696544,,,,,,,,,,,,,,,3.000000,1.000000,1.000000,0.000000
1670038911.696571,,,,,,,,,,,,,,,3.000000,1.000000,1.000000,0.000000
1670038911.709807,,,,,2218.714000,-0.001062,2.999978,-0.000109,0.005363,1.000012,0.000235,9.798837,0.890902,0.000568,,,,
1670038911.709904,,,,,2218.714000,-0.001062,2.999978,-0.000109,0.005363,1.000012,0.000235,9.798837,0.890902,0.000568,,,,
1670038911.710237,,,,,,,,,,,,,,,3.000000,1.000000,1.000000,0.000000
1670038911.710276,,,,,,,,,,,,,,,3.000000,1.000000,1.000000,0.000000
1670038911.719583,,,,,2218.724000,0.002286,2.999977,-0.000076,-0.003059,1.000014,0.000164,9.798867,0.890908,0.000553,,,,
1670038911.719658,,,,,2218.724000,0.002286,2.999977,-0.000076,-0.003059,1.000014,0.000164,9.798867,0.890908,0.000553,,,,
1670038911.719962,,,,,,,,,,,,,,,3.000000,1.000000,1.000000,0.000000
1670038911.719998,,,,,,,,,,,,,,,3.000000,1.000000,1.000000,0.000000
1670038911.729229,,,,,2218.734000,0.004593,2.999977,0.000029,-0.008825,1.000014,-0.000063,9.798898,0.890913,0.000538,,,,
1670038911.729288,,,,,2218.734000,0.004593,2.999977,0.000029,-0.008825,1.000014,-0.000063,9.798898,0.890913,0.000538,,,,
1670038911.729733,,,,,,,,,,,,,,,3.000000,1.000000,1.000000,0.000000
1670038911.729768,,,,,,,,,,,,,,,3.000000,1.000000,1.000000,0.000000
1670038911.739535,,,,,2218.744000,0.003662,2.999977,0.000103,-0.006446,1.000013,-0.000221,9.798929,0.890919,0.000524,,,,
1670038911.739615,,,,,2218.744000,0.003662,2.999977,0.000103,-0.006446,1.000013,-0.000221,9.798929,0.890919,0.000524,,,,
1670038911.739816,,,,,,,,,,,,,,,3.000000,1.000000,1.000000,0.000000
1670038911.739843,,,,,,,,,,,,,,,3.000000,1.000000,1.000000,0.000000
1670038911.749218,,,,,2218.754000,0.000510,2.999978,0.000074,0.001483,1.000011,-0.000159,9.798959,0.890924,0.000510,,,,
1670038911.749312,,,,,2218.754000,0.000510,2.999978,0.000074,0.001483,1.000011,-0.000159,9.798959,0.890924,0.000510,,,,
1670038911.749615,,,,,,,,,,,,,,,3.000000,1.000000,1.000000,0.000000
1670038911.749668,,,,,,,,,,,,,,,3.000000,1.000000,1.000000,0.000000
1670038911.759246,,,,,2218.764000,-0.001731,2.999979,-0.000025,0.007087,1.000010,0.000055,9.798986,0.890929,0.000496,,,,
1670038911.759326,,,,,2218.764000,-0.001731,2.999979,-0.000025,0.007087,1.000010,0.000055,9.798986,0.890929,0.000496,,,,
1670038911.759488,,,,,,,,,,,,,,,3.000000,1.000000,1.000000,0.000000
1670038911.759522,,,,,,,,,,,,,,,3.000000,1.000000,1.000000,0.000000
1670038911.769439,,,,,2218.774000,-0.000924,2.999978,-0.000096,0.005023,1.000012,0.000208,9.799012,0.890934,0.000483,,,,
1670038911.769557,,,,,2218.774000,-0.000924,2.999978,-0.000096,0.005023,1.000012,0.000208,9.799012,0.890934,0.000483,,,,
1670038911.769926,,,,,,,,,,,,,,,3.000000,1.000000,1.000000,0.000000
1670038911.769982,,,,,,,,,,,,,,,3.000000,1.000000,1.000000,0.000000
1670038911.779459,,,,,2218.784000,0.002041,2.999977,-0.000072,-0.002437,1.000014,0.000155,9.799038,0.890939,0.000470,,,,
1670038911.779550,,,,,2218.784000,0.002041,2.999977,-0.000072,-0.002437,1.000014,0.000155,9.799038,0.890939,0.000470,,,,
1670038911.779793,-0.001062,0.005363,9.798837,0.000000,,,,,,,,,,,,,,
1670038911.779835,,,,,,,,,,,,,,,3.000000,1.000000,1.000000,0.000000
1670038911.779903,,,,,,,,,,,,,,,3.000000,1.000000,1.000000,0.000000
1670038911.788983,,,,,2218.794000,0.004216,2.999977,0.000022,-0.007876,1.000014,-0.000046,9.799064,0.890943,0.000457,,,,
1670038911.789040,,,,,2218.794000,0.004216,2.999977,0.000022,-0.007876,1.000014,-0.000046,9.799064,0.890943,0.000457,,,,
1670038911.789128,0.002286,-0.003059,9.798867,0.000000,,,,,,,,,,,,,,
1670038911.789146,,,,,,,,,,,,,,,3.000000,1.000000,1.000000,0.000000
1670038911.789158,,,,,,,,,,,,,,,3.000000,1.000000,1.000000,0.000000
1670038911.790308,0.004593,-0.008825,9.798898,0.000000,,,,,,,,,,,,,,
1670038911.799718,,,,,2218.804000,0.003523,2.999977,0.000091,-0.006101,1.000013,-0.000195,9.799090,0.890948,0.000445,,,,
1670038911.799787,,,,,2218.804000,0.003523,2.999977,0.000091,-0.006101,1.000013,-0.000195,9.799090,0.890948,0.000445,,,,
1670038911.800110,0.004593,-0.008825,9.798898,0.000000,,,,,,,,,,,,,,
1670038911.800152,,,,,,,,,,,,,,,3.000000,1.000000,1.000000,0.000000
1670038911.800178,,,,,,,,,,,,,,,3.000000,1.000000,1.000000,0.000000
1670038911.809704,,,,,2218.814000,0.000736,2.999978,0.000070,0.000912,1.000011,-0.000149,9.799116,0.890952,0.000433,,,,
1670038911.809789,,,,,2218.814000,0.000736,2.999978,0.000070,0.000912,1.000011,-0.000149,9.799116,0.890952,0.000433,,,,
1670038911.810005,,,,,,,,,,,,,,,3.000000,1.000000,1.000000,0.000000
1670038911.810049,,,,,,,,,,,,,,,3.000000,1.000000,1.000000,0.000000
1670038911.819667,,,,,2218.824000,-0.001372,2.999978,-0.000018,0.006186,1.000011,0.000040,9.799139,0.890956,0.000421,,,,
1670038911.819807,,,,,2218.824000,-0.001372,2.999978,-0.000018,0.006186,1.000011,0.000040,9.799139,0.890956,0.000421,,,,
1670038911.820170,,,,,,,,,,,,,,,3.000000,1.000000,1.000000,0.000000
1670038911.820235,,,,,,,,,,,,,,,3.000000,1.000000,1.000000,0.000000
1670038911.829814,,,,,2218.834000,-0.000784,2.999978,-0.000085,0.004676,1.000012,0.000184,9.799161,0.890960,0.000410,,,,
1670038911.829937,,,,,2218.834000,-0.000784,2.999978,-0.000085,0.004676,1.000012,0.000184,9.799161,0.890960,0.000410,,,,
1670038911.830354,-0.001731,0.007087,9.798986,0.000000,,,,,,,,,,,,,,
1670038911.830418,,,,,,,,,,,,,,,3.000000,1.000000,1.000000,0.000000
1670038911.830456,,,,,,,,,,,,,,,3.000000,1.000000,1.000000,0.000000
1670038911.831013,-0.000924,0.005023,9.799012,0.000000,,,,,,,,,,,,,,
1670038911.840175,,,,,2218.844000,0.001834,2.999977,-0.000067,-0.001913,1.000013,0.000145,9.799182,0.890965,0.000399,,,,
1670038911.840267,,,,,2218.844000,0.001834,2.999977,-0.000067,-0.001913,1.000013,0.000145,9.799182,0.890965,0.000399,,,,
1670038911.840445,,,,,,,,,,,,,,,3.000000,1.000000,1.000000,0.000000
1670038911.840520,,,,,,,,,,,,,,,3.000000,1.000000,1.000000,0.000000
1670038911.849885,,,,,2218.854000,0.003875,2.999977,0.000015,-0.007020,1.000014,-0.000032,9.799205,0.890968,0.000388,,,,
1670038911.849943,,,,,2218.854000,0.003875,2.999977,0.000015,-0.007020,1.000014,-0.000032,9.799205,0.890968,0.000388,,,,
1670038911.850176,,,,,,,,,,,,,,,3.000000,1.000000,1.000000,0.000000
1670038911.850201,,,,,,,,,,,,,,,3.000000,1.000000,1.000000,0.000000
1670038911.859856,,,,,2218.864000,0.003384,2.999977,0.000080,-0.005753,1.000013,-0.000172,9.799227,0.890972,0.000378,,,,
1670038911.859945,,,,,2218.864000,0.003384,2.999977,0.000080,-0.005753,1.000013,-0.000172,9.799227,0.890972,0.000378,,,,
1670038911.860451,,,,,,,,,,,,,,,3.000000,1.000000,1.000000,0.000000
1670038911.860495,,,,,,,,,,,,,,,3.000000,1.000000,1.000000,0.000000
1670038911.869670,,,,,2218.874000,0.000926,2.999978,0.000065,0.000433,1.000011,-0.000140,9.799249,0.890976,0.000368,,,,
1670038911.869733,,,,,2218.874000,0.000926,2.999978,0.000065,0.000433,1.000011,-0.000140,9.799249,0.890976,0.000368,,,,
1670038911.869924,0.003523,-0.006101,9.799090,0.000000,,,,,,,,,,,,,,
1670038911.869955,,,,,,,,,,,,,,,3.000000,1.000000,1.000000,0.000000
1670038911.869976,,,,,,,,,,,,,,,3.000000,1.000000,1.000000,0.000000
1670038911.871104,0.000736,0.000912,9.799116,0.000000,,,,,,,,,,,,,,
1670038911.879621,,,,,2218.884000,-0.001048,2.999978,-0.000012,0.005374,1.000011,0.000027,9.799268,0.890980,0.000358,,,,
1670038911.879692,,,,,2218.884000,-0.001048,2.999978,-0.000012,0.005374,1.000011,0.000027,9.799268,0.890980,0.000358,,,,
1670038911.880034,,,,,,,,,,,,,,,3.000000,1.000000,1.000000,0.000000
1670038911.880081,,,,,,,,,,,,,,,3.000000,1.000000,1.000000,0.000000
1670038911.889892,,,,,2218.894000,-0.000644,2.999978,-0.000075,0.004329,1.000012,0.000162,9.799287,0.890983,0.000348,,,,
1670038911.890016,,,,,2218.894000,-0.000644,2.999978,-0.000075,0.004329,1.000012,0.000162,9.799287,0.890983,0.000348,,,,
1670038911.890336,,,,,,,,,,,,,,,3.000000,1.000000,1.000000,0.000000
1670038911.890417,,,,,,,,,,,,,,,3.000000,1.000000,1.000000,0.000000
1670038911.899757,,,,,2218.904000,0.001661,2.999977,-0.000063,-0.001476,1.000013,0.000136,9.799305,0.890987,0.000339,,,,
1670038911.899956,,,,,2218.904000,0.001661,2.999977,-0.000063,-0.001476,1.000013,0.000136,9.799305,0.890987,0.000339,,,,
1670038911.900432,-0.000784,0.004676,9.799161,0.000000,,,,,,,,,,,,,,
1670038911.900537,,,,,,,,,,,,,,,3.000000,1.000000,1.000000,0.000000
1670038911.900580,,,,,,,,,,,,,,,3.000000,1.000000,1.000000,0.000000
1670038911.901389,0.001834,-0.001913,9.799182,0.000000,,,,,,,,,,,,,,
1670038911.909156,,,,,2218.914000,0.003569,2.999977,0.000010,-0.006250,1.000014,-0.000021,9.799324,0.890990,0.000330,,,,
1670038911.909217,,,,,2218.914000,0.003569,2.999977,0.000010,-0.006250,1.000014,-0.000021,9.799324,0.890990,0.000330,,,,
1670038911.909279,,,,,,,,,,,,,,,3.000000,1.000000,1.000000,0.000000
1670038911.909300,,,,,,,,,,,,,,,3.000000,1.000000,1.000000,0.000000
1670038911.918775,,,,,2218.924000,0.003245,2.999977,0.000070,-0.005408,1.000013,-0.000151,9.799343,0.890993,0.000321,,,,
1670038911.918926,,,,,2218.924000,0.003245,2.999977,0.000070,-0.005408,1.000013,-0.000151,9.799343,0.890993,0.000321,,,,
1670038911.919019,,,,,,,,,,,,,,,3.000000,1.000000,1.000000,0.000000
1670038911.919036,,,,,,,,,,,,,,,3.000000,1.000000,1.000000,0.000000
1670038911.927837,,,,,2218.934000,0.001084,2.999978,0.000061,0.000035,1.000011,-0.000130,9.799362,0.890996,0.000312,,,,
1670038911.927890,,,,,2218.934000,0.001084,2.999978,0.000061,0.000035,1.000011,-0.000130,9.799362,0.890996,0.000312,,,,
1670038911.928126,,,,,,,,,,,,,,,3.000000,1.000000,1.000000,0.000000
1670038911.928155,,,,,,,,,,,,,,,3.000000,1.000000,1.000000,0.000000
1670038911.937430,,,,,2218.944000,-0.000757,2.999978,-0.000007,0.004644,1.000011,0.000016,9.799379,0.890999,0.000304,,,,
1670038911.937513,,,,,2218.944000,-0.000757,2.999978,-0.000007,0.004644,1.000011,0.000016,9.799379,0.890999,0.000304,,,,
1670038911.937859,,,,,,,,,,,,,,,3.000000,1.000000,1.000000,0.000000
1670038911.937917,,,,,,,,,,,,,,,3.000000,1.000000,1.000000,0.000000
1670038911.947061,,,,,2218.954000,-0.000506,2.999978,-0.000066,0.003986,1.000012,0.000142,9.799394,0.891002,0.000296,,,,
1670038911.947143,,,,,2218.954000,-0.000506,2.999978,-0.000066,0.003986,1.000012,0.000142,9.799394,0.891002,0.000296,,,,
1670038911.947475,,,,,,,,,,,,,,,3.000000,1.000000,1.000000,0.000000
1670038911.947527,,,,,,,,,,,,,,,3.000000,1.000000,1.000000,0.000000
1670038911.956769,,,,,2218.964000,0.001519,2.999977,-0.000058,-0.001113,1.000013,0.000126,9.799410,0.891005,0.000288,,,,
1670038911.956896,,,,,2218.964000,0.001519,2.999977,-0.000058,-0.001113,1.000013,0.000126,9.799410,0.891005,0.000288,,,,
1670038911.957627,,,,,,,,,,,,,,,3.000000,1.000000,1.000000,0.000000
1670038911.957690,,,,,,,,,,,,,,,3.000000,1.000000,1.000000,0.000000
1670038911.966967,,,,,2218.974000,0.003294,2.999977,0.000005,-0.005558,1.000014,-0.000011,9.799426,0.891008,0.000280,,,,
1670038911.967019,,,,,2218.974000,0.003294,2.999977,0.000005,-0.005558,1.000014,-0.000011,9.799426,0.891008,0.000280,,,,
1670038911.967304,0.001661,-0.001476,9.799305,0.000000,,,,,,,,,,,,,,
1670038911.967334,,,,,,,,,,,,,,,3.000000,1.000000,1.000000,0.000000
1670038911.967346,,,,,,,,,,,,,,,3.000000,1.000000,1.000000,0.000000
1670038911.968430,0.003569,-0.006250,9.799324,0.000000,,,,,,,,,,,,,,
1670038911.977133,,,,,2218.984000,0.003109,2.999977,0.000062,-0.005068,1.000013,-0.000132,9.799442,0.891011,0.000273,,,,
1670038911.977191,,,,,2218.984000,0.003109,2.999977,0.000062,-0.005068,1.000013,-0.000132,9.799442,0.891011,0.000273,,,,
1670038911.977199,,,,,,,,,,,,,,,3.000000,1.000000,1.000000,0.000000
1670038911.977208,,,,,,,,,,,,,,,3.000000,1.000000,1.000000,0.000000
1670038911.986448,,,,,2218.994000,0.001214,2.999978,0.000056,-0.000294,1.000012,-0.000121,9.799458,0.891014,0.000265,,,,
1670038911.986486,,,,,2218.994000,0.001214,2.999978,0.000056,-0.000294,1.000012,-0.000121,9.799458,0.891014,0.000265,,,,
1670038911.986617,,,,,,,,,,,,,,,3.000000,1.000000,1.000000,0.000000
1670038911.986634,,,,,,,,,,,,,,,3.000000,1.000000,1.000000,0.000000
1670038911.996542,,,,,2219.004000,-0.000496,2.999978,-0.000003,0.003988,1.000011,0.000007,9.799472,0.891016,0.000258,,,,
1670038911.996600,,,,,2219.004000,-0.000496,2.999978,-0.000003,0.003988,1.000011,0.000007,9.799472,0.891016,0.000258,,,,
1670038911.996809,0.001084,0.000035,9.799362,0.000000,,,,,,,,,,,,,,
1670038911.996839,,,,,,,,,,,,,,,3.000000,1.000000,1.000000,0.000000
1670038911.996850,,,,,,,,,,,,,,,3.000000,1.000000,1.000000,0.000000
1670038911.997298,-0.000757,0.004644,9.799379,0.000000,,,,,,,,,,,,,,
1670038912.006264,,,,,2219.014000,-0.000371,2.999978,-0.000057,0.003651,1.000012,0.000124,9.799485,0.891019,0.000251,,,,
1670038912.006323,,,,,2219.014000,-0.000371,2.999978,-0.000057,0.003651,1.000012,0.000124,9.799485,0.891019,0.000251,,,,
1670038912.006513,,,,,,,,,,,,,,,3.000000,1.000000,1.000000,0.000000
1670038912.006541,,,,,,,,,,,,,,,3.000000,1.000000,1.000000,0.000000
1670038912.016364,,,,,2219.024000,0.001402,2.999977,-0.000054,-0.000815,1.000013,0.000117,9.799499,0.891021,0.000245,,,,
1670038912.016450,,,,,2219.024000,0.001402,2.999977,-0.000054,-0.000815,1.000013,0.000117,9.799499,0.891021,0.000245,,,,
1670038912.016726,,,,,,,,,,,,,,,3.000000,1.000000,1.000000,0.000000
1670038912.016767,,,,,,,,,,,,,,,3.000000,1.000000,1.000000,0.000000
1670038912.026485,,,,,2219.034000,0.003047,2.999977,0.000002,-0.004937,1.000014,-0.000003,9.799512,0.891024,0.000238,,,,
1670038912.026531,,,,,2219.034000,0.003047,2.999977,0.000002,-0.004937,1.000014,-0.000003,9.799512,0.891024,0.000238,,,,
1670038912.026724,,,,,,,,,,,,,,,3.000000,1.000000,1.000000,0.000000
1670038912.026736,,,,,,,,,,,,,,,3.000000,1.000000,1.000000,0.000000
1670038912.036729,,,,,2219.044000,0.002977,2.999977,0.000054,-0.004737,1.000013,-0.000116,9.799526,0.891026,0.000232,,,,
1670038912.036796,,,,,2219.044000,0.002977,2.999977,0.000054,-0.004737,1.000013,-0.000116,9.799526,0.891026,0.000232,,,,
1670038912.037022,,,,,,,,,,,,,,,3.000000,1.000000,1.000000,0.000000
1670038912.037059,,,,,,,,,,,,,,,3.000000,1.000000,1.000000,0.000000
1670038912.046930,,,,,2219.054000,0.001320,2.999978,0.000052,-0.000563,1.000012,-0.000112,9.799539,0.891028,0.000225,,,,
1670038912.047041,,,,,2219.054000,0.001320,2.999978,0.000052,-0.000563,1.000012,-0.000112,9.799539,0.891028,0.000225,,,,
1670038912.047199,,,,,,,,,,,,,,,3.000000,1.000000,1.000000,0.000000
1670038912.047241,,,,,,,,,,,,,,,3.000000,1.000000,1.000000,0.000000
1670038912.057055,,,,,2219.064000,-0.000262,2.999978,-0.000000,0.003402,1.000011,0.000000,9.799552,0.891031,0.000219,,,,
1670038912.057153,,,,,2219.064000,-0.000262,2.999978,-0.000000,0.003402,1.000011,0.000000,9.799552,0.891031,0.000219,,,,
1670038912.057306,,,,,,,,,,,,,,,3.000000,1.000000,1.000000,0.000000
1670038912.057375,,,,,,,,,,,,,,,3.000000,1.000000,1.000000,0.000000
1670038912.066756,,,,,2219.074000,-0.000241,2.999978,-0.000050,0.003326,1.000012,0.000108,9.799563,0.891033,0.000214,,,,
1670038912.066860,,,,,2219.074000,-0.000241,2.999978,-0.000050,0.003326,1.000012,0.000108,9.799563,0.891033,0.000214,,,,
1670038912.067094,-0.000496,0.003988,9.799472,0.000000,,,,,,,,,,,,,,
1670038912.067143,,,,,,,,,,,,,,,3.000000,1.000000,1.000000,0.000000
1670038912.067173,,,,,,,,,,,,,,,3.000000,1.000000,1.000000,0.000000
1670038912.067241,-0.000496,0.003988,9.799472,0.000000,,,,,,,,,,,,,,
1670038912.067967,-0.000371,0.003651,9.799485,0.000000,,,,,,,,,,,,,,
1670038912.067998,-0.000371,0.003651,9.799485,0.000000,,,,,,,,,,,,,,
1670038912.077850,,,,,2219.084000,0.001307,2.999977,-0.000050,-0.000573,1.000013,0.000108,9.799574,0.891035,0.000208,,,,
1670038912.077941,,,,,2219.084000,0.001307,2.999977,-0.000050,-0.000573,1.000013,0.000108,9.799574,0.891035,0.000208,,,,
1670038912.077987,,,,,,,,,,,,,,,3.000000,1.000000,1.000000,0.000000
1670038912.078008,,,,,,,,,,,,,,,3.000000,1.000000,1.000000,0.000000
1670038912.087999,,,,,2219.094000,0.002827,2.999977,-0.000001,-0.004383,1.000013,0.000003,9.799586,0.891037,0.000202,,,,
1670038912.088059,,,,,2219.094000,0.002827,2.999977,-0.000001,-0.004383,1.000013,0.000003,9.799586,0.891037,0.000202,,,,
1670038912.088204,,,,,,,,,,,,,,,3.000000,1.000000,1.000000,0.000000
1670038912.088232,,,,,,,,,,,,,,,3.000000,1.000000,1.000000,0.000000
1670038912.097715,,,,,2219.104000,0.002850,2.999977,0.000047,-0.004419,1.000013,-0.000101,9.799597,0.891039,0.000197,,,,
1670038912.097736,,,,,2219.104000,0.002850,2.999977,0.000047,-0.004419,1.000013,-0.000101,9.799597,0.891039,0.000197,,,,
1670038912.098149,,,,,,,,,,,,,,,3.000000,1.000000,1.000000,0.000000
1670038912.098183,,,,,,,,,,,,,,,3.000000,1.000000,1.000000,0.000000
1670038912.107739,,,,,2219.114000,0.001406,2.999978,0.000048,-0.000780,1.000012,-0.000103,9.799609,0.891041,0.000192,,,,
1670038912.107804,,,,,2219.114000,0.001406,2.999978,0.000048,-0.000780,1.000012,-0.000103,9.799609,0.891041,0.000192,,,,
1670038912.107945,0.002977,-0.004737,9.799526,0.000000,,,,,,,,,,,,,,
1670038912.107961,,,,,,,,,,,,,,,3.000000,1.000000,1.000000,0.000000
1670038912.107992,,,,,,,,,,,,,,,3.000000,1.000000,1.000000,0.000000
1670038912.108851,0.001320,-0.000563,9.799539,0.000000,,,,,,,,,,,,,,
1670038912.118171,,,,,2219.124000,-0.000054,2.999978,0.000003,0.002879,1.000011,-0.000005,9.799619,0.891043,0.000186,,,,
1670038912.118239,,,,,2219.124000,-0.000054,2.999978,0.000003,0.002879,1.000011,-0.000005,9.799619,0.891043,0.000186,,,,
1670038912.118321,,,,,,,,,,,,,,,3.000000,1.000000,1.000000,0.000000
1670038912.118344,,,,,,,,,,,,,,,3.000000,1.000000,1.000000,0.000000
1670038912.127142,,,,,2219.134000,-0.000116,2.999978,-0.000044,0.003014,1.000012,0.000094,9.799629,0.891044,0.000181,,,,
1670038912.127192,,,,,2219.134000,-0.000116,2.999978,-0.000044,0.003014,1.000012,0.000094,9.799629,0.891044,0.000181,,,,
1670038912.127272,,,,,,,,,,,,,,,3.000000,1.000000,1.000000,0.000000
1670038912.127284,,,,,,,,,,,,,,,3.000000,1.000000,1.000000,0.000000
1670038912.137701,,,,,2219.144000,0.001231,2.999977,-0.000046,-0.000379,1.000013,0.000099,9.799638,0.891046,0.000177,,,,
1670038912.137770,,,,,2219.144000,0.001231,2.999977,-0.000046,-0.000379,1.000013,0.000099,9.799638,0.891046,0.000177,,,,
1670038912.137902,-0.000241,0.003326,9.799563,0.000000,,,,,,,,,,,,,,
1670038912.137938,,,,,,,,,,,,,,,3.000000,1.000000,1.000000,0.000000
1670038912.137954,,,,,,,,,,,,,,,3.000000,1.000000,1.000000,0.000000
1670038912.147622,,,,,2219.154000,0.002631,2.999977,-0.000004,-0.003889,1.000013,0.000008,9.799648,0.891048,0.000172,,,,
1670038912.147696,,,,,2219.154000,0.002631,2.999977,-0.000004,-0.003889,1.000013,0.000008,9.799648,0.891048,0.000172,,,,
1670038912.148073,,,,,,,,,,,,,,,3.000000,1.000000,1.000000,0.000000
1670038912.148124,,,,,,,,,,,,,,,3.000000,1.000000,1.000000,0.000000
1670038912.157228,,,,,2219.164000,0.002728,2.999977,0.000041,-0.004113,1.000013,-0.000087,9.799658,0.891050,0.000167,,,,
1670038912.157292,,,,,2219.164000,0.002728,2.999977,0.000041,-0.004113,1.000013,-0.000087,9.799658,0.891050,0.000167,,,,
1670038912.157651,,,,,,,,,,,,,,,3.000000,1.000000,1.000000,0.000000
1670038912.157679,,,,,,,,,,,,,,,3.000000,1.000000,1.000000,0.000000
1670038912.166850,,,,,2219.174000,0.001474,2.999978,0.000044,-0.000952,1.000012,-0.000095,9.799668,0.891051,0.000163,,,,
1670038912.166910,,,,,2219.174000,0.001474,2.999978,0.000044,-0.000952,1.000012,-0.000095,9.799668,0.891051,0.000163,,,,
1670038912.167189,0.002850,-0.004419,9.799597,0.000000,,,,,,,,,,,,,,
1670038912.167209,,,,,,,,,,,,,,,3.000000,1.000000,1.000000,0.000000
1670038912.167242,,,,,,,,,,,,,,,3.000000,1.000000,1.000000,0.000000
1670038912.168248,0.001406,-0.000780,9.799609,0.000000,,,,,,,,,,,,,,
1670038912.176440,,,,,2219.184000,0.000132,2.999978,0.000005,0.002413,1.000011,-0.000010,9.799677,0.891053,0.000158,,,,
1670038912.176467,,,,,2219.184000,0.000132,2.999978,0.000005,0.002413,1.000011,-0.000010,9.799677,0.891053,0.000158,,,,
1670038912.176524,,,,,,,,,,,,,,,3.000000,1.000000,1.000000,0.000000
1670038912.176532,,,,,,,,,,,,,,,3.000000,1.000000,1.000000,0.000000
1670038912.186445,,,,,2219.194000,0.000004,2.999978,-0.000038,0.002717,1.000012,0.000082,9.799685,0.891055,0.000154,,,,
1670038912.186487,,,,,2219.194000,0.000004,2.999978,-0.000038,0.002717,1.000012,0.000082,9.799685,0.891055,0.000154,,,,
1670038912.186520,,,,,,,,,,,,,,,3.000000,1.000000,1.000000,0.000000
1670038912.186533,,,,,,,,,,,,,,,3.000000,1.000000,1.000000,0.000000
1670038912.196254,,,,,2219.204000,0.001171,2.999978,-0.000042,-0.000226,1.000013,0.000091,9.799692,0.891056,0.000150,,,,
1670038912.196297,,,,,2219.204000,0.001171,2.999978,-0.000042,-0.000226,1.000013,0.000091,9.799692,0.891056,0.000150,,,,
1670038912.196329,,,,,,,,,,,,,,,3.000000,1.000000,1.000000,0.000000
1670038912.196342,,,,,,,,,,,,,,,3.000000,1.000000,1.000000,0.000000
1670038912.205741,,,,,2219.214000,0.002457,2.999977,-0.000006,-0.003450,1.000013,0.000012,9.799701,0.891057,0.000146,,,,
1670038912.205811,,,,,2219.214000,0.002457,2.999977,-0.000006,-0.003450,1.000013,0.000012,9.799701,0.891057,0.000146,,,,
1670038912.205899,0.001231,-0.000379,9.799638,0.000000,,,,,,,,,,,,,,
1670038912.205919,,,,,,,,,,,,,,,3.000000,1.000000,1.000000,0.000000
1670038912.205931,,,,,,,,,,,,,,,3.000000,1.000000,1.000000,0.000000
1670038912.207001,0.002631,-0.003889,9.799648,0.000000,,,,,,,,,,,,,,
1670038912.207092,0.002728,-0.004113,9.799658,0.000000,,,,,,,,,,,,,,
1670038912.215235,,,,,2219.224000,0.002612,2.999977,0.000035,-0.003823,1.000013,-0.000075,9.799709,0.891059,0.000142,,,,
1670038912.215311,,,,,2219.224000,0.002612,2.999977,0.000035,-0.003823,1.000013,-0.000075,9.799709,0.891059,0.000142,,,,
1670038912.215429,0.002631,-0.003889,9.799648,0.000000,,,,,,,,,,,,,,
1670038912.215452,,,,,,,,,,,,,,,3.000000,1.000000,1.000000,0.000000
1670038912.215504,,,,,,,,,,,,,,,3.000000,1.000000,1.000000,0.000000
1670038912.226327,,,,,2219.234000,0.001527,2.999978,0.000040,-0.001086,1.000012,-0.000087,9.799718,0.891060,0.000138,,,,
1670038912.226416,,,,,2219.234000,0.001527,2.999978,0.000040,-0.001086,1.000012,-0.000087,9.799718,0.891060,0.000138,,,,
1670038912.226717,,,,,,,,,,,,,,,3.000000,1.000000,1.000000,0.000000
1670038912.226919,,,,,,,,,,,,,,,3.000000,1.000000,1.000000,0.000000
1670038912.236189,,,,,2219.244000,0.000296,2.999978,0.000006,0.002000,1.000012,-0.000013,9.799725,0.891062,0.000135,,,,
1670038912.236273,,,,,2219.244000,0.000296,2.999978,0.000006,0.002000,1.000012,-0.000013,9.799725,0.891062,0.000135,,,,
